!!!COM: L van Beethoven
!!!OTL: String Quartet Op18 No3
**kern	**text	**dynam	**kern	**text	**dynam	**kern	**text	**dynam	**kern	**text	**dynam	**mxhm
*part4	*part4	*part4	*part3	*part3	*part3	*part2	*part2	*part2	*part1	*part1	*part1	*part1
*staff4	*staff4	*	*staff3	*staff3	*	*staff2	*staff2	*	*staff1	*staff1	*	*
*I"Violoncello	*	*	*I"Viola	*	*	*I"Violin II	*	*	*I"Violin I	*	*	*
*clefF4	*	*	*clefC3	*	*	*clefG2	*	*	*clefG2	*	*	*
*k[f#c#]	*	*	*k[f#c#]	*	*	*k[f#c#]	*	*	*k[f#c#]	*	*	*
*M6/8	*	*	*M6/8	*	*	*M6/8	*	*	*M6/8	*	*	*
!	!	!	!	!	!	!	!	!	!LO:TX:a:B:t=Presto	!	!	!
4r	.	.	4r	.	.	4r	.	.	(8ddL	.	p	.D.I
.	.	.	.	.	.	.	.	.	8cc#J	.	.	.
=1	=1	=1	=1	=1	=1	=1	=1	=1	=1	=1	=1	=1
2.r	.	.	2.r	.	.	2.r	.	.	8dd'L)	.	.	I
.	.	.	.	.	.	.	.	.	(8b	.	.	.
.	.	.	.	.	.	.	.	.	8a#XJ	.	.	.
.	.	.	.	.	.	.	.	.	8b'L)	.	.	.
.	.	.	.	.	.	.	.	.	(8g	.	.	.
.	.	.	.	.	.	.	.	.	8f#J	.	.	.
=2!|:	=2!|:	=2!|:	=2!|:	=2!|:	=2!|:	=2!|:	=2!|:	=2!|:	=2!|:	=2!|:	=2!|:	=2!|:
2.r	.	.	2.r	.	.	2.r	.	.	8g'L)	.	.	.
.	.	.	.	.	.	.	.	.	(8e	.	.	ii
.	.	.	.	.	.	.	.	.	8d#XJ	.	.	.
.	.	.	.	.	.	.	.	.	8e'L)	.	.	.
.	.	.	.	.	.	.	.	.	8f#'	.	.	.
.	.	.	.	.	.	.	.	.	8g'J	.	.	.
=3	=3	=3	=3	=3	=3	=3	=3	=3	=3	=3	=3	=3
2.r	.	.	2.r	.	.	2.r	.	.	8a'L	.	.	V
.	.	.	.	.	.	.	.	.	8b'	.	.	.
.	.	.	.	.	.	.	.	.	8cc#'J	.	.	.
.	.	.	.	.	.	.	.	.	8dd'L	.	.	.
.	.	.	.	.	.	.	.	.	8ee'	.	.	.
.	.	.	.	.	.	.	.	.	8ff#'J	.	.	.
=4	=4	=4	=4	=4	=4	=4	=4	=4	=4	=4	=4	=4
2.r	.	.	2.r	.	.	4r	.	.	4gg	.	.	V7
.	.	.	.	.	.	8r	.	.	8r	.	.	.
.	.	.	.	.	.	8r	.	.	8r	.	.	.
.	.	.	.	.	.	(8ddL	.	p	(8ff#L	.	.	I
.	.	.	.	.	.	8cc#J	.	.	8ee#XJ	.	.	.
=5	=5	=5	=5	=5	=5	=5	=5	=5	=5	=5	=5	=5
2.r	.	.	2.r	.	.	8dd'L)	.	.	8ff#'L)	.	.	.
.	.	.	.	.	.	(8b	.	.	(8dd	.	.	.
.	.	.	.	.	.	8a#XJ	.	.	8cc#J	.	.	.
.	.	.	.	.	.	8b'L)	.	.	8dd'L)	.	.	.
.	.	.	.	.	.	(8g	.	.	(8b	.	.	.
.	.	.	.	.	.	8f#J	.	.	8a#XJ	.	.	.
=6	=6	=6	=6	=6	=6	=6	=6	=6	=6	=6	=6	=6
2.r	.	.	2.r	.	.	8g'L)	.	.	8b'L)	.	.	ii
.	.	.	.	.	.	(8e	.	.	(8g	.	.	.
.	.	.	.	.	.	8d#XJ	.	.	8f#J	.	.	.
.	.	.	.	.	.	8e'L)	.	.	8g'L)	.	.	.
.	.	.	.	.	.	8f#	.	.	8a	.	.	.
.	.	.	.	.	.	8gJ	.	.	8bJ	.	.	.
=7	=7	=7	=7	=7	=7	=7	=7	=7	=7	=7	=7	=7
2.r	.	.	2.r	.	.	8a'L	.	.	8cc#'L	.	.	V
.	.	.	.	.	.	8b'	.	.	8dd'	.	.	.
.	.	.	.	.	.	8cc#'J	.	.	8ee'J	.	.	.
.	.	.	.	.	.	8dd'L	.	.	8ff#'L	.	.	.
.	.	.	.	.	.	8ee'	.	.	8gg'	.	.	.
.	.	.	.	.	.	8ff#'J	.	.	8aa'J	.	.	.
=8	=8	=8	=8	=8	=8	=8	=8	=8	=8	=8	=8	=8
2.r	.	.	2.r	.	.	4gg	.	.	4bb	.	.	V9
.	.	.	.	.	.	8r	.	.	8r	.	.	.
.	.	.	.	.	.	8r	.	.	8r	.	.	.
.	.	.	.	.	.	(8ff#L	.	.	(8aaL	.	.	.
.	.	.	.	.	.	8ee#XJ)	.	.	8gg#XJ)	.	.	.
=9	=9	=9	=9	=9	=9	=9	=9	=9	=9	=9	=9	=9
4r	.	.	4r	.	.	(8ff#L	.	.	(8aaL	.	.	.
.	.	.	.	.	.	8gg)	.	.	8bb)	.	.	.
8r	.	.	8r	.	.	8aa'J	.	.	8cccn'J	.	.	.
[4.d#X	.	<[	[4.f#	.	<[	4aa'	.	.	4ccc'	.	.	#viio7/ii
.	.	.	.	.	.	8aa'	.	.	8ccc'	.	.	.
=10	=10	=10	=10	=10	=10	=10	=10	=10	=10	=10	=10	=10
4.d#]	.	>	4.f#]	.	>	(4.aa	.	.	(4.cccn	.	.	.
4e	.	.	4g	.	.	8ggL)	.	.	8bb)	.	.	ii
.	.	.	.	.	.	8qbb/	.	.	8qddd/	.	.	v
.	.	.	.	.	.	(8aa	.	.	(8cccL	.	.	.
8r	.	]	8r	.	]	8gg#XJ)	.	.	8bbJ)	.	.	.
=11	=11	=11	=11	=11	=11	=11	=11	=11	=11	=11	=11	=11
4r	.	.	4r	.	.	(8aaL	.	.	(8cccnL	.	.	.
.	.	.	.	.	.	8bb)	.	.	8ddd)	.	.	.
8r	.	.	8r	.	.	8cccn'J	.	.	8eee'J	.	.	.
(4.e	.	<[	(4.g	.	<[	4ccc'	.	.	4eee'	.	.	.bVII6
.	.	.	.	.	.	8ccc'	.	.	8eee'	.	.	.
=12	=12	=12	=12	=12	=12	=12	=12	=12	=12	=12	=12	=12
4.f#	.	>	4.a	.	>	(4.cccn	.	.	(4.eee	.	.	vii%7/IV
4g)	.	]	4b)	.	]	8bbL)	.	.	8ddd)	.	.	IV
.	.	.	.	.	.	8qff#/	.	.	8qaa/	.	.	ii6
.	.	.	.	.	.	(8ee	.	.	(8ggL	.	.	.
8r	.	.	8r	.	.	8dd#XJ)	.	.	8ff#J)	.	.	.
=13	=13	=13	=13	=13	=13	=13	=13	=13	=13	=13	=13	=13
4r	.	.	4r	.	.	(8eeL	.	.	(8ggL	.	.	.
.	.	.	.	.	.	8ff#)	.	.	8aa)	.	.	.
8r	.	.	8r	.	.	8gg'J	.	.	8bb'J	.	.	.
(4.B	.	.	(4.d	.	.	4gg'	.	.	4bb'	.	.	IV6
.	.	.	.	.	.	8gg'	.	.	8bb'	.	.	.
=14	=14	=14	=14	=14	=14	=14	=14	=14	=14	=14	=14	=14
4.c#	.	.	4.e	.	.	(4.gg	.	.	(4.bb	.	.	vii%7
4d)	.	.	4f#)	.	.	4ff#)	.	.	4aa)	.	.	I
8D'	.	.	8d'	.	.	[8ff#	.	.	[8aa	.	.	.
=15	=15	=15	=15	=15	=15	=15	=15	=15	=15	=15	=15	=15
4G'	.	.	4B'	.	.	4ff#]	.	.	4aa]	.	.	IV(#72)
8E'	.	.	8b'	.	.	[8ee	.	.	[8gg	.	.	ii
4A'	.	.	4a'	.	.	4ee]	.	.	4gg]	.	.	V7
8AA'	.	.	8g'	.	.	8cc#	.	.	8ee	.	.	.
=16	=16	=16	=16	=16	=16	=16	=16	=16	=16	=16	=16	=16
[4.D	.	.	(4.g	.	.	(4.cc#	.	.	(4.ee	.	.	I(+#74+2)
8DL]	.	.	8f#L)	.	.	4dd)	.	.	4ff#)	.	.	I\\
(8F#	.	.	(8A	.	.	.	.	.	.	.	.	.
8E#XJ)	.	.	8G#XJ)	.	.	8r	.	.	8r	.	.	.
=17	=17	=17	=17	=17	=17	=17	=17	=17	=17	=17	=17	=17
(8F#L	.	.	(8AL	.	.	2.r	.	.	2.r	.	.	iiio
8G)	.	.	8B)	.	.	.	.	.	.	.	.	.
8A'J	.	.	8cn'J	.	.	.	.	.	.	.	.	.
8A'L	.	.	8c'L	.	.	.	.	.	.	.	.	.
8A'	.	.	8c'	.	.	.	.	.	.	.	.	.
8A'J	.	.	8c'J	.	.	.	.	.	.	.	.	.
=18	=18	=18	=18	=18	=18	=18	=18	=18	=18	=18	=18	=18
(4.A	.	sf	(4.cn	.	sf	(4.d#Xt	.	sf	(4.dd#Xt	.	sf	#viio43/ii
.	.	.	.	.	.	16qqc#/LL	.	.	16qqcc#/LL	.	.	ii6
.	.	.	.	.	.	16qqd#/JJ	.	.	16qqdd#/JJ	.	.	.
8GL)	.	.	8BL)	.	.	4e)	.	.	4ee)	.	.	.
(8A	.	.	(8c	.	.	.	.	.	.	.	.	.
8G#XJ)	.	.	8BJ)	.	.	8r	.	.	8r	.	.	.
=19	=19	=19	=19	=19	=19	=19	=19	=19	=19	=19	=19	=19
(8AL	.	.	(8cnL	.	.	2.r	.	.	2.r	.	.	#viio43/ii
8B)	.	.	8d)	.	.	.	.	.	.	.	.	.
8cn'J	.	.	8e'J	.	.	.	.	.	.	.	.	.
8c'L	.	.	8e'L	.	.	.	.	.	.	.	.	.
8c'	.	.	8e'	.	.	.	.	.	.	.	.	.
8c'J	.	.	8e'J	.	.	.	.	.	.	.	.	.
=20	=20	=20	=20	=20	=20	=20	=20	=20	=20	=20	=20	=20
(4.cn	.	sf	(4.e	.	sf	(4.f#t	.	sf	(4.ff#t	.	sf	vii%43/IV
.	.	.	.	.	.	16qqe/LL	.	.	16qqee/LL	.	.	IV6
.	.	.	.	.	.	16qqf#/JJ	.	.	16qqff#/JJ	.	.	.
4B)	.	.	4d)	.	.	8gL)	.	.	8ggL)	.	.	.
.	.	.	.	.	.	(8ee	.	.	(8gg	.	.	.
8r	.	.	8r	.	.	8dd#XJ)	.	.	8ff#J)	.	.	.
=21	=21	=21	=21	=21	=21	=21	=21	=21	=21	=21	=21	=21
2.r	.	.	2.r	.	.	(8eeL	.	.	(8ggL	.	.	ii
.	.	.	.	.	.	8ff#)	.	.	8aa)	.	.	.
.	.	.	.	.	.	8ggJ	.	.	8bb'J	.	.	.
.	.	.	.	.	.	8gg'L	.	.	8bb'L	.	.	.
.	.	.	.	.	.	8gg'	.	.	8bb'	.	.	.
.	.	.	.	.	.	8gg'J	.	.	8bb'J	.	.	.
=22	=22	=22	=22	=22	=22	=22	=22	=22	=22	=22	=22	=22
(4.A	.	sf	(4.c#	.	sf	(4.gg	.	sf	(4.bb	.	sf	V9
4g)	.	.	4a)	.	.	4cc#)	.	.	4ee)	.	.	V2
8r	.	.	8r	.	.	8r	.	.	8r	.	.	.
=23	=23	=23	=23	=23	=23	=23	=23	=23	=23	=23	=23	=23
(8AL	.	sf	(8c#L	.	sf	(8ggL	.	sf	(8bbL	.	sf	V9
8gJ)	.	.	8aJ)	.	.	8cc#J)	.	.	8eeJ)	.	.	V2
8r	.	.	8r	.	.	8r	.	.	8r	.	.	.
(8AL	.	sf	(8c#L	.	sf	(8ggL	.	sf	(8bbL	.	sf	V9
8gJ)	.	.	8aJ)	.	.	8cc#J)	.	.	8eeJ)	.	.	V2
8r	.	.	8r	.	.	8r	.	.	8r	.	.	.
=24	=24	=24	=24	=24	=24	=24	=24	=24	=24	=24	=24	=24
(8A	.	sf	(8c#	.	sf	(8gg	.	sf	(8bb	.	sf	V9
[4g)	.	.	[4a)	.	.	[4cc#)	.	.	[4ee)	.	.	V2
4g]	.	.	4a]	.	.	4cc#]	.	.	4ee]	.	.	.
8f#'	.	.	8a'	.	.	[8dd	.	.	[8ff#	.	.	I6
=25	=25	=25	=25	=25	=25	=25	=25	=25	=25	=25	=25	=25
4G'	.	.	4b'	.	.	4dd]	.	.	4ff#]	.	.	IV(#7)
8E'	.	.	8B	.	.	[8ee	.	.	[8gg	.	.	ii
4A'	.	.	4A	.	.	4ee]	.	.	4gg]	.	.	V7
8AA'	.	.	8G	.	.	8cc#	.	.	8ee	.	.	.
=26	=26	=26	=26	=26	=26	=26	=26	=26	=26	=26	=26	=26
4D	.	.	4F#	.	.	8dd'L	.	p	4dd	.	.	I\\
.	.	.	.	.	.	8a'	.	.	.	.	.	.
8r	.	.	8r	.	.	8a'J	.	.	8r	.	.	.
4.r	.	.	4f#	.	p	8ddL	.	.	4aa'	.	p	I6
.	.	.	.	.	.	8a	.	.	.	.	.	.
.	.	.	8r	.	.	8aJ	.	.	8ddd'	.	.	.
=27	=27	=27	=27	=27	=27	=27	=27	=27	=27	=27	=27	=27
2.r	.	.	4g	.	.	8eeL	.	.	(8dddL	.	.	V2
.	.	.	.	.	.	8a	.	.	8ccc#)	.	.	.
.	.	.	8r	.	.	8aJ	.	.	8bb'J	.	.	.
.	.	.	4c#	.	.	8eeL	.	.	(8bbL	.	.	V65
.	.	.	.	.	.	8a	.	.	8aa)	.	.	.
.	.	.	8r	.	.	8aJ	.	.	8gg'J	.	.	.
=28	=28	=28	=28	=28	=28	=28	=28	=28	=28	=28	=28	=28
2.r	.	.	4d	.	.	8ff#L	.	.	(8ggL	.	.	I
.	.	.	.	.	.	8f#	.	.	8ff#)	.	.	.
.	.	.	8r	.	.	8f#J	.	.	8ee'J	.	.	.
.	.	.	4B	.	.	8dL	.	.	(8eeL	.	.	vi
.	.	.	.	.	.	8f#	.	.	8dd)	.	.	.
.	.	.	8r	.	.	8f#J	.	.	8cc#'J	.	.	.
=29	=29	=29	=29	=29	=29	=29	=29	=29	=29	=29	=29	=29
2.r	.	.	4G	.	.	8dL	.	.	(8cc#L	.	.	IV(4)
.	.	.	.	.	.	8e	.	.	8b)	.	.	ii6
.	.	.	8r	.	.	8eJ	.	.	8ee'J	.	.	.
.	.	.	4A	.	.	8c#L	.	.	(8eeL	.	.	V
.	.	.	.	.	.	8e	.	.	8cc#)	.	.	.
.	.	.	8r	.	.	8eJ	.	.	8a'J	.	.	.
=30	=30	=30	=30	=30	=30	=30	=30	=30	=30	=30	=30	=30
4D	.	.	8DL	.	.	8dL	.	.	4dd	.	.	I\\
.	.	.	8A	.	.	8a	.	.	.	.	.	.
8r	.	.	8AJ	.	.	8aJ	.	.	8r	.	.	.
4F#	.	.	8dL	.	.	8ddL	.	.	4aa'	.	.	I6
.	.	.	8A	.	.	8a	.	.	.	.	.	.
8r	.	.	8AJ	.	.	8aJ	.	.	8ddd'	.	.	.
=31	=31	=31	=31	=31	=31	=31	=31	=31	=31	=31	=31	=31
4G	.	.	8eL	.	.	8eeL	.	.	(8dddL	.	.	V2
.	.	.	8A	.	.	8a	.	.	8ccc#)	.	.	.
8r	.	.	8AJ	.	.	8aJ	.	.	8bb'J	.	.	.
4C#	.	.	8eL	.	.	8eeL	.	.	(8bbL	.	.	V65
.	.	.	8A	.	.	8a	.	.	8aa)	.	.	.
8r	.	.	8AJ	.	.	8aJ	.	.	8gg'J	.	.	.
=32	=32	=32	=32	=32	=32	=32	=32	=32	=32	=32	=32	=32
4D	.	.	8dL	.	.	8ff#L	.	.	(8ggL	.	.	I
.	.	.	8A	.	.	8f#	.	.	8ff#)	.	.	.
8r	.	.	8AJ	.	.	8f#J	.	.	8ee'J	.	.	.
4BB	.	.	8BL	.	.	8dL	.	.	(8eeL	.	.	vi
.	.	.	8d	.	.	8f#	.	.	8dd)	.	.	.
8r	.	.	8dJ	.	.	8f#J	.	.	8cc#'J	.	.	.
=33	=33	=33	=33	=33	=33	=33	=33	=33	=33	=33	=33	=33
4GG	.	.	8BL	.	.	8dL	.	.	(8cc#L	.	.	IV(4)
.	.	.	8d	.	.	8e	.	.	8b)	.	.	ii6
8r	.	.	8dJ	.	.	8eJ	.	.	8ee'J	.	.	.
4AA	.	.	8EL	.	.	8c#L	.	.	(8eeL	.	.	V7
.	.	.	8G	.	.	8e	.	.	8cc#)	.	.	.
8r	.	.	8GJ	.	.	8eJ	.	.	8a'J	.	.	.
=34	=34	=34	=34	=34	=34	=34	=34	=34	=34	=34	=34	=34
8DD'L	.	.	8F#'L	.	.	8d'L	.	.	4dd	.	.	I\\
(8DD	.	.	(8D	.	.	(8d	.	.	.	.	.	.
8CC#J	.	.	8C#J	.	.	8c#J	.	.	8r	.	.	.
4DD')	.	.	4D')	.	.	4d')	.	.	4r	.	.	.
8r	.	.	8B'	.	.	8dd'	.	.	8gg'	.	.	IV6
=35	=35	=35	=35	=35	=35	=35	=35	=35	=35	=35	=35	=35
2.r	.	.	4c#'	.	.	4a'	.	.	4cc#'	.	.	V6
.	.	.	8d'	.	.	8a'	.	.	8ff#'	.	.	I
.	.	.	4F#'	.	.	4a'	.	.	4dd'	.	.	I6
.	.	.	8A'	.	.	8cc#'	.	.	8ee'	.	.	V
=36	=36	=36	=36	=36	=36	=36	=36	=36	=36	=36	=36	=36
8r	.	.	8dL	.	.	8ddL	.	.	4ff#	.	.	I
(8DDL	.	.	(8D	.	.	(8d	.	.	.	.	.	.
8CC#J	.	.	8C#J	.	.	8c#J	.	.	8r	.	.	.
4DD')	.	.	4D)	.	.	4d)	.	.	4r	.	.	.
8r	.	.	8B	.	.	8dd	.	.	8gg	.	.	IV6
=37	=37	=37	=37	=37	=37	=37	=37	=37	=37	=37	=37	=37
2.r	.	.	4c#'	.	.	4a'	.	.	4ee'	.	.	V6
.	.	.	8d'	.	.	8a'	.	.	8ff#'	.	.	I
.	.	.	4F#'	.	.	4a'	.	.	4dd'	.	.	I6
.	.	.	8A'	.	.	8cc#'	.	.	8ee'	.	.	V
=38	=38	=38	=38	=38	=38	=38	=38	=38	=38	=38	=38	=38
8r	.	.	8d'L	.	.	8dd'L	.	.	4ff#	.	.	I
!LO:TX:b:t=cresc.	!	!	!LO:TX:b:t=cresc.	!	!	!LO:TX:b:t=cresc.	!	!	!	!	!	!
(8DDL	.	.	(8D	.	.	(8d	.	.	.	.	.	.
8CC#J	.	.	8C#J	.	.	8c#J	.	.	8r	.	.	.
4DD')	.	.	4D')	.	.	4d')	.	.	8r	.	.	.
!	!	!	!	!	!	!	!	!	!LO:TX:b:t=cresc.	!	!	!
.	.	.	.	.	.	.	.	.	(8ff#L	.	.	.
8r	.	.	8r	.	.	8r	.	.	8ee#XJ	.	.	.
=39	=39	=39	=39	=39	=39	=39	=39	=39	=39	=39	=39	=39
8r	.	.	8r	.	.	8r	.	.	4ff#')	.	.	.
(8FF#L	.	.	(8F#L	.	.	(8f#L	.	.	.	.	.	.
8EE#XJ	.	.	8E#XJ	.	.	8e#XJ	.	.	8r	.	.	.
4FF#')	.	.	4F#')	.	.	4f#')	.	.	8r	.	.	.
.	.	.	.	.	.	.	.	.	(8aaL	.	.	.
8r	.	.	8r	.	.	8r	.	.	8gg#XJ	.	.	.
=40	=40	=40	=40	=40	=40	=40	=40	=40	=40	=40	=40	=40
8r	.	.	8r	.	.	8r	.	.	4aa')	.	.	.
(8AAL	.	.	(8AL	.	.	(8aL	.	.	.	.	.	.
8GG#XJ	.	.	8G#XJ	.	.	8g#XJ	.	.	8r	.	.	.
4AA')	.	.	4A')	.	.	4a')	.	.	8r	.	.	.
.	.	.	.	.	.	.	.	.	(8cccnL	.	.	.
8r	.	.	8r	.	.	8r	.	.	8bbJ	.	.	.
=41	=41	=41	=41	=41	=41	=41	=41	=41	=41	=41	=41	=41
(2.FFn	.	sf	(2.A	.	sf	(2.a	.	sf	8cccn'L)	.	sf	.bIII
.	.	.	.	.	.	.	.	.	8aa'	.	.	.
.	.	.	.	.	.	.	.	.	8bb'J	.	.	.
.	.	.	.	.	.	.	.	.	8ccc'L	.	.	.
.	.	.	.	.	.	.	.	.	8ddd'	.	.	.
.	.	.	.	.	.	.	.	.	8ddd#X'J	.	.	V.Ger6
=42	=42	=42	=42	=42	=42	=42	=42	=42	=42	=42	=42	=42
8EE'L)	.	.	4G#X)	.	.	4g#X)	.	.	4eee	.	.	V\\
(8EE	.	.	.	.	.	.	.	.	.	.	.	.
8DD#XJ	.	.	8r	.	.	8r	.	.	8r	.	.	.
8EE'L)	.	.	(4.g#X	.	p	(4.dd	.	p	(4.fffn	.	p	V[viio7
8EE	.	.	.	.	.	.	.	.	.	.	.	.
8EEJ	.	.	.	.	.	.	.	.	.	.	.	.
=43	=43	=43	=43	=43	=43	=43	=43	=43	=43	=43	=43	=43
8EEL	.	.	4.a	.	.	4.ccn	.	.	4.eee	.	.	i
8EE	.	.	.	.	.	.	.	.	.	.	.	.
8EEJ	.	.	.	.	.	.	.	.	.	.	.	.
8EEL	.	.	4.fn	.	.	4.g#X	.	.	4.ddd	.	.	viio2
8EE	.	.	.	.	.	.	.	.	.	.	.	.
8EEJ	.	.	.	.	.	.	.	.	.	.	.	.
=44	=44	=44	=44	=44	=44	=44	=44	=44	=44	=44	=44	=44
8EEL	.	.	4.e	.	.	4.a	.	.	4.cccn	.	.	i64
8EE	.	.	.	.	.	.	.	.	.	.	.	.
8EEJ	.	.	.	.	.	.	.	.	.	.	.	.
8EEL	.	.	4.G#X	.	.	4.d	.	.	4.bb	.	.	viio
8EE	.	.	.	.	.	.	.	.	.	.	.	.
8EEJ	.	.	.	.	.	.	.	.	.	.	.	.
=45	=45	=45	=45	=45	=45	=45	=45	=45	=45	=45	=45	=45
8EEL	.	.	4.A)	.	.	4.cn)	.	.	4.aa)	.	.	i
8AA	.	.	.	.	.	.	.	.	.	.	.	.
8CnJ	.	.	.	.	.	.	.	.	.	.	.	.
8EL	.	sf	(4.A	.	sf	(4.d#X	.	sf	(4.ff#	.	sf	#viio64/V
8E	.	.	.	.	.	.	.	.	.	.	.	.
8EJ	.	.	.	.	.	.	.	.	.	.	.	.
=46	=46	=46	=46	=46	=46	=46	=46	=46	=46	=46	=46	=46
8E'L	.	.	4G#X)	.	.	4e)	.	.	4ee)	.	.	V6
(8EE	.	.	.	.	.	.	.	.	.	.	.	.
8DD#X'J	.	.	8r	.	.	8r	.	.	8r	.	.	.
8EEL)	.	.	(4.d	.	.	(4.g#X	.	.	(4.ffn	.	.	viio43
8EE	.	.	.	.	.	.	.	.	.	.	.	.
8EEJ	.	.	.	.	.	.	.	.	.	.	.	.
=47	=47	=47	=47	=47	=47	=47	=47	=47	=47	=47	=47	=47
8EEL	.	.	4.cn	.	.	4.a	.	.	4.ee	.	.	i6
8EE	.	.	.	.	.	.	.	.	.	.	.	.
8EEJ	.	.	.	.	.	.	.	.	.	.	.	.
8EEL	.	.	4.G#X	.	.	4.fn	.	.	4.dd	.	.	viio7
8EE	.	.	.	.	.	.	.	.	.	.	.	.
8EEJ	.	.	.	.	.	.	.	.	.	.	.	.
=48	=48	=48	=48	=48	=48	=48	=48	=48	=48	=48	=48	=48
8EEL	.	.	4.A	.	.	4.e	.	.	4.ccn	.	.	i
8EE	.	.	.	.	.	.	.	.	.	.	.	.
8EEJ	.	.	.	.	.	.	.	.	.	.	.	.
8EEL	.	.	4.D	.	.	4.G#X	.	.	4.b	.	.	viio64
8EE	.	.	.	.	.	.	.	.	.	.	.	.
8EEJ	.	.	.	.	.	.	.	.	.	.	.	.
=49	=49	=49	=49	=49	=49	=49	=49	=49	=49	=49	=49	=49
8EEL	.	.	4.Cn)	.	.	4.A)	.	.	4.a)	.	.	i6
8AA	.	.	.	.	.	.	.	.	.	.	.	.
8CnJ	.	.	.	.	.	.	.	.	.	.	.	.
8EL	.	sf	(4.A	.	sf	(4.d#X	.	sf	(4.f#	.	sf	#viio64/V
8E	.	.	.	.	.	.	.	.	.	.	.	.
8EJ	.	.	.	.	.	.	.	.	.	.	.	.
=50	=50	=50	=50	=50	=50	=50	=50	=50	=50	=50	=50	=50
4E	.	.	8G#X'L)	.	.	8e'L)	.	.	8e'L)	.	.	V6]\\
.	.	.	(8G#	.	.	(8B	.	.	(8e	.	.	@none
8r	.	.	8AJ	.	.	8cnJ	.	.	8d#XJ	.	.	.
4.r	.	.	8G#L)	.	.	8BL)	.	.	8eL)	.	.	.
.	.	.	8A'	.	.	8c'	.	.	8d#'	.	.	.
.	.	.	8G#'J	.	.	8B'J	.	.	8e'J	.	.	.
=51	=51	=51	=51	=51	=51	=51	=51	=51	=51	=51	=51	=51
2.r	.	.	8B'L	.	sf	8d'L	.	sf	8e#X'L	.	sf	.
.	.	.	8A#X'	.	.	8c#'	.	.	8f#'	.	.	.
.	.	.	8B'J	.	.	8d'J	.	.	8e#'J	.	.	.
.	.	.	8A#L	.	.	8c#L	.	.	8f#L	.	.	.
.	.	.	8B'	.	.	8d'	.	.	8e#'	.	.	.
.	.	.	8A#'J	.	.	8c#'J	.	.	8f#'J	.	.	.
=52	=52	=52	=52	=52	=52	=52	=52	=52	=52	=52	=52	=52
2.r	.	.	8d'L	.	sf	8fn'L	.	sf	8g#X'L	.	sf	.
.	.	.	(8c#	.	.	(8e	.	.	(8a	.	.	.
.	.	.	8dJ	.	.	8fJ	.	.	8g#J	.	.	.
.	.	.	8c#'L)	.	.	8e'L)	.	.	8a'L)	.	.	.
.	.	.	8d'	.	.	8f'	.	.	8g#'	.	.	.
.	.	.	8c#'J	.	.	8e'J	.	.	8a'J	.	.	.
=53	=53	=53	=53	=53	=53	=53	=53	=53	=53	=53	=53	=53
!	!	!	!LO:TX:b:t=cresc.	!	!	!LO:TX:b:t=cresc.	!	!	!LO:TX:b:t=cresc.	!	!	!
2.r	.	.	(8eL	.	.	(8gL	.	.	(8a#XL	.	.	.
.	.	.	8d#X)	.	.	8f#)	.	.	8b)	.	.	.
.	.	.	8d#'J	.	.	8f#'J	.	.	8b'J	.	.	.
.	.	.	(8f#L	.	.	(8aL	.	.	(8b#XL	.	.	.
.	.	.	8e)	.	.	8g#X)	.	.	8cc#)	.	.	.
.	.	.	8e'J	.	.	8g#'J	.	.	8cc#'J	.	.	.
=54	=54	=54	=54	=54	=54	=54	=54	=54	=54	=54	=54	=54
2.r	.	.	(8gL	.	.	(8b-XL	.	.	(8cc#L	.	.	.
.	.	.	8f#)	.	.	8a)	.	.	8dd)	.	.	.
.	.	.	8f#'J	.	.	8a'J	.	.	8dd'J	.	.	.
.	.	.	(8aL	.	.	(8ccnL	.	.	(8dd#XL	.	.	.
.	.	.	8g#X)	.	.	8bn)	.	.	8ee)	.	.	.
.	.	.	8g#'J	.	.	8b'J	.	.	8ee'J	.	.	.
=55	=55	=55	=55	=55	=55	=55	=55	=55	=55	=55	=55	=55
(2.E	.	sf	(8bL	.	.	(8ddL	.	.	(8ee#XL	.	.	V9
.	.	.	8a#X)	.	.	8cc#)	.	.	8ff#)	.	.	.
.	.	.	8a#'J	.	.	8cc#'J	.	.	8ff#'J	.	.	.
.	.	.	(8cc#L	.	.	(8eeL	.	.	(8ff##XL	.	.	.
.	.	.	8b)	.	.	8dd)	.	.	8gg#X)	.	.	.
.	.	.	8b'J	.	.	8dd'J	.	.	8gg#'J	.	.	.
=56	=56	=56	=56	=56	=56	=56	=56	=56	=56	=56	=56	=56
4AA)	.	p	4a	.	p	8cc#L	.	p	4aa'	.	p	I
.	.	.	.	.	.	8cc#	.	.	.	.	.	.
8r	.	.	8r	.	.	8cc#J	.	.	8ee'	.	.	.
4.r	.	.	(4.a	.	.	8cc#L	.	.	(4ee	.	.	.
.	.	.	.	.	.	8b#X	.	.	.	.	.	.
.	.	.	.	.	.	8cc#J	.	.	8aa)	.	.	.
=57	=57	=57	=57	=57	=57	=57	=57	=57	=57	=57	=57	=57
2.r	.	.	4b)	.	.	8ddL	.	.	4gg#X'	.	.	V43
.	.	.	.	.	.	8dd	.	.	.	.	.	.
.	.	.	8r	.	.	8ddJ	.	.	8ee'	.	.	.
.	.	.	(4.b	.	.	8ddL	.	.	(4ee	.	.	.
.	.	.	.	.	.	8cc#	.	.	.	.	.	.
.	.	.	.	.	.	8ddJ	.	.	8gg#)	.	.	.
=58	=58	=58	=58	=58	=58	=58	=58	=58	=58	=58	=58	=58
2.r	.	.	8aL)	.	.	8cc#L	.	.	4aa'	.	.	I
.	.	.	8cc#	.	.	8ee	.	.	.	.	.	.
.	.	.	8cc#J	.	.	8eeJ	.	.	8aa'	.	.	.
.	.	.	8g#XL	.	.	8eeL	.	.	4aa#X'	.	.	V6(#4)
.	.	.	8g#	.	.	8ee	.	.	.	.	.	.
.	.	.	8g#J	.	.	8eeJ	.	.	8bb'	.	.	V6
=59	=59	=59	=59	=59	=59	=59	=59	=59	=59	=59	=59	=59
2.r	.	.	8aL	.	.	8eeL	.	.	4cccn'	.	.	i
.	.	.	8a	.	.	8ee	.	.	.	.	.	.
.	.	.	8gJ	.	.	8aJ	.	.	8ccc#X'	.	.	V2
.	.	.	8f#L	.	.	8aL	.	.	4ddd'	.	.	IV6
.	.	.	8f#	.	.	8a	.	.	.	.	.	.
.	.	.	8fnJ	.	.	8aJ	.	.	8ddd#X'	.	.	.Ger6
=60	=60	=60	=60	=60	=60	=60	=60	=60	=60	=60	=60	=60
4r	.	.	4e	.	.	8g#XL	.	.	4eee'	.	.	V\\
.	.	.	.	.	.	8e	.	.	.	.	.	.
8r	.	.	8r	.	.	8eJ	.	.	8eee'	.	.	.
(4.E	.	p	4.r	.	.	8g#L	.	.	4ee'	.	.	.
.	.	.	.	.	.	8e	.	.	.	.	.	.
.	.	.	.	.	.	8eJ	.	.	8ee'	.	.	.
=61	=61	=61	=61	=61	=61	=61	=61	=61	=61	=61	=61	=61
4F#)	.	.	2.r	.	.	8aL	.	.	4dd#X	.	.	#viio6/V
.	.	.	.	.	.	8e	.	.	.	.	.	.
8r	.	.	.	.	.	8eJ	.	.	8ddd	.	.	.
(4.G#X	.	.	.	.	.	8bL	.	.	4ddn	.	.	V65
.	.	.	.	.	.	8e	.	.	.	.	.	.
.	.	.	.	.	.	8eJ	.	.	8dd	.	.	.
=62	=62	=62	=62	=62	=62	=62	=62	=62	=62	=62	=62	=62
4A)	.	.	2.r	.	.	8cc#L	.	.	4cc#	.	.	I
.	.	.	.	.	.	8e	.	.	.	.	.	.
8r	.	.	.	.	.	8eJ	.	.	8r	.	.	.
4D	.	.	.	.	.	8dL	.	.	(8ee#XL	.	.	IV
.	.	.	.	.	.	8f#	.	.	8ff#)	.	.	.
8r	.	.	.	.	.	8dJ	.	.	8b'J	.	.	ii6
=63	=63	=63	=63	=63	=63	=63	=63	=63	=63	=63	=63	=63
4E	.	.	2.r	.	.	8c#L	.	.	(8dd#XL	.	.	V(64)
.	.	.	.	.	.	8e	.	.	8ee)	.	.	.
8r	.	.	.	.	.	8c#J	.	.	8a'J	.	.	.
4EE	.	.	.	.	.	8BL	.	.	(8cc#L	.	.	V(6)
.	.	.	.	.	.	8d	.	.	8ddn)	.	.	V7
8r	.	.	.	.	.	8BJ	.	.	8g#X'J	.	.	.
=64	=64	=64	=64	=64	=64	=64	=64	=64	=64	=64	=64	=64
4AA'	.	.	8r	.	.	8c#L	.	.	4a	.	.	I\\
.	.	.	8c#L	.	p	8A 8e	.	p	.	.	.	.
8EE'	.	.	8c#J	.	.	8AJ 8e	.	.	8r	.	.	.
(4EE	.	.	8c#L	.	.	8AL 8e	.	.	4.r	.	.	I64
.	.	.	8c#	.	.	8A 8e	.	.	.	.	.	.
8AA)	.	.	8c#J	.	.	8AJ 8e	.	.	.	.	.	.
=65	=65	=65	=65	=65	=65	=65	=65	=65	=65	=65	=65	=65
4GG'	.	.	8dL	.	.	8BL 8e	.	.	2.r	.	.	V7
.	.	.	8d	.	.	8B 8e	.	.	.	.	.	.
8EE'	.	.	8dJ	.	.	8BJ 8e	.	.	.	.	.	.
(4EE	.	.	8dL	.	.	8BL 8e	.	.	.	.	.	.
.	.	.	8d	.	.	8B 8e	.	.	.	.	.	.
8GG)	.	.	8dJ	.	.	8BJ 8e	.	.	.	.	.	.
=66	=66	=66	=66	=66	=66	=66	=66	=66	=66	=66	=66	=66
4AA	.	.	8c#L	.	.	8AL	.	.	8r	.	.	I
.	.	.	8c#	.	.	8e	.	.	8r	.	.	.
8r	.	.	8c#J	.	.	8eJ	.	.	8ee	.	.	.
(4.A	.	.	8c#L	.	.	8eL	.	.	(4ee	.	.	.
.	.	.	8c#	.	.	8e	.	.	.	.	.	.
.	.	.	8c#J	.	.	8eJ	.	.	8aa)	.	.	.
=67	=67	=67	=67	=67	=67	=67	=67	=67	=67	=67	=67	=67
4B)	.	.	8dL	.	.	8eL	.	.	4gg#X'	.	.	V43
.	.	.	8d	.	.	8e	.	.	.	.	.	.
8r	.	.	8dJ	.	.	8eJ	.	.	8ee'	.	.	.
(4.B	.	.	8dL	.	.	8eL	.	.	(4ee	.	.	.
.	.	.	8d	.	.	8e	.	.	.	.	.	.
.	.	.	8dJ	.	.	8eJ	.	.	8gg#)	.	.	.
=68	=68	=68	=68	=68	=68	=68	=68	=68	=68	=68	=68	=68
4A)	.	.	8c#L	.	.	8eL	.	.	4aa	.	.	I
.	.	.	8A	.	.	8c#	.	.	.	.	.	.
8A'	.	.	8AJ	.	.	8c#J	.	.	8r	.	.	.
4AA'	.	.	8AL	.	.	8c#L	.	.	4.r	.	.	.
.	.	.	8A	.	.	8c#	.	.	.	.	.	.
8AA'	.	.	8AJ	.	.	8c#J	.	.	.	.	.	.
=69	=69	=69	=69	=69	=69	=69	=69	=69	=69	=69	=69	=69
4GG#X	.	.	8BL	.	.	8dL	.	.	2.r	.	.	V2/IV
.	.	.	8B	.	.	8d	.	.	.	.	.	.
8G'	.	.	8BJ	.	.	8dJ	.	.	.	.	.	.
4GGn'	.	.	8c#L	.	.	8eL	.	.	.	.	.	.
.	.	.	8c#	.	.	8e	.	.	.	.	.	.
8GG'	.	.	8c#J	.	.	8eJ	.	.	.	.	.	.
=70	=70	=70	=70	=70	=70	=70	=70	=70	=70	=70	=70	=70
4FF#	.	.	4d	.	.	8f#L	.	.	8r	.	.	IV6
.	.	.	.	.	.	8A	.	.	8r	.	.	.
8r	.	.	8r	.	.	8AJ	.	.	8aa	.	.	.
4AA	.	.	4r	.	.	8c#L	.	.	4a'	.	.	I
.	.	.	.	.	.	8A	.	.	.	.	.	.
8r	.	.	8r	.	.	8AJ	.	.	8a'	.	.	.
=71	=71	=71	=71	=71	=71	=71	=71	=71	=71	=71	=71	=71
4BB	.	.	2.r	.	.	8dL	.	.	4g#X	.	.	viio6
.	.	.	.	.	.	8A	.	.	.	.	.	.
8r	.	.	.	.	.	8AJ	.	.	8ggn	.	.	.
4C#	.	.	.	.	.	8eL	.	.	4gn	.	.	V65/IV
.	.	.	.	.	.	8A	.	.	.	.	.	.
8r	.	.	.	.	.	8AJ	.	.	8g	.	.	.
=72	=72	=72	=72	=72	=72	=72	=72	=72	=72	=72	=72	=72
4D	.	.	8r	.	.	8f#L	.	.	4f#	.	.	IV
.	.	.	8A'L	.	.	8a	.	.	.	.	.	.
8r	.	.	8A'J	.	.	8aJ	.	.	8aa	.	.	.
!LO:TX:b:t=cresc.	!	!	!LO:TX:b:t=cresc.	!	!	!LO:TX:b:t=cresc.	!	!	!LO:TX:b:t=cresc.	!	!	!
4AA	.	.	8c#L	.	.	8cc#L	.	.	4a	.	.	I
.	.	.	8A	.	.	8a	.	.	.	.	.	.
8r	.	.	8AJ	.	.	8aJ	.	.	8aa	.	.	.
=73	=73	=73	=73	=73	=73	=73	=73	=73	=73	=73	=73	=73
4BB	.	.	8dL	.	.	8ddL	.	.	4g#X	.	.	viio6
.	.	.	8A	.	.	8a	.	.	.	.	.	.
8r	.	.	8AJ	.	.	8aJ	.	.	8gg#X	.	.	.
4C#	.	.	8eL	.	.	8eeL	.	.	4gn	.	.	V65/IV
.	.	.	8A	.	.	8a	.	.	.	.	.	.
8r	.	.	8AJ	.	.	8aJ	.	.	8ggn	.	.	.
=74	=74	=74	=74	=74	=74	=74	=74	=74	=74	=74	=74	=74
4D	.	.	8dL	.	.	8ddL	.	.	4f#	.	.	IV
.	.	.	8A	.	.	8a	.	.	.	.	.	.
8r	.	.	8AJ	.	.	8aJ	.	.	8ff#	.	.	.
4D	.	.	8dL	.	.	8ddL	.	.	4fn	.	.	iv
.	.	.	8A	.	.	8a	.	.	.	.	.	.
8r	.	.	8AJ	.	.	8aJ	.	.	8ffn	.	.	.
=75	=75	=75	=75	=75	=75	=75	=75	=75	=75	=75	=75	=75
4E	.	.	8c#L	.	.	8cc#L	.	.	4e	.	.	V(64)
.	.	.	8A	.	.	8a	.	.	.	.	.	.
8r	.	.	8AJ	.	.	8aJ	.	.	8ee	.	.	.
4F#	.	.	8cnL	.	.	8ccnL	.	.	4d#X	.	.	#viio65/V
.	.	.	8A	.	.	8a	.	.	.	.	.	.
8r	.	.	8AJ	.	.	8aJ	.	.	8dd#X	.	.	.
=76	=76	=76	=76	=76	=76	=76	=76	=76	=76	=76	=76	=76
4E	.	sf	4B	.	sf	4g#X	.	sf	4d 4dd	.	sf	V7
8r	.	.	8r	.	.	8r	.	.	(16gg#XLL	.	.	.
.	.	.	.	.	.	.	.	.	16aaJJ	.	.	.
4.r	.	.	4.r	.	.	4.r	.	.	8bb'L)	.	.	.
.	.	.	.	.	.	.	.	.	8gg#'	.	.	.
.	.	.	.	.	.	.	.	.	8dd'J	.	.	.
=77	=77	=77	=77	=77	=77	=77	=77	=77	=77	=77	=77	=77
4E	.	sf	4e	.	sf	4a	.	sf	4cc#'	.	sf	V(64)
8r	.	.	8r	.	.	8r	.	.	(16ccc#LL	.	.	.
.	.	.	.	.	.	.	.	.	16dddJJ	.	.	.
4r	.	.	4r	.	.	4r	.	.	8eee'L)	.	.	.
.	.	.	.	.	.	.	.	.	8ccc#'	.	.	.
8r	.	.	8r	.	.	8r	.	.	8aa'J	.	.	.
=78	=78	=78	=78	=78	=78	=78	=78	=78	=78	=78	=78	=78
4E	.	sf	4e	.	sf	4g#X	.	sf	4dd	.	sf	V7
8r	.	.	8r	.	.	8r	.	.	(16gg#XLL	.	.	.
.	.	.	.	.	.	.	.	.	16aaJJ	.	.	.
4r	.	.	4r	.	.	4r	.	.	8bb'L)	.	.	.
.	.	.	.	.	.	.	.	.	8gg#'	.	.	.
8r	.	.	8r	.	.	8r	.	.	8ee'J	.	.	.
=79	=79	=79	=79	=79	=79	=79	=79	=79	=79	=79	=79	=79
4r	.	.	4r	.	.	4r	.	.	8ddL	.	.	.
.	.	.	.	.	.	.	.	.	8b	.	.	.
8r	.	.	8r	.	.	8r	.	.	8g#XJ	.	.	.
8EEL	.	ff	8EL	.	ff	8eL	.	ff	8eL	.	ff	.
8EE	.	.	8E	.	.	8e	.	.	8e	.	.	.
8EEJ	.	.	8EJ	.	.	8eJ	.	.	8eJ	.	.	.
=80	=80	=80	=80	=80	=80	=80	=80	=80	=80	=80	=80	=80
(2.FFn	.	p	(4Fn	.	p	4fn	.	.	4fn	.	.	.bIII.I
.	.	.	8Cn	.	.	8r	.	.	8r	.	.	.
.	.	.	4F	.	.	4r	.	.	4r	.	.	.
.	.	.	8C)	.	.	8r	.	.	(8a	.	p	.
=81	=81	=81	=81	=81	=81	=81	=81	=81	=81	=81	=81	=81
!	!	!	!	!	!	!	!	!	!LO:TX:b:t=dol.	!	!	!
.	.	.	.	.	.	.	.	.	8qccn/	.	.	V65
2.EE)	.	.	4G	.	.	2.r	.	.	4b-X	.	.	.
.	.	.	8Cn	.	.	.	.	.	8a	.	.	.
.	.	.	4G	.	.	.	.	.	4b-	.	.	.
.	.	.	8C	.	.	.	.	.	8cc)	.	.	.
=82	=82	=82	=82	=82	=82	=82	=82	=82	=82	=82	=82	=82
(2.FFn	.	.	(4Fn	.	.	4r	.	.	4a	.	.	I
.	.	.	8Cn	.	.	8r	.	.	8r	.	.	.
.	.	.	4F	.	.	4r	.	.	4r	.	.	.
.	.	.	8C)	.	.	(8a	.	p	(8aa	.	.	.
=83	=83	=83	=83	=83	=83	=83	=83	=83	=83	=83	=83	=83
!	!	!	!	!	!	!LO:TX:b:t=dol.	!	!	!	!	!	!
.	.	.	.	.	.	8qccn/	.	.	8qcccn/	.	.	V65
2.EE)	.	.	(4G	.	.	4b-X	.	.	4bb-X	.	.	.
.	.	.	8Cn	.	.	8a	.	.	8aa	.	.	.
.	.	.	4G	.	.	4b-	.	.	4bb-	.	.	.
.	.	.	8C)	.	.	8cc)	.	.	8ccc)	.	.	.
=84	=84	=84	=84	=84	=84	=84	=84	=84	=84	=84	=84	=84
(2.FFn	.	.	(4Fn	.	.	4a	.	.	4aa	.	.	I
.	.	.	8Cn	.	.	8r	.	.	8r	.	.	.
.	.	.	4F	.	.	4r	.	.	4r	.	.	.
.	.	.	8C)	.	.	(8a	.	.	(8aa	.	.	.
=85	=85	=85	=85	=85	=85	=85	=85	=85	=85	=85	=85	=85
.	.	.	.	.	.	8qccn/	.	.	8qcccn/	.	.	V65
2.EE)	.	.	(4G	.	.	4b-X	.	.	4bb-X	.	.	.
.	.	.	8Cn	.	.	8a	.	.	8aa	.	.	.
.	.	.	4G	.	.	4b-	.	.	4bb-	.	.	.
.	.	.	8C)	.	.	8cc)	.	.	8ccc)	.	.	.
=86	=86	=86	=86	=86	=86	=86	=86	=86	=86	=86	=86	=86
4FFn	.	.	4Fn	.	.	4a	.	.	4aa'	.	.	I
8r	.	.	8r	.	.	8r	.	.	8cccn'	.	pp	.
4r	.	.	4r	.	.	4r	.	.	4fffn'	.	.	.
8r	.	.	8r	.	.	8r	.	.	8r	.	.	.
=87	=87	=87	=87	=87	=87	=87	=87	=87	=87	=87	=87	=87
(2.D#X	.	ff	(2.D#X	.	ff	(2.d#X	.	ff	(2.d#X	.	ff	V.#viio/V
=88	=88	=88	=88	=88	=88	=88	=88	=88	=88	=88	=88	=88
8EL)	.	.	8EL)	.	.	8eL)	.	.	8eL)	.	.	V(64)
8E	.	.	8a	.	.	8e 8cc#	.	.	8a'	.	.	.
8EJ	.	.	8aJ	.	.	8eJ 8cc#	.	.	8cc#'J	.	.	.
8EL	.	.	8aL	.	.	8eL 8cc#	.	.	8ee'L	.	.	.
8E	.	.	8a	.	.	8e 8cc#	.	.	8aa'	.	.	.
8EJ	.	.	8aJ	.	.	8eJ 8cc#	.	.	8ccc#'J	.	.	.
=89	=89	=89	=89	=89	=89	=89	=89	=89	=89	=89	=89	=89
8EL	.	.	8aL	.	.	8eL 8cc#	.	.	4eee	.	.	.
8E	.	.	8a	.	.	8e 8cc#	.	.	.	.	.	.
8EJ	.	.	8aJ	.	.	8eJ 8cc#	.	.	8r	.	.	.
8EL	.	.	8bL	.	.	8eL 8dd	.	.	4.gg#Xt	.	.	V7
8E	.	.	8b	.	.	8e 8dd	.	.	.	.	.	.
8EJ	.	.	8bJ	.	.	8eJ 8dd	.	.	.	.	.	.
=90	=90	=90	=90	=90	=90	=90	=90	=90	=90	=90	=90	=90
4A	.	.	4a	.	.	4e 4cc#	.	.	4aa	.	.	I\\
8r	.	.	8cn'	.	pp	8ccn'	.	pp	8r	.	.	V/bIII
4r	.	.	4fn'	.	.	4ffn'	.	.	4r	.	.	.bIII
8r	.	.	8r	.	.	8r	.	.	8r	.	.	.
=91	=91	=91	=91	=91	=91	=91	=91	=91	=91	=91	=91	=91
(2.E-X	.	ff	(2.E-X	.	ff	(2.e-X	.	ff	(2.e-X	.	ff	V2/bII
=92	=92	=92	=92	=92	=92	=92	=92	=92	=92	=92	=92	=92
4D)	.	.	4D)	.	.	4d)	.	.	8dL)	.	.	.bII
.	.	.	.	.	.	.	.	.	8fn	.	.	.
8r	.	.	8r	.	.	8r	.	.	8b-XJ	.	.	.
4r	.	.	4d	.	.	4b-X 4ffn	.	.	8ddL	.	.	.
.	.	.	.	.	.	.	.	.	8ffn	.	.	.
8r	.	.	8r	.	.	8r	.	.	8bb-XJ	.	.	.
=93	=93	=93	=93	=93	=93	=93	=93	=93	=93	=93	=93	=93
4D#X	.	.	4r	.	.	4r	.	.	8f#L	.	.	#viio7/V
.	.	.	.	.	.	.	.	.	8a	.	.	.
8r	.	.	8r	.	.	8r	.	.	8ccnJ	.	.	.
4r	.	.	4d#X	.	.	4ccn 4aa	.	.	8ff#L	.	.	.
.	.	.	.	.	.	.	.	.	8aa	.	.	.
8r	.	.	8r	.	.	8r	.	.	8cccnJ	.	.	.
=94	=94	=94	=94	=94	=94	=94	=94	=94	=94	=94	=94	=94
4E	.	.	4r	.	.	4r	.	.	8eL	.	.	V(64)
.	.	.	.	.	.	.	.	.	8a	.	.	.
8r	.	.	8r	.	.	8r	.	.	8cc#J	.	.	.
4r	.	.	4e	.	.	4cc# 4aa	.	.	8eeL	.	.	.
.	.	.	.	.	.	.	.	.	8aa	.	.	.
8r	.	.	8r	.	.	8r	.	.	8ccc#J	.	.	.
=95	=95	=95	=95	=95	=95	=95	=95	=95	=95	=95	=95	=95
4E	.	.	4r	.	.	4r	.	.	8dddL	.	.	V7
.	.	.	.	.	.	.	.	.	8bb	.	.	.
8r	.	.	8r	.	.	8r	.	.	8gg#XJ	.	.	.
4r	.	.	4e	.	.	4b 4gg#X	.	.	8ddL	.	.	.
.	.	.	.	.	.	.	.	.	8b	.	.	.
8r	.	.	8r	.	.	8r	.	.	8g#XJ	.	.	.
=96	=96	=96	=96	=96	=96	=96	=96	=96	=96	=96	=96	=96
8AA'L	.	.	4A	.	.	4cc# 4aa	.	.	4a	.	.	I\\
8C#'	.	.	.	.	.	.	.	.	.	.	.	.
8E'J	.	.	8r	.	.	8r	.	.	8r	.	.	.
(4F#	.	sf	8r	.	.	8r	.	.	8r	.	.	.
.	.	.	8bL	.	.	8ddL	.	.	8gg#XL	.	.	V7(2)
8E)	.	.	8bJ	.	.	8ddJ	.	.	8gg#J	.	.	V7
=97	=97	=97	=97	=97	=97	=97	=97	=97	=97	=97	=97	=97
8AA'L	.	.	4a	.	.	4cc#	.	.	4aa	.	.	I
8C#'	.	.	.	.	.	.	.	.	.	.	.	.
8E'J	.	.	8r	.	.	8r	.	.	8r	.	.	.
(4F#	.	sf	8r	.	.	8r	.	.	8r	.	.	.
.	.	.	8bL	.	.	8gg#XL	.	.	8dddL	.	.	V7(2)
8E)	.	.	8bJ	.	.	8gg#J	.	.	8dddJ	.	.	V7
=98	=98	=98	=98	=98	=98	=98	=98	=98	=98	=98	=98	=98
8AA'L	.	.	4a	.	.	4aa	.	.	4ccc#	.	.	I
8C#'	.	.	.	.	.	.	.	.	.	.	.	.
8E'J	.	.	8r	.	.	8r	.	.	8r	.	.	.
(4F#	.	sf	8r	.	.	8r	.	.	8r	.	.	.
.	.	.	8bL	.	.	8ddL	.	.	8gg#XL	.	.	V7(2)
8E)	.	.	8bJ	.	.	8ddJ	.	.	8gg#J	.	.	V7
=99	=99	=99	=99	=99	=99	=99	=99	=99	=99	=99	=99	=99
(4F#	.	sf	4a	.	.	4cc#	.	.	4aa	.	.	V(64)
8E)	.	.	8r	.	.	8r	.	.	8r	.	.	.
(4F#	.	sf	8r	.	.	8r	.	.	8r	.	.	.
.	.	.	8BL	.	.	8dL	.	.	8g#XL	.	.	V7(2)
8E)	.	.	8BJ	.	.	8dJ	.	.	8g#J	.	.	V7
=100	=100	=100	=100	=100	=100	=100	=100	=100	=100	=100	=100	=100
4AA	.	.	4A	.	.	4c#	.	.	8a'L	.	.	I
.	.	.	.	.	.	.	.	.	8cc#'	.	.	.
8r	.	.	8r	.	.	8r	.	.	8ee'J	.	.	.
8r	.	.	8r	.	.	8r	.	.	(4ff#	.	sf	V7(2)
8EL	.	.	8dL	.	.	8g#XL	.	.	.	.	.	.
8EJ	.	.	8dJ	.	.	8g#J	.	.	8ee)	.	.	V7
=101	=101	=101	=101	=101	=101	=101	=101	=101	=101	=101	=101	=101
4A	.	.	4c#	.	.	4a	.	.	8a'L	.	.	I
.	.	.	.	.	.	.	.	.	8cc#'	.	.	.
8r	.	.	8r	.	.	8r	.	.	8ee'J	.	.	.
8r	.	.	8r	.	.	8r	.	.	(4ff#	.	sf	V7(2)
8EEL	.	.	8dL	.	.	8g#XL	.	.	.	.	.	.
8EEJ	.	.	8dJ	.	.	8g#J	.	.	8ee)	.	.	V7
=102	=102	=102	=102	=102	=102	=102	=102	=102	=102	=102	=102	=102
8AAL	.	.	4c#	.	.	4a	.	.	8a'L	.	.	I
8A	.	p	.	.	.	.	.	.	8cc#'	.	.	I.V[I
8AJ	.	.	8r	.	.	8r	.	.	8ee'J	.	.	.
8AL	.	.	(4.g	.	p	(4.b	.	p	(4ff#	.	sf	ii6(2)
8A	.	.	.	.	.	.	.	.	.	.	.	.
8AJ	.	.	.	.	.	.	.	.	8ee)	.	.	ii6
=103	=103	=103	=103	=103	=103	=103	=103	=103	=103	=103	=103	=103
8AL	.	.	4.f#	.	.	4.a	.	.	(4ee	.	.	I6(2)
8A	.	.	.	.	.	.	.	.	.	.	.	.
8AJ	.	.	.	.	.	.	.	.	8dd)	.	.	I6
8AL	.	.	4.e	.	.	4.g	.	.	(4dd	.	.	viio6(2)
8A	.	.	.	.	.	.	.	.	.	.	.	.
8AJ	.	.	.	.	.	.	.	.	8cc#)	.	.	viio6
=104	=104	=104	=104	=104	=104	=104	=104	=104	=104	=104	=104	=104
!LO:TX:b:t=cresc.	!	!	!LO:TX:b:t=cresc.	!	!	!LO:TX:b:t=cresc.	!	!	!LO:TX:b:t=cresc.	!	!	!
8AL	.	.	4.d	.	.	4.f#	.	.	(4cc#	.	.	vi6(2)
8AA	.	.	.	.	.	.	.	.	.	.	.	.
8AAJ	.	.	.	.	.	.	.	.	8b)	.	.	vi6
8AAL	.	.	4.c#	.	.	4.e	.	.	(4b	.	.	V6(2)
8AA	.	.	.	.	.	.	.	.	.	.	.	.
8AAJ	.	.	.	.	.	.	.	.	8a)	.	.	V6
=105	=105	=105	=105	=105	=105	=105	=105	=105	=105	=105	=105	=105
8AAL	.	.	4.B	.	.	4.d	.	.	(4a	.	.	IV6(2)
8AA	.	.	.	.	.	.	.	.	.	.	.	.
8AAJ	.	.	.	.	.	.	.	.	8g)	.	.	IV6
8AAL	.	.	4.A	.	.	4.c#	.	.	(4g	.	.	iii6(2)
8AA	.	.	.	.	.	.	.	.	.	.	.	.
8AAJ	.	.	.	.	.	.	.	.	8f#)	.	.	iii6
=106	=106	=106	=106	=106	=106	=106	=106	=106	=106	=106	=106	=106
8AAL	.	.	4.G	.	.	4.B	.	.	(4f#	.	.	ii6(2)
8AA	.	.	.	.	.	.	.	.	.	.	.	.
8AAJ	.	.	.	.	.	.	.	.	8e)	.	.	ii6
8AAL	.	.	4.F#	.	.	4.A	.	.	(4e	.	.	#viio6(2)/ii
8AA	.	.	.	.	.	.	.	.	.	.	.	.
8AAJ	.	.	.	.	.	.	.	.	8d#X)	.	.	#viio6/ii
=107	=107	=107	=107	=107	=107	=107	=107	=107	=107	=107	=107	=107
8AAL	.	.	4.Fn	.	.	4.G#X	.	.	(4d#X	.	.	#viio2/V
8AA	.	.	.	.	.	.	.	.	.	.	.	.
8AAJ	.	.	.	.	.	.	.	.	8dn)	.	.	.
8AAL	.	.	4.E)	.	.	4.Gn)	.	.	(4d	.	.	viio6(2)
8AA	.	.	.	.	.	.	.	.	.	.	.	.
8AAJ	.	.	.	.	.	.	.	.	8c#)	.	.	viio6
=108	=108	=108	=108	=108	=108	=108	=108	=108	=108	=108	=108	=108
!	!	!	!	!	!LO:DY:a	!	!	!LO:DY:a	!	!	!	!
[2.AA	.	f	[2.E	.	f f	[2.G	.	f	8c#L	.	.	viio6
.	.	.	.	.	.	.	.	.	(8e	.	.	.
.	.	.	.	.	.	.	.	.	8d#XJ	.	.	.
.	.	.	.	.	.	.	.	.	8e'L)	.	.	.
.	.	.	.	.	.	.	.	.	(8g	.	.	.
.	.	.	.	.	.	.	.	.	8f#J	.	.	.
=109	=109	=109	=109	=109	=109	=109	=109	=109	=109	=109	=109	=109
2.AA]	.	.	2.E]	.	.	2.G]	.	.	8g'L)	.	.	viio6]
.	.	.	.	.	.	.	.	.	(8cc#	.	.	.
.	.	.	.	.	.	.	.	.	8b#XJ	.	.	.
.	.	.	.	.	.	.	.	.	8cc#'L)	.	.	.
.	.	.	.	.	.	.	.	.	(8ee	.	.	.
.	.	.	.	.	.	.	.	.	8dd#XJ	.	.	.
=110	=110	=110	=110	=110	=110	=110	=110	=110	=110	=110	=110	=110
!	!	!	!	!	!LO:DY:a	!	!	!	!	!	!	!
[2.AA#X	.	f	[2.E	.	f f	[2.G [2.g	.	.	8ee'L)	.	f	#viio7/vi
.	.	.	.	.	.	.	.	.	(8gg	.	.	.
.	.	.	.	.	.	.	.	.	8ff#J	.	.	.
.	.	.	.	.	.	.	.	.	8gg'L)	.	.	.
.	.	.	.	.	.	.	.	.	(8ccc#	.	.	.
.	.	.	.	.	.	.	.	.	8bb#XJ	.	.	.
=111	=111	=111	=111	=111	=111	=111	=111	=111	=111	=111	=111	=111
2.AA#]	.	.	2.E]	.	.	2.G] 2.g]	.	.	8ccc#'L)	.	.	.
.	.	.	.	.	.	.	.	.	(8eee	.	.	.
.	.	.	.	.	.	.	.	.	8ddd#XJ	.	.	.
.	.	.	.	.	.	.	.	.	8eee'L)	.	.	.
.	.	.	.	.	.	.	.	.	(8ggg	.	.	.
.	.	.	.	.	.	.	.	.	8fff#J	.	.	.
=112	=112	=112	=112	=112	=112	=112	=112	=112	=112	=112	=112	=112
!	!	!	!	!	!LO:DY:a	!	!	!	!	!	!	!
2.BB	.	f	2.E	.	f f	2.G 2.g	.	.	8ggg'L)	.	f	ii64
.	.	.	.	.	.	.	.	.	(8eee	.	.	.
.	.	.	.	.	.	.	.	.	8ddd#XJ	.	.	.
.	.	.	.	.	.	.	.	.	8eee'L)	.	.	.
.	.	.	.	.	.	.	.	.	(8ggg	.	.	.
.	.	.	.	.	.	.	.	.	8fff#J	.	.	.
=113	=113	=113	=113	=113	=113	=113	=113	=113	=113	=113	=113	=113
2.Cn	.	f	2.e	.	f	2.B-X 2.g	.	.	8ggg'L)	.	f	.bVII7
.	.	.	.	.	.	.	.	.	(8eee	.	.	.
.	.	.	.	.	.	.	.	.	8ddd#XJ	.	.	.
.	.	.	.	.	.	.	.	.	8eee'L)	.	.	.
.	.	.	.	.	.	.	.	.	(8ggg	.	.	.
.	.	.	.	.	.	.	.	.	8fff#J	.	.	.
=114	=114	=114	=114	=114	=114	=114	=114	=114	=114	=114	=114	=114
4C#	.	f	4.e	.	f	4A 4g	.	f	4ggg')	.	f	V65
8r	.	.	.	.	.	8r	.	.	8r	.	.	.
4r	.	.	4r	.	.	4r	.	.	8r	.	.	.
.	.	.	.	.	.	.	.	.	(8ggL	.	p	.
8r	.	.	8r	.	.	8r	.	.	8ff#J	.	.	.
=115	=115	=115	=115	=115	=115	=115	=115	=115	=115	=115	=115	=115
2.r	.	.	2.r	.	.	2.r	.	.	4gg)	.	.	.
.	.	.	.	.	.	.	.	.	8r	.	.	.
.	.	.	.	.	.	.	.	.	8r	.	.	.
.	.	.	.	.	.	.	.	.	(8gL	.	.	.
.	.	.	.	.	.	.	.	.	8f#J	.	.	.
=116	=116	=116	=116	=116	=116	=116	=116	=116	=116	=116	=116	=116
4r	.	.	4r	.	.	2.r	.	.	4g')	.	.	.
8r	.	.	8r	.	.	.	.	.	8r	.	.	.
8r	.	.	8r	.	.	.	.	.	4r	.	.	ii6
(8GL	.	p	(8BL	.	p	.	.	.	.	.	.	.
8AJ	.	.	8cnJ	.	.	.	.	.	8r	.	.	.
=117	=117	=117	=117	=117	=117	=117	=117	=117	=117	=117	=117	=117
4G')	.	.	4B')	.	.	8r	.	.	2.r	.	.	I6
.	.	.	.	.	.	(8eL	.	p	.	.	.	.
8r	.	.	8r	.	.	8d#XJ	.	.	.	.	.	.
8r	.	.	8r	.	.	4e')	.	.	.	.	.	.
(8F#L	.	.	(8AL	.	.	.	.	.	.	.	.	.
8GJ	.	.	8BJ	.	.	8r	.	.	.	.	.	.
=118	=118	=118	=118	=118	=118	=118	=118	=118	=118	=118	=118	=118
4F#')	.	.	4A')	.	.	8r	.	.	2.r	.	.	viio6
.	.	.	.	.	.	(8dL	.	.	.	.	.	.
8r	.	.	8r	.	.	8c#J	.	.	.	.	.	.
8r	.	.	8r	.	.	4d')	.	.	.	.	.	.
(8EL	.	.	(8GL	.	.	.	.	.	.	.	.	.
8F#J	.	.	8AJ	.	.	8r	.	.	.	.	.	.
=119	=119	=119	=119	=119	=119	=119	=119	=119	=119	=119	=119	=119
4E')	.	.	4G')	.	.	8r	.	.	4r	.	.	.
.	.	.	.	.	.	(8c#L	.	.	.	.	.	.
8r	.	.	8r	.	.	8B#XJ	.	.	8r	.	.	.
4r	.	.	4r	.	.	4c#')	.	.	8r	.	.	.
.	.	.	.	.	.	.	.	.	(8ddL	.	.	.
8r	.	.	8r	.	.	8r	.	.	8cc#J	.	.	.
=120	=120	=120	=120	=120	=120	=120	=120	=120	=120	=120	=120	=120
4D	.	.	4F#	.	.	2.r	.	.	8dd'L)	.	.	I
.	.	.	.	.	.	.	.	.	(8b	.	.	IV
8r	.	.	8r	.	.	.	.	.	8a#XJ	.	.	.
4.r	.	.	4.r	.	.	.	.	.	8b'L)	.	.	.
.	.	.	.	.	.	.	.	.	(8g	.	.	.
.	.	.	.	.	.	.	.	.	8f#J	.	.	.
=121:|!	=121:|!	=121:|!	=121:|!	=121:|!	=121:|!	=121:|!	=121:|!	=121:|!	=121:|!	=121:|!	=121:|!	=121:|!
4C#	.	f	4E	.	f	4A 4g	.	f	4ggg)	.	f	V65
8r	.	.	8r	.	.	8r	.	.	8r	.	.	.
4r	.	.	4r	.	.	4r	.	.	8r	.	.	.
.	.	.	.	.	.	.	.	.	(8ggL	.	p	.
8r	.	.	8r	.	.	8r	.	.	8ff#J	.	.	.
=122	=122	=122	=122	=122	=122	=122	=122	=122	=122	=122	=122	=122
2.r	.	.	2.r	.	.	2.r	.	.	4gg')	.	.	.
.	.	.	.	.	.	.	.	.	8r	.	.	.
.	.	.	.	.	.	.	.	.	8r	.	.	.
.	.	.	.	.	.	.	.	.	(8gL	.	.	.
.	.	.	.	.	.	.	.	.	8f#J	.	.	.
=123	=123	=123	=123	=123	=123	=123	=123	=123	=123	=123	=123	=123
4r	.	.	4r	.	.	2.r	.	.	4g')	.	.	.
8r	.	.	8r	.	.	.	.	.	8r	.	.	.
8r	.	.	8r	.	.	.	.	.	4r	.	.	ii6
(8GL	.	p	(8BL	.	p	.	.	.	.	.	.	.
8AJ	.	.	8cnJ	.	.	.	.	.	8r	.	.	.
=124	=124	=124	=124	=124	=124	=124	=124	=124	=124	=124	=124	=124
4G')	.	.	4B')	.	.	8r	.	.	2.r	.	.	I6
.	.	.	.	.	.	(8eL	.	p	.	.	.	.
8r	.	.	8r	.	.	8d#XJ	.	.	.	.	.	.
8r	.	.	8r	.	.	4e')	.	.	.	.	.	.
(8F#L	.	.	(8AL	.	.	.	.	.	.	.	.	.
8GJ	.	.	8BJ	.	.	8r	.	.	.	.	.	.
=125	=125	=125	=125	=125	=125	=125	=125	=125	=125	=125	=125	=125
4F#')	.	.	4A')	.	.	8r	.	.	2.r	.	.	viio6
.	.	.	.	.	.	(8dL	.	.	.	.	.	.
8r	.	.	8r	.	.	8c#J	.	.	.	.	.	.
8r	.	.	8r	.	.	4d')	.	.	.	.	.	.
(8EL	.	.	(8GL	.	.	.	.	.	.	.	.	.
8F#J	.	.	8AJ	.	.	8r	.	.	.	.	.	.
=126	=126	=126	=126	=126	=126	=126	=126	=126	=126	=126	=126	=126
4E')	.	.	4G')	.	.	8r	.	.	4r	.	.	.
.	.	.	.	.	.	(8c#L	.	.	.	.	.	.
8r	.	.	8r	.	.	8B#XJ	.	.	8r	.	.	.
4r	.	.	4r	.	.	4c#')	.	.	8r	.	.	.
.	.	.	.	.	.	.	.	.	(8ff#L	.	p	.
8r	.	.	8r	.	.	8r	.	.	8ee#XJ	.	.	.
=127	=127	=127	=127	=127	=127	=127	=127	=127	=127	=127	=127	=127
2.r	.	.	8r	.	.	8r	.	.	4ff#')	.	.	iiio6
.	.	.	(8aL	.	.	(8ccnL	.	.	.	.	.	.
.	.	.	8bJ	.	.	8ddJ	.	.	8r	.	.	.
.	.	.	4a')	.	.	4cc')	.	.	8r	.	.	.
.	.	.	.	.	.	.	.	.	(8eeL	.	.	ii6
.	.	.	8r	.	.	8r	.	.	8dd#XJ	.	.	.
=128	=128	=128	=128	=128	=128	=128	=128	=128	=128	=128	=128	=128
2.r	.	.	8r	.	.	8r	.	.	4ee')	.	.	.
.	.	.	(8gL	.	.	(8bL	.	.	.	.	.	.
.	.	.	8aJ	.	.	8cc#J	.	.	8r	.	.	.
.	.	.	4g')	.	.	4b')	.	.	8r	.	.	.
.	.	.	.	.	.	.	.	.	(8dd#XL	.	.	.
.	.	.	8r	.	.	8r	.	.	8cc##XJ	.	.	.
=129	=129	=129	=129	=129	=129	=129	=129	=129	=129	=129	=129	=129
4r	.	.	8r	.	.	8r	.	.	4dd#X')	.	.	#io6
.	.	.	(8f#L	.	.	(8aL	.	.	.	.	.	.
8r	.	.	8gJ	.	.	8bJ	.	.	8r	.	.	.
8r	.	.	4f#')	.	.	4a')	.	.	8r	.	.	.
(8cnL	.	pp	.	.	.	.	.	.	(8eL	.	pp	.
8dJ	.	.	8r	.	.	8r	.	.	8f#J)	.	.	.
=130	=130	=130	=130	=130	=130	=130	=130	=130	=130	=130	=130	=130
4cn')	.	.	2.r	.	.	8r	.	.	4e'	.	.	v6
.	.	.	.	.	.	(8aL	.	pp	.	.	.	.
8r	.	.	.	.	.	8g#XJ	.	.	8r	.	.	.
8r	.	.	.	.	.	4a')	.	.	8r	.	.	.
(8BL	.	.	.	.	.	.	.	.	(8dL	.	.	.
8cJ	.	.	.	.	.	8r	.	.	8eJ	.	.	.
=131	=131	=131	=131	=131	=131	=131	=131	=131	=131	=131	=131	=131
4B')	.	.	2.r	.	.	8r	.	.	4d')	.	.	IV6
.	.	.	.	.	.	(8gL	.	.	.	.	.	.
8r	.	.	.	.	.	8f#J	.	.	8r	.	.	.
8r	.	.	.	.	.	4g')	.	.	8r	.	.	.
(8AL	.	.	.	.	.	.	.	.	(8cnL	.	.	.
8BJ	.	.	.	.	.	8r	.	.	8dJ	.	.	.
=132	=132	=132	=132	=132	=132	=132	=132	=132	=132	=132	=132	=132
4A')	.	.	2.r	.	.	8r	.	.	4cn')	.	.	iiio6
.	.	.	.	.	.	(8f#L	.	.	.	.	.	.
8r	.	.	.	.	.	8e#XJ	.	.	8r	.	.	.
4.r	.	.	.	.	.	4f#')	.	.	8r	.	.	.
.	.	.	.	.	.	.	.	.	(8aaL	.	.	.
.	.	.	.	.	.	8r	.	.	8gg#XJ	.	.	.
=133	=133	=133	=133	=133	=133	=133	=133	=133	=133	=133	=133	=133
2.r	.	.	8r	.	.	8r	.	.	4aa')	.	.	v6
.	.	.	(8ccnL	.	pp	(8eeL	.	.	.	.	.	.
.	.	.	8ddJ	.	.	8ff#J	.	.	8r	.	.	.
.	.	.	4cc')	.	.	4ee')	.	.	8r	.	.	.
.	.	.	.	.	.	.	.	.	(8ggL	.	.	.
.	.	.	8r	.	.	8r	.	.	8ff#J	.	.	.
=134	=134	=134	=134	=134	=134	=134	=134	=134	=134	=134	=134	=134
2.r	.	.	8r	.	.	8r	.	.	4gg')	.	.	IV6
.	.	.	(8bL	.	.	(8ddL	.	.	.	.	.	.
.	.	.	8ccnJ	.	.	8eeJ	.	.	8r	.	.	.
.	.	.	4b')	.	.	4dd')	.	.	8r	.	.	.
.	.	.	.	.	.	.	.	.	(8ff#L	.	.	.
.	.	.	8r	.	.	8r	.	.	8ee#XJ	.	.	.
=135	=135	=135	=135	=135	=135	=135	=135	=135	=135	=135	=135	=135
!	!	!LO:DY:a	!	!	!	!	!	!	!	!	!	!
2.r	.	f	8r	.	.	8r	.	.	4ff#')	.	.	iiio6
.	.	.	(8aL	.	.	(8ccnL	.	.	.	.	.	.
.	.	.	8bJ	.	.	8ddJ	.	.	8r	.	.	.
.	.	.	8a'L)	.	.	4cc')	.	.	4r	.	.	.
.	.	.	(8G	.	.	.	.	.	.	.	.	.
.	.	.	8F#J	.	.	8r	.	.	8r	.	.	.
=136	=136	=136	=136	=136	=136	=136	=136	=136	=136	=136	=136	=136
8r	.	.	4G')	.	.	2.r	.	.	2.r	.	.	.bVII6
(8GL	.	f	.	.	.	.	.	.	.	.	.	.
8F#J	.	.	8r	.	.	.	.	.	.	.	.	.
8G'L)	.	.	[4.cn	.	sf	.	.	.	.	.	.	.
(8E	.	.	.	.	.	.	.	.	.	.	.	.
8D#XJ	.	.	.	.	.	.	.	.	.	.	.	.
=137	=137	=137	=137	=137	=137	=137	=137	=137	=137	=137	=137	=137
8E'L)	.	.	2.c]	.	.	2.r	.	.	2.r	.	.	.
8A'	.	.	.	.	.	.	.	.	.	.	.	.
8G'J	.	.	.	.	.	.	.	.	.	.	.	.
8F#'L	.	.	.	.	.	.	.	.	.	.	.	.
8E'	.	.	.	.	.	.	.	.	.	.	.	.
8D'J	.	.	.	.	.	.	.	.	.	.	.	.
=138	=138	=138	=138	=138	=138	=138	=138	=138	=138	=138	=138	=138
4G	.	.	8G'L	.	.	2.r	.	.	2.r	.	.	.bVII6
.	.	.	(8g	.	.	.	.	.	.	.	.	.
8r	.	.	8f#J	.	.	.	.	.	.	.	.	.
[4.cn	.	sf	8g'L)	.	.	.	.	.	.	.	.	.
.	.	.	(8e	.	.	.	.	.	.	.	.	.
.	.	.	8d#XJ	.	.	.	.	.	.	.	.	.
=139	=139	=139	=139	=139	=139	=139	=139	=139	=139	=139	=139	=139
2.c]	.	.	8e'L)	.	.	2.r	.	.	2.r	.	.	.
.	.	.	8a'	.	.	.	.	.	.	.	.	.
.	.	.	8g'J	.	.	.	.	.	.	.	.	.
.	.	.	8f#'L	.	.	.	.	.	.	.	.	.
.	.	.	8e'	.	.	.	.	.	.	.	.	.
.	.	.	8d'J	.	.	.	.	.	.	.	.	.
=140	=140	=140	=140	=140	=140	=140	=140	=140	=140	=140	=140	=140
4B	.	.	4g	.	.	8r	.	.	4dd	.	f	IV6
.	.	.	.	.	.	(8ddL	.	f	.	.	.	.
8r	.	.	8r	.	.	8cc#J	.	.	8r	.	.	.
4.r	.	.	4.r	.	.	8dd'L)	.	.	[4.gg	.	sf	.
.	.	.	.	.	.	(8b	.	.	.	.	.	.
.	.	.	.	.	.	8a#XJ	.	.	.	.	.	.
=141	=141	=141	=141	=141	=141	=141	=141	=141	=141	=141	=141	=141
2.r	.	.	2.r	.	.	8b'L)	.	.	2.gg]	.	.	V7
.	.	.	.	.	.	8ee'	.	.	.	.	.	.
.	.	.	.	.	.	8dd'J	.	.	.	.	.	.
.	.	.	.	.	.	8cc#'L	.	.	.	.	.	.
.	.	.	.	.	.	8b'	.	.	.	.	.	.
.	.	.	.	.	.	8a'J	.	.	.	.	.	.
=142	=142	=142	=142	=142	=142	=142	=142	=142	=142	=142	=142	=142
2.r	.	.	2.r	.	.	4dd	.	.	8ff#L	.	.	I
.	.	.	.	.	.	.	.	.	(8ddd	.	.	.
.	.	.	.	.	.	8r	.	.	8ccc#J	.	.	.
.	.	.	.	.	.	[4.gg	.	sf	8ddd'L)	.	.	IV
.	.	.	.	.	.	.	.	.	(8bb	.	.	.
.	.	.	.	.	.	.	.	.	8aa#XJ	.	.	.
=143	=143	=143	=143	=143	=143	=143	=143	=143	=143	=143	=143	=143
2.r	.	.	2.r	.	.	2.gg]	.	.	8bb'L)	.	.	ii6
.	.	.	.	.	.	.	.	.	8eee'	.	.	.
.	.	.	.	.	.	.	.	.	8ddd'J	.	.	.
.	.	.	.	.	.	.	.	.	8ccc#'L	.	.	V2
.	.	.	.	.	.	.	.	.	8bb'	.	.	.
.	.	.	.	.	.	.	.	.	8aa'J	.	.	.
=144	=144	=144	=144	=144	=144	=144	=144	=144	=144	=144	=144	=144
[2.d	.	p	4f#	.	p	4ff#	.	p	8ddd'L	.	p	I
.	.	.	.	.	.	.	.	.	(8ff#	.	.	.
.	.	.	8r	.	.	8r	.	.	8ee#XJ	.	.	.
.	.	.	[4.b	.	.	4r	.	.	8ff#'L)	.	.	vi6
.	.	.	.	.	.	.	.	.	8ff#'	.	.	.
.	.	.	.	.	.	8r	.	.	8gg'J	.	.	.
=145	=145	=145	=145	=145	=145	=145	=145	=145	=145	=145	=145	=145
2.d]	.	.	2.b_	.	.	2.r	.	.	8aa'L	.	.	.
.	.	.	.	.	.	.	.	.	8bb'	.	.	.
.	.	.	.	.	.	.	.	.	8ccc#'J	.	.	.
.	.	.	.	.	.	.	.	.	8ddd'L	.	.	.
.	.	.	.	.	.	.	.	.	8eee'	.	.	.
.	.	.	.	.	.	.	.	.	8fff#'J	.	.	.
=146	=146	=146	=146	=146	=146	=146	=146	=146	=146	=146	=146	=146
[2.c#	.	.	(4.b]	.	.	8r	.	.	(8ddd#XL	.	.	V6(2)
.	.	.	.	.	.	(8eeL	.	p	8eeeJ)	.	.	.
.	.	.	.	.	.	8dd#XJ	.	.	8r	.	.	.
.	.	.	[4.a)	.	.	8ee'L)	.	.	4.r	.	.	V6
.	.	.	.	.	.	8aa'	.	.	.	.	.	.
.	.	.	.	.	.	8gg#X'J	.	.	.	.	.	.
=147	=147	=147	=147	=147	=147	=147	=147	=147	=147	=147	=147	=147
2.c#]	.	.	2.a]	.	.	8ff#'L	.	.	2.r	.	.	.
.	.	.	.	.	.	8ee'	.	.	.	.	.	.
.	.	.	.	.	.	8dd'J	.	.	.	.	.	.
.	.	.	.	.	.	8cc#'L	.	.	.	.	.	.
.	.	.	.	.	.	8dd'	.	.	.	.	.	.
.	.	.	.	.	.	8b'J	.	.	.	.	.	.
=148	=148	=148	=148	=148	=148	=148	=148	=148	=148	=148	=148	=148
[2.cn	.	.	4e	.	.	4a	.	.	8r	.	.	v6
.	.	.	.	.	.	.	.	.	(8eeL	.	.	.
.	.	.	8r	.	.	8r	.	.	8dd#XJ	.	.	.
.	.	.	[4.a	.	.	4r	.	.	8ee'L)	.	.	.
.	.	.	.	.	.	.	.	.	8ee'	.	.	.
.	.	.	.	.	.	8r	.	.	8ff#'J	.	.	.
=149	=149	=149	=149	=149	=149	=149	=149	=149	=149	=149	=149	=149
2.c]	.	.	2.a_	.	.	2.r	.	.	8gg'L	.	.	.
.	.	.	.	.	.	.	.	.	8aa'	.	.	.
.	.	.	.	.	.	.	.	.	8bb'J	.	.	.
.	.	.	.	.	.	.	.	.	8cccn'L	.	.	.
.	.	.	.	.	.	.	.	.	8ddd'	.	.	.
.	.	.	.	.	.	.	.	.	8eee'J	.	.	.
=150	=150	=150	=150	=150	=150	=150	=150	=150	=150	=150	=150	=150
[2.B	.	.	4.a]	.	.	8r	.	.	(8ccc#L	.	.	IV6(2)
.	.	.	.	.	.	(8ddL	.	.	8dddJ)	.	.	.
.	.	.	.	.	.	8cc#J	.	.	8r	.	.	.
.	.	.	[4.g	.	.	8dd'L)	.	.	4r	.	.	IV6
.	.	.	.	.	.	8gg'	.	.	.	.	.	.
.	.	.	.	.	.	8ff#'J	.	.	8r	.	.	.
=151	=151	=151	=151	=151	=151	=151	=151	=151	=151	=151	=151	=151
2.B]	.	.	2.g]	.	.	8ee'L	.	.	2.r	.	.	.
.	.	.	.	.	.	8dd'	.	.	.	.	.	.
.	.	.	.	.	.	8ccn'J	.	.	.	.	.	.
.	.	.	.	.	.	8b'L	.	.	.	.	.	.
.	.	.	.	.	.	8cc'	.	.	.	.	.	.
.	.	.	.	.	.	8a'J	.	.	.	.	.	.
=152	=152	=152	=152	=152	=152	=152	=152	=152	=152	=152	=152	=152
8GL	.	.	2.r	.	.	4g	.	.	4bb	.	.	IV
(8GG	.	.	.	.	.	.	.	.	.	.	.	.
8FF#J	.	.	.	.	.	8r	.	.	8r	.	.	.
8GG'L)	.	.	.	.	.	4r	.	.	[4.eee	.	sf	ii6
8GG'	.	.	.	.	.	.	.	.	.	.	.	.
8AA'J	.	.	.	.	.	8r	.	.	.	.	.	.
=153	=153	=153	=153	=153	=153	=153	=153	=153	=153	=153	=153	=153
8BBL	.	.	2.G	.	sf	2.b	.	sf	2.eee]	.	.	ii.V(64)
8Cn	.	.	.	.	.	.	.	.	.	.	.	.
8DJ	.	.	.	.	.	.	.	.	.	.	.	.
8EL	.	.	.	.	.	.	.	.	.	.	.	.
8F#	.	.	.	.	.	.	.	.	.	.	.	.
8GJ	.	.	.	.	.	.	.	.	.	.	.	.
=154	=154	=154	=154	=154	=154	=154	=154	=154	=154	=154	=154	=154
4F#	.	.	8F#L	.	.	8aL	.	.	4ddd#X	.	.	#viio6
.	.	.	(8f#	.	.	(8aa	.	.	.	.	.	.
8r	.	.	8e#XJ	.	.	8gg#XJ	.	.	8r	.	.	.
4r	.	.	8f#'L)	.	.	8aa'L)	.	.	[4.aa	.	sf	.
.	.	.	8f#'	.	.	8aa'	.	.	.	.	.	.
8r	.	.	8en'J	.	.	8ggn'J	.	.	.	.	.	.
=155	=155	=155	=155	=155	=155	=155	=155	=155	=155	=155	=155	=155
4r	.	.	8d#X'L	.	.	8ff#'L	.	.	2.aa]	.	.	V7
.	.	.	8d#'	.	.	8ff#'	.	.	.	.	.	.
8r	.	.	8c#'J	.	.	8ee'J	.	.	.	.	.	.
8BBL	.	.	8B'L	.	.	8dd#X'L	.	.	.	.	.	.
8BB	.	.	8c#'	.	.	8ee'	.	.	.	.	.	.
8BBJ	.	.	8d#'J	.	.	8ff#'J	.	.	.	.	.	.
=156	=156	=156	=156	=156	=156	=156	=156	=156	=156	=156	=156	=156
8EL	.	.	4e	.	.	4b	.	.	4gg	.	.	i\\
(8EE	.	.	.	.	.	.	.	.	.	.	.	.
8DD#XJ	.	.	8r	.	.	8r	.	.	8r	.	.	.
8EE'L)	.	.	4r	.	.	4r	.	.	[4.cccn	.	sf	.bIII6
8EE'	.	.	.	.	.	.	.	.	.	.	.	.
8FF#'J	.	.	8r	.	.	8r	.	.	.	.	.	.
=157	=157	=157	=157	=157	=157	=157	=157	=157	=157	=157	=157	=157
8GGL	.	.	(2.E	.	sf	(2.g	.	sf	2.ccc]	.	.	.
8AA	.	.	.	.	.	.	.	.	.	.	.	.
8BBJ	.	.	.	.	.	.	.	.	.	.	.	.
8CnL	.	.	.	.	.	.	.	.	.	.	.	.
8D	.	.	.	.	.	.	.	.	.	.	.	.
8EJ	.	.	.	.	.	.	.	.	.	.	.	.
=158	=158	=158	=158	=158	=158	=158	=158	=158	=158	=158	=158	=158
4D	.	.	8DL)	.	.	8f#L)	.	.	4bb	.	.	v6
.	.	.	(8d	.	.	(8ff#	.	.	.	.	.	.
8r	.	.	8c#J	.	.	8ee#XJ	.	.	8r	.	.	.
4r	.	.	8d'L)	.	.	8ff#'L)	.	.	[4.ff#	.	sf	.
.	.	.	8d'	.	.	8ff#'	.	.	.	.	.	.
8r	.	.	8c#'J	.	.	8een'J	.	.	.	.	.	.
=159	=159	=159	=159	=159	=159	=159	=159	=159	=159	=159	=159	=159
2.r	.	.	8BL	.	.	8ddL	.	.	2.ff#]	.	.	v6
.	.	.	8B	.	.	8dd	.	.	.	.	.	.
.	.	.	8c#J	.	.	8cc#J	.	.	.	.	.	.
.	.	.	8dL	.	.	8bL	.	.	.	.	.	.
.	.	.	8d	.	.	8b	.	.	.	.	.	.
.	.	.	8dJ	.	.	8bJ	.	.	.	.	.	.
=160	=160	=160	=160	=160	=160	=160	=160	=160	=160	=160	=160	=160
2.r	.	.	4c#	.	.	4b	.	.	8ee#XL	.	.	V7/ii
.	.	.	.	.	.	.	.	.	8bb	.	.	.
.	.	.	8r	.	.	8r	.	.	8gg#XJ	.	.	.
.	.	.	4r	.	.	[4.dd	.	sf	8ee#L	.	.	.
.	.	.	.	.	.	.	.	.	8bb	.	.	.
.	.	.	8r	.	.	.	.	.	8gg#J	.	.	.
=161	=161	=161	=161	=161	=161	=161	=161	=161	=161	=161	=161	=161
4B	.	.	8C#L	.	.	2.dd]	.	.	8ee#XL	.	.	#viio43/ii
.	.	.	8C#	.	.	.	.	.	8bb	.	.	.
8r	.	.	8C#J	.	.	.	.	.	8gg#XJ	.	.	.
[4.d	.	sf	8C#L	.	.	.	.	.	8ee#L	.	.	#viio2/ii
.	.	.	8C#	.	.	.	.	.	8bb	.	.	.
.	.	.	8C#J	.	.	.	.	.	8gg#J	.	.	.
=162	=162	=162	=162	=162	=162	=162	=162	=162	=162	=162	=162	=162
4.d]	.	.	8C#L	.	.	4b	.	.	8ee#XL	.	.	.
.	.	.	8C#	.	.	.	.	.	8bb	.	.	.
.	.	.	8C#J	.	.	8r	.	.	8gg#XJ	.	.	.
4B	.	.	8C#L	.	.	[4.dd	.	sf	8ee#L	.	.	#viio43/ii
.	.	.	8C#	.	.	.	.	.	8bb	.	.	.
8r	.	.	8C#J	.	.	.	.	.	8gg#J	.	.	.
=163	=163	=163	=163	=163	=163	=163	=163	=163	=163	=163	=163	=163
4.d	.	sf	8C#L	.	.	4.dd]	.	.	8ee#XL	.	.	#viio2/ii
.	.	.	8C#	.	.	.	.	.	8bb	.	.	.
.	.	.	8C#J	.	.	.	.	.	8gg#XJ	.	.	.
4c#	.	.	8C#L	.	.	4cc#	.	.	8ee#L	.	.	V7/ii
.	.	.	8C#	.	.	.	.	.	8gg#	.	.	.
8r	.	.	8C#J	.	.	8r	.	.	8bbJ	.	.	.
=164	=164	=164	=164	=164	=164	=164	=164	=164	=164	=164	=164	=164
2.r	.	.	4F#	.	.	4ee	.	.	8aa#XL	.	.	V7/V
.	.	.	.	.	.	.	.	.	8eee	.	.	.
.	.	.	8r	.	.	8r	.	.	8ccc#J	.	.	.
.	.	.	4.r	.	.	[4.gg	.	sf	8aa#L	.	.	.
.	.	.	.	.	.	.	.	.	8eee	.	.	.
.	.	.	.	.	.	.	.	.	8ccc#J	.	.	.
=165	=165	=165	=165	=165	=165	=165	=165	=165	=165	=165	=165	=165
4e	.	.	8F#L	.	sf	2.gg]	.	.	8aa#XL	.	.	V9/V
.	.	.	8F#	.	.	.	.	.	8eee	.	.	.
8r	.	.	8F#J	.	.	.	.	.	8ccc#J	.	.	.
[4.g	.	sf	8F#L	.	.	.	.	.	8aa#L	.	.	.
.	.	.	8F#	.	.	.	.	.	8eee	.	.	.
.	.	.	8F#J	.	.	.	.	.	8ccc#J	.	.	.
=166	=166	=166	=166	=166	=166	=166	=166	=166	=166	=166	=166	=166
4.g]	.	.	8F#L	.	.	4ee	.	.	8aa#XL	.	.	.
.	.	.	8F#	.	.	.	.	.	8eee	.	.	.
.	.	.	8F#J	.	.	8r	.	.	8ccc#J	.	.	.
4e	.	.	8F#L	.	.	[4.gg	.	sf	8aa#L	.	.	.
.	.	.	8F#	.	.	.	.	.	8eee	.	.	.
8r	.	.	8F#J	.	.	.	.	.	8ccc#J	.	.	.
=167	=167	=167	=167	=167	=167	=167	=167	=167	=167	=167	=167	=167
(4.g	.	sf	8F#L	.	.	4.gg]	.	.	8aa#XL	.	.	.
.	.	.	8F#	.	.	.	.	.	8eee	.	.	.
.	.	.	8F#J	.	.	.	.	.	8ccc#J	.	.	.
4f#)	.	.	8F#L	.	.	4ff#	.	.	8aa#L	.	.	.
.	.	.	8F#	.	.	.	.	.	8ccc#	.	.	.
8r	.	.	8F#J	.	.	8r	.	.	8eeeJ	.	.	.
=168	=168	=168	=168	=168	=168	=168	=168	=168	=168	=168	=168	=168
4BB	.	.	4a	.	.	2.r	.	.	8ddd#XL	.	.	V7
.	.	.	.	.	.	.	.	.	8aaa	.	.	.
8r	.	.	8r	.	.	.	.	.	8fff#J	.	.	.
4r	.	.	[4.ccn	.	sf	.	.	.	8ddd#L	.	.	V9
.	.	.	.	.	.	.	.	.	8aaa	.	.	.
8r	.	.	.	.	.	.	.	.	8fff#J	.	.	.
=169	=169	=169	=169	=169	=169	=169	=169	=169	=169	=169	=169	=169
8BBL	.	sf	2.cc]	.	.	4A	.	.	8ddd#XL	.	.	.
8BB	.	.	.	.	.	.	.	.	8aaa	.	.	.
8BBJ	.	.	.	.	.	8r	.	.	8fff#J	.	.	.
8BBL	.	.	.	.	.	[4.cn	.	sf	8ddd#L	.	.	.
8BB	.	.	.	.	.	.	.	.	8aaa	.	.	.
8BBJ	.	.	.	.	.	.	.	.	8fff#J	.	.	.
=170	=170	=170	=170	=170	=170	=170	=170	=170	=170	=170	=170	=170
8BBL	.	.	4a	.	.	4.c]	.	.	8ddd#XL	.	.	.
8BB	.	.	.	.	.	.	.	.	8aaa	.	.	.
8BBJ	.	.	8r	.	.	.	.	.	8fff#J	.	.	.
8BBL	.	.	[4.ccn	.	sf	4A	.	.	8ddd#L	.	.	.
8BB	.	.	.	.	.	.	.	.	8aaa	.	.	.
8BBJ	.	.	.	.	.	8r	.	.	8fff#J	.	.	.
=171	=171	=171	=171	=171	=171	=171	=171	=171	=171	=171	=171	=171
8BBL	.	.	(4.cc]	.	.	(4.cn	.	.	8ddd#XL	.	.	.
8BB	.	.	.	.	.	.	.	.	8aaa	.	.	.
8BBJ	.	.	.	.	.	.	.	.	8fff#J	.	.	.
8BBL	.	.	4b)	.	.	4B)	.	.	8ddd#L	.	.	V7
8BB	.	.	.	.	.	.	.	.	8fff#	.	.	.
8BBJ	.	.	8r	.	.	8r	.	.	8aaaJ	.	.	.
=172	=172	=172	=172	=172	=172	=172	=172	=172	=172	=172	=172	=172
4E	.	.	4B	.	.	4g	.	.	8gggL	.	.	i
.	.	.	.	.	.	.	.	.	8bbb	.	.	.
8r	.	.	8r	.	.	8r	.	.	8bbbJ	.	.	.
[4.G	.	ff	[4.e#X	.	ff	[4.d [4.b	.	ff	8bbbL	.	ff	vi.Ger6
.	.	.	.	.	.	.	.	.	8bbb	.	.	.
.	.	.	.	.	.	.	.	.	8bbbJ	.	.	.
=173	=173	=173	=173	=173	=173	=173	=173	=173	=173	=173	=173	=173
2.G]	.	.	(2.e#]	.	.	2.d_ 2.b_	.	.	8bbbL	.	.	.
.	.	.	.	.	.	.	.	.	8bbb	.	.	.
.	.	.	.	.	.	.	.	.	8bbbJ	.	.	.
.	.	.	.	.	.	.	.	.	8bbbL	.	.	.
.	.	.	.	.	.	.	.	.	8bbb	.	.	.
.	.	.	.	.	.	.	.	.	8bbbJ	.	.	.
=174	=174	=174	=174	=174	=174	=174	=174	=174	=174	=174	=174	=174
8F#L	.	p	8f#L)	.	p	8dL] 8b]	.	p	2.f#	.	p	V(64)
8F#	.	.	8B	.	.	8d	.	.	.	.	.	.
8F#J	.	.	8BJ	.	.	8dJ	.	.	.	.	.	.
8F#L	.	.	8BL	.	.	8dL	.	.	.	.	.	.
8F#	.	.	8B	.	.	8d	.	.	.	.	.	.
8F#J	.	.	8BJ	.	.	8dJ	.	.	.	.	.	.
=175	=175	=175	=175	=175	=175	=175	=175	=175	=175	=175	=175	=175
8F#L	.	.	8A#XL	.	.	8eL	.	.	2.cc#t	.	.	V7
8F#	.	.	8A#	.	.	8e	.	.	.	.	.	.
8F#J	.	.	8A#J	.	.	8eJ	.	.	.	.	.	.
8F#L	.	.	8A#L	.	.	8eL	.	.	.	.	.	.
8F#	.	.	8A#	.	.	8e	.	.	.	.	.	.
8F#J	.	.	8A#J	.	.	8eJ	.	.	.	.	.	.
=176	=176	=176	=176	=176	=176	=176	=176	=176	=176	=176	=176	=176
4BB	.	.	4B	.	.	4d	.	.	(8bL	.	.	i\\
.	.	.	.	.	.	.	.	.	8ccn	.	.	.
8r	.	.	8r	.	.	8r	.	.	8cc#XJ	.	.	.
[4.GG	.	ff	[4.B	.	ff	[4.d [4.dd	.	ff	8ddL	.	ff	VI
.	.	.	.	.	.	.	.	.	8ee	.	.	.
.	.	.	.	.	.	.	.	.	8ee#XJ	.	.	.Ger6
=177	=177	=177	=177	=177	=177	=177	=177	=177	=177	=177	=177	=177
2.GG]	.	.	2.B]	.	.	2.d] 2.dd]	.	.	8ff#L	.	.	.
.	.	.	.	.	.	.	.	.	8gg	.	.	.
.	.	.	.	.	.	.	.	.	8gg#XJ	.	.	.
.	.	.	.	.	.	.	.	.	8aaL	.	.	.
.	.	.	.	.	.	.	.	.	8aa#X	.	.	.
.	.	.	.	.	.	.	.	.	8bbJ)	.	.	.
=178	=178	=178	=178	=178	=178	=178	=178	=178	=178	=178	=178	=178
8FF#L	.	.	8BL	.	.	8dL	.	.	2.f#	.	.	V(64)
8F#	.	.	8B	.	.	8d	.	.	.	.	.	.
8F#J	.	.	8BJ	.	.	8dJ	.	.	.	.	.	.
8F#L	.	.	8BL	.	.	8dL	.	.	.	.	.	.
8F#	.	.	8B	.	.	8d	.	.	.	.	.	.
8F#J	.	.	8BJ	.	.	8dJ	.	.	.	.	.	.
=179	=179	=179	=179	=179	=179	=179	=179	=179	=179	=179	=179	=179
8F#L	.	.	8A#XL	.	.	8eL	.	.	2.cc#t	.	.	V7
8F#	.	.	8A#	.	.	8e	.	.	.	.	.	.
8F#J	.	.	8A#J	.	.	8eJ	.	.	.	.	.	.
8F#L	.	.	8A#L	.	.	8eL	.	.	.	.	.	.
8F#	.	.	8A#	.	.	8e	.	.	.	.	.	.
8F#J	.	.	8A#J	.	.	8eJ	.	.	.	.	.	.
=180	=180	=180	=180	=180	=180	=180	=180	=180	=180	=180	=180	=180
4BB'	.	pp	4B	.	.	4d	.	.	4b	.	.	i\\
8FF#'	.	.	8r	.	.	8r	.	.	8r	.	.	.
(4FF#	.	.	[4.F#	.	pp	8b'L	.	pp	4.r	.	.	.
.	.	.	.	.	.	8cc#'	.	.	.	.	.	.
8BB)	.	.	.	.	.	8dd'J	.	.	.	.	.	.
=181	=181	=181	=181	=181	=181	=181	=181	=181	=181	=181	=181	=181
4AA#X'	.	.	2.F#_	.	.	8ee'L	.	.	2.r	.	.	V7
.	.	.	.	.	.	8dd'	.	.	.	.	.	.
8FF#'	.	.	.	.	.	8cc#'J	.	.	.	.	.	.
(4FF#	.	.	.	.	.	8cc#'L	.	.	.	.	.	.
.	.	.	.	.	.	8dd'	.	.	.	.	.	.
8AA#)	.	.	.	.	.	8ee'J	.	.	.	.	.	.
=182	=182	=182	=182	=182	=182	=182	=182	=182	=182	=182	=182	=182
4BB'	.	.	2.F#_	.	.	8ddL	.	.	4r	.	.	i
.	.	.	.	.	.	8cc#	.	.	.	.	.	.
8FF#'	.	.	.	.	.	8bJ	.	.	8r	.	.	.
(4FF#	.	.	.	.	.	8ddL	.	.	8bb'L	.	pp	.
.	.	.	.	.	.	8cc#	.	.	8ccc#'	.	.	.
8BB)	.	.	.	.	.	8bJ	.	.	8ddd'J	.	.	.
=183	=183	=183	=183	=183	=183	=183	=183	=183	=183	=183	=183	=183
4AA#X'	.	.	2.F#_	.	.	4f#	.	.	8eee'L	.	.	V65
.	.	.	.	.	.	.	.	.	8ddd'	.	.	.
8FF#'	.	.	.	.	.	8r	.	.	8ccc#'J	.	.	.
(4FF#	.	.	.	.	.	8eeL	.	.	8ccc#'L	.	.	V7
.	.	.	.	.	.	8dd	.	.	8ddd'	.	.	.
8AA#)	.	.	.	.	.	8cc#J	.	.	8eee'J	.	.	.
=184	=184	=184	=184	=184	=184	=184	=184	=184	=184	=184	=184	=184
4BB	.	.	4F#]	.	.	4f#	.	.	8ddd'L	.	.	i
.	.	.	.	.	.	.	.	.	8ccc#'	.	.	.
8r	.	.	8r	.	.	8r	.	.	8bb'J	.	.	.
4r	.	.	4r	.	.	8ddL	.	.	4r	.	.	.
.	.	.	.	.	.	8cc#	.	.	.	.	.	.
8r	.	.	8r	.	.	8bJ	.	.	8r	.	.	.
=185	=185	=185	=185	=185	=185	=185	=185	=185	=185	=185	=185	=185
4r	.	.	8dL	.	.	8bL	.	.	4r	.	.	v.V7
.	.	.	8cn	.	.	8a	.	.	.	.	.	.
8r	.	.	8BJ	.	.	8g#XJ	.	.	8r	.	.	.
8EEL	.	.	8EL	.	.	8G#XL	.	.	8ddL	.	.	.
8FF#	.	.	8E	.	.	8A	.	.	8ccn	.	.	.
8GG#XJ	.	.	8EJ	.	.	8BJ	.	.	8bJ	.	.	.
=186	=186	=186	=186	=186	=186	=186	=186	=186	=186	=186	=186	=186
4AA'	.	pp	[2.E	.	pp	4cn	.	.	4a	.	.	i
8EE'	.	.	.	.	.	8r	.	.	8r	.	.	.
(4EE	.	.	.	.	.	8a'L	.	.	4r	.	.	i64
.	.	.	.	.	.	8b'	.	.	.	.	.	.
8AA)	.	.	.	.	.	8ccn'J	.	.	8r	.	.	.
=187	=187	=187	=187	=187	=187	=187	=187	=187	=187	=187	=187	=187
4GG#X'	.	.	2.E_	.	.	8dd'L	.	.	2.r	.	.	V7
.	.	.	.	.	.	8ccn'	.	.	.	.	.	.
8EE'	.	.	.	.	.	8b'J	.	.	.	.	.	.
(4EE	.	.	.	.	.	8b'L	.	.	.	.	.	.
.	.	.	.	.	.	8cc'	.	.	.	.	.	.
8GG#)	.	.	.	.	.	8dd'J	.	.	.	.	.	.
=188	=188	=188	=188	=188	=188	=188	=188	=188	=188	=188	=188	=188
4AA'	.	.	2.E_	.	.	8ccn'L	.	.	4r	.	.	i
.	.	.	.	.	.	8b'	.	.	.	.	.	.
8EE'	.	.	.	.	.	8a'J	.	.	8r	.	.	.
(4EE	.	.	.	.	.	8cc'L	.	.	8aa'L	.	pp	i64
.	.	.	.	.	.	8b	.	.	8bb'	.	.	.
8AA)	.	.	.	.	.	8aJ	.	.	8cccn'J	.	.	.
=189	=189	=189	=189	=189	=189	=189	=189	=189	=189	=189	=189	=189
4GG#X'	.	.	2.E_	.	.	4e	.	.	8ddd'L	.	.	V65
.	.	.	.	.	.	.	.	.	8cccn'	.	.	.
8EE'	.	.	.	.	.	8r	.	.	8bb'J	.	.	.
(4EE	.	.	.	.	.	8ddL	.	.	8bb'L	.	.	V7
.	.	.	.	.	.	8ccn	.	.	8ccc'	.	.	.
8GG#)	.	.	.	.	.	8bJ	.	.	8ddd'J	.	.	.
=190	=190	=190	=190	=190	=190	=190	=190	=190	=190	=190	=190	=190
4AA	.	.	4E]	.	.	4e	.	.	8cccn'L	.	.	i
.	.	.	.	.	.	.	.	.	8bb'	.	.	.
8r	.	.	8r	.	.	8r	.	.	8aa'J	.	.	.
4r	.	.	4r	.	.	8ccnL	.	.	4r	.	.	.
.	.	.	.	.	.	8b	.	.	.	.	.	.
8r	.	.	8r	.	.	8aJ	.	.	8r	.	.	.
=191	=191	=191	=191	=191	=191	=191	=191	=191	=191	=191	=191	=191
4r	.	.	8c#L	.	.	8aL	.	.	4r	.	.	.
.	.	.	8B	.	.	8g	.	.	.	.	.	.
8r	.	.	8AJ	.	.	8f#J	.	.	8r	.	.	.
8DD'L	.	.	8F#L	.	.	8dL	.	.	8ccnL	.	.	IV.V7
8EE'	.	.	8G	.	.	8d	.	.	8b	.	.	.
8FF#'J	.	.	8AJ	.	.	8dJ	.	.	8aJ	.	.	.
=192	=192	=192	=192	=192	=192	=192	=192	=192	=192	=192	=192	=192
4GG'	.	pp	4B	.	.	4B	.	.	4g	.	.	I
8DD'	.	.	8r	.	.	8r	.	.	8r	.	.	.
(4DD	.	.	[4.D	.	pp	8g'L	.	pp	4r	.	.	I64
.	.	.	.	.	.	8a'	.	.	.	.	.	.
8GG)	.	.	.	.	.	8b'J	.	.	8r	.	.	.
=193	=193	=193	=193	=193	=193	=193	=193	=193	=193	=193	=193	=193
4FF#'	.	.	2.D_	.	.	8ccn'L	.	.	2.r	.	.	V7
.	.	.	.	.	.	8b'	.	.	.	.	.	.
8DD'	.	.	.	.	.	8a'J	.	.	.	.	.	.
(4DD	.	.	.	.	.	8a'L	.	.	.	.	.	.
.	.	.	.	.	.	8b'	.	.	.	.	.	.
8FF#)	.	.	.	.	.	8cc'J	.	.	.	.	.	.
=194	=194	=194	=194	=194	=194	=194	=194	=194	=194	=194	=194	=194
4GG'	.	.	2.D_	.	.	8b'L	.	.	4r	.	.	I
.	.	.	.	.	.	8a'	.	.	.	.	.	.
8DD'	.	.	.	.	.	8gJ	.	.	8r	.	.	.
(4DD	.	.	.	.	.	8bL	.	.	8gg'L	.	p	I64
.	.	.	.	.	.	8a	.	.	8aa'	.	.	.
8GG)	.	.	.	.	.	8gJ	.	.	8bb'J	.	.	.
=195	=195	=195	=195	=195	=195	=195	=195	=195	=195	=195	=195	=195
4FF#'	.	.	2.D_	.	.	4d	.	.	8cccn'L	.	.	V65
.	.	.	.	.	.	.	.	.	8bb'	.	.	.
8DD'	.	.	.	.	.	8r	.	.	8aa'J	.	.	.
(4DD	.	.	.	.	.	8ccnL	.	.	8aa'L	.	.	V7
.	.	.	.	.	.	8b	.	.	8bb'	.	.	.
8FF#)	.	.	.	.	.	8aJ	.	.	8ccc'J	.	.	.
=196	=196	=196	=196	=196	=196	=196	=196	=196	=196	=196	=196	=196
4GG'	.	.	4.D]	.	.	4d	.	.	4bb	.	.	I
8G'	.	.	.	.	.	8r	.	.	8r	.	.	.
4GG'	.	.	[4.G	.	.	4r	.	.	4r	.	.	.
8GG'	.	.	.	.	.	8r	.	.	8r	.	.	.
=197	=197	=197	=197	=197	=197	=197	=197	=197	=197	=197	=197	=197
2.FF#	.	pp	2.G_	.	.	8r	.	.	8r	.	.	IM2
.	.	.	.	.	.	8r	.	.	8r	.	.	.
.	.	.	.	.	.	8b'	.	pp	8gg'	.	pp	.
.	.	.	.	.	.	4g'	.	.	4b'	.	.	.
.	.	.	.	.	.	8g'	.	.	8b'	.	.	.
=198	=198	=198	=198	=198	=198	=198	=198	=198	=198	=198	=198	=198
4EE'	.	.	2.G_	.	.	[2.g	.	.	[2.b	.	.	vi
8E'	.	.	.	.	.	.	.	.	.	.	.	.
4EE'	.	.	.	.	.	.	.	.	.	.	.	.
8EE'	.	.	.	.	.	.	.	.	.	.	.	.
=199	=199	=199	=199	=199	=199	=199	=199	=199	=199	=199	=199	=199
2.DD	.	.	(2.G]	.	.	4g]	.	.	4b]	.	.	I64
.	.	.	.	.	.	8b	.	.	8gg	.	.	.
.	.	.	.	.	.	4g	.	.	4b	.	.	.
.	.	.	.	.	.	8g	.	.	8b	.	.	.
=200	=200	=200	=200	=200	=200	=200	=200	=200	=200	=200	=200	=200
4CC#'	.	.	[2.E)	.	.	[2.g	.	.	[2.b-X	.	.	I.viio7
8C#'	.	.	.	.	.	.	.	.	.	.	.	.
4CC#'	.	.	.	.	.	.	.	.	.	.	.	.
8CC#'	.	.	.	.	.	.	.	.	.	.	.	.
=201	=201	=201	=201	=201	=201	=201	=201	=201	=201	=201	=201	=201
2.CC#	.	.	2.E_	.	.	4g]	.	.	4b-]	.	.	.
.	.	.	.	.	.	8b-X	.	.	8gg	.	.	.
.	.	.	.	.	.	4g	.	.	4b-X	.	.	.
.	.	.	.	.	.	8g	.	.	8b-	.	.	.
=202	=202	=202	=202	=202	=202	=202	=202	=202	=202	=202	=202	=202
4CCn'	.	.	2.E_	.	.	[2.g	.	.	[2.b-X	.	.	.bVII7
8cn'	.	.	.	.	.	.	.	.	.	.	.	.
4Cn'	.	.	.	.	.	.	.	.	.	.	.	.
8C'	.	.	.	.	.	.	.	.	.	.	.	.
=203	=203	=203	=203	=203	=203	=203	=203	=203	=203	=203	=203	=203
2.Cn	.	.	2.E_	.	.	4g]	.	.	4b-]	.	.	.
.	.	.	.	.	.	8b-X	.	.	8gg	.	.	.
.	.	.	.	.	.	4g	.	.	4b-X	.	.	.
.	.	.	.	.	.	8g	.	.	8b-	.	.	.
=204	=204	=204	=204	=204	=204	=204	=204	=204	=204	=204	=204	=204
4BB'	.	.	2.E_	.	.	[2.g	.	.	[2.b	.	.	ii64
8B'	.	.	.	.	.	.	.	.	.	.	.	.
4BB'	.	.	.	.	.	.	.	.	.	.	.	.
8BB'	.	.	.	.	.	.	.	.	.	.	.	.
=205	=205	=205	=205	=205	=205	=205	=205	=205	=205	=205	=205	=205
2.BB	.	.	2.E_	.	.	4g]	.	.	4b]	.	.	.
.	.	.	.	.	.	8b	.	.	8gg	.	.	.
.	.	.	.	.	.	4g	.	.	4b	.	.	.
.	.	.	.	.	.	8g	.	.	8b	.	.	.
=206	=206	=206	=206	=206	=206	=206	=206	=206	=206	=206	=206	=206
4BB-X'	.	.	2.E_	.	.	[2.g	.	.	[2.cc#	.	.	V2/bIII
8B-X'	.	.	.	.	.	.	.	.	.	.	.	.
4BB-'	.	.	.	.	.	.	.	.	.	.	.	.
8BB-'	.	.	.	.	.	.	.	.	.	.	.	.
=207	=207	=207	=207	=207	=207	=207	=207	=207	=207	=207	=207	=207
2.BB-X	.	.	4E]	.	.	4g]	.	.	4cc#]	.	.	.
.	.	.	[8e	.	.	[8g	.	.	[8cc#	.	.	.
.	.	.	4e]	.	.	4g]	.	.	4cc#]	.	.	.
.	.	.	8e	.	.	8g	.	.	8cc#	.	.	.
=208	=208	=208	=208	=208	=208	=208	=208	=208	=208	=208	=208	=208
4AA	smor-	.	[2.e	smor-	.	[2.g	smor-	.	[2.cc#	smor-	.	V7
8A	.	.	.	.	.	.	.	.	.	.	.	.
4AA	.	.	.	.	.	.	.	.	.	.	.	.
8AA	.	.	.	.	.	.	.	.	.	.	.	.
=209	=209	=209	=209	=209	=209	=209	=209	=209	=209	=209	=209	=209
[2.AA	.	.	4e]	.	.	4g]	.	.	4cc#]	.	.	.
.	.	.	[8e	.	.	[8g	.	.	[8cc#	.	.	.
.	.	.	4e]	.	.	4g]	.	.	4cc#_	.	.	.
.	.	.	8e	.	.	8g	.	.	8cc#]	.	.	.
=210	=210	=210	=210	=210	=210	=210	=210	=210	=210	=210	=210	=210
4AA]	-zan-	.	[2.d	-zan-	.	[2.fn	-zan-	.	[2.dd	-zan-	.	i64
8A	.	.	.	.	.	.	.	.	.	.	.	.
4AA	.	.	.	.	.	.	.	.	.	.	.	.
8AA	.	.	.	.	.	.	.	.	.	.	.	.
=211	=211	=211	=211	=211	=211	=211	=211	=211	=211	=211	=211	=211
[2.AA	.	.	4d]	.	.	4f]	.	.	4dd]	.	.	.
.	.	.	[8d	.	.	[8fn	.	.	[8dd	.	.	.
.	.	.	4d]	.	.	4f]	.	.	4dd]	.	.	.
.	.	.	8d	.	.	8f	.	.	8dd	.	.	.
=212	=212	=212	=212	=212	=212	=212	=212	=212	=212	=212	=212	=212
4AA]	.	.	[2.A	.	.	[2.d	.	.	[2.e	.	.	V(4)
8A	.	.	.	.	.	.	.	.	.	.	.	.
4AA	.	.	.	.	.	.	.	.	.	.	.	.
8AA	.	.	.	.	.	.	.	.	.	.	.	.
=213	=213	=213	=213	=213	=213	=213	=213	=213	=213	=213	=213	=213
[2.AA	.	.	4A]	.	.	4d]	.	.	4e]	.	.	.
.	.	.	[8A	.	.	[8d	.	.	[8e	.	.	.
.	.	.	4A]	.	.	4d]	.	.	4e]	.	.	.
.	.	.	8A	-do	.	8d	-do	.	8e	-do	.	.
=214	=214	=214	=214	=214	=214	=214	=214	=214	=214	=214	=214	=214
4AA]	.	.	[2.G	.	pp	[2.c#	.	pp	[2.e	.	pp	V7
8A	.	.	.	.	.	.	.	.	.	.	.	.
4AA	.	.	.	.	.	.	.	.	.	.	.	.
8AA	-do	.	.	.	.	.	.	.	.	.	.	.
=215	=215	=215	=215	=215	=215	=215	=215	=215	=215	=215	=215	=215
[2.AA	.	pp	4G]	.	.	4c#]	.	.	4e]	.	.	.
.	.	.	[8G	.	.	[8c#	.	.	[8e	.	.	.
.	.	.	4G]	.	.	4c#]	.	.	4e]	.	.	.
.	.	.	(8G	.	.	(8c#	.	.	(8e	.	.	.
=216	=216	=216	=216	=216	=216	=216	=216	=216	=216	=216	=216	=216
8AAL]	.	.	8G'L)	.	.	8c#'L)	.	.	4e')	.	.	.
(8AA	.	ff	(8A	.	ff	(8a	.	ff	.	.	.	.
8GG#XJ	.	.	8G#XJ	.	.	8g#XJ	.	.	8r	.	.	.
8AA'L)	.	.	8A'L)	.	.	8a'L)	.	.	4r	.	.	.
(8AA	.	.	(8A	.	.	(8a	.	.	.	.	.	.
8GG#J	.	.	8G#J	.	.	8g#J	.	.	8r	.	.	.
=217	=217	=217	=217	=217	=217	=217	=217	=217	=217	=217	=217	=217
8AA'L)	.	.	8A'L)	.	.	8a'L)	.	.	4r	.	.	.
8BB'	.	.	8B'	.	.	8b'	.	.	.	.	.	.
8AA'J	.	.	8A'J	.	.	8a'J	.	.	8r	.	.	.
8GG'L	.	.	8G'L	.	.	8g'L	.	.	8r	.	.	.
8FF#'	.	.	8F#'	.	.	8e'	.	.	(8ddL	.	ff	.
8EE'J	.	.	8E'J	.	.	8d'J	.	.	8cc#J	.	.	.
=218	=218	=218	=218	=218	=218	=218	=218	=218	=218	=218	=218	=218
4DD	.	f	4D	.	f	4d	.	.	8dd'L)	.	fp	I
.	.	.	.	.	.	.	.	.	(8b	.	.	.
8r	.	.	8r	.	.	8r	.	.	8a#XJ	.	.	.
4.r	.	.	4r	.	.	4r	.	.	8b'L)	.	.	IV
.	.	.	.	.	.	.	.	.	(8g	.	.	.
.	.	.	8r	.	.	8r	.	.	8f#J	.	.	.
=219	=219	=219	=219	=219	=219	=219	=219	=219	=219	=219	=219	=219
2.r	.	.	2.r	.	.	2.r	.	.	8g'L)	.	.	.
.	.	.	.	.	.	.	.	.	(8e	.	.	ii
.	.	.	.	.	.	.	.	.	8d#XJ	.	.	.
.	.	.	.	.	.	.	.	.	8e'L)	.	.	.
.	.	.	.	.	.	.	.	.	8f#'	.	.	.
.	.	.	.	.	.	.	.	.	8g'J	.	.	.
=220	=220	=220	=220	=220	=220	=220	=220	=220	=220	=220	=220	=220
2.r	.	.	2.r	.	.	2.r	.	.	8a'L	.	.	V
.	.	.	.	.	.	.	.	.	8b'	.	.	.
.	.	.	.	.	.	.	.	.	8cc#'J	.	.	.
.	.	.	.	.	.	.	.	.	8dd'L	.	.	.
.	.	.	.	.	.	.	.	.	8ee'	.	.	.
.	.	.	.	.	.	.	.	.	8ff#'J	.	.	.
=221	=221	=221	=221	=221	=221	=221	=221	=221	=221	=221	=221	=221
2.r	.	.	2.r	.	.	4r	.	.	4gg	.	.	V7
.	.	.	.	.	.	8r	.	.	8r	.	.	.
.	.	.	.	.	.	8r	.	.	8r	.	.	.
.	.	.	.	.	.	(8ddL	.	p	(8ff#L	.	p	I
.	.	.	.	.	.	8cc#J	.	.	8ee#XJ	.	.	.
=222	=222	=222	=222	=222	=222	=222	=222	=222	=222	=222	=222	=222
2.r	.	.	2.r	.	.	8dd'L)	.	.	8ff#'L)	.	.	.
.	.	.	.	.	.	(8b	.	.	(8dd	.	.	.
.	.	.	.	.	.	8a#XJ	.	.	8cc#J	.	.	.
.	.	.	.	.	.	8b'L)	.	.	8dd'L)	.	.	IV
.	.	.	.	.	.	(8g	.	.	(8b	.	.	.
.	.	.	.	.	.	8f#J	.	.	8a#XJ	.	.	.
=223	=223	=223	=223	=223	=223	=223	=223	=223	=223	=223	=223	=223
2.r	.	.	2.r	.	.	8g'L)	.	.	8b'L)	.	.	ii
.	.	.	.	.	.	(8e	.	.	(8g	.	.	.
.	.	.	.	.	.	8d#XJ	.	.	8f#J	.	.	.
.	.	.	.	.	.	8e'L)	.	.	8g'L)	.	.	.
.	.	.	.	.	.	8f#'	.	.	8a'	.	.	.
.	.	.	.	.	.	8g'J	.	.	8b'J	.	.	.
=224	=224	=224	=224	=224	=224	=224	=224	=224	=224	=224	=224	=224
2.r	.	.	2.r	.	.	8a'L	.	.	8cc#'L	.	.	V
.	.	.	.	.	.	8b'	.	.	8dd'	.	.	.
.	.	.	.	.	.	8cc#'J	.	.	8ee'J	.	.	.
.	.	.	.	.	.	8dd'L	.	.	8ff#'L	.	.	.
.	.	.	.	.	.	8ee'	.	.	8gg'	.	.	.
.	.	.	.	.	.	8ff#'J	.	.	8aa'J	.	.	.
=225	=225	=225	=225	=225	=225	=225	=225	=225	=225	=225	=225	=225
2.r	.	.	2.r	.	.	4gg	.	.	4bb	.	.	V7
.	.	.	.	.	.	8r	.	.	8r	.	.	.
.	.	.	.	.	.	8r	.	.	8r	.	.	.
.	.	.	.	.	.	(8ff#L	.	.	(8aaL	.	.	iiio
.	.	.	.	.	.	8ee#XJ)	.	.	8gg#XJ)	.	.	.
=226	=226	=226	=226	=226	=226	=226	=226	=226	=226	=226	=226	=226
4r	.	.	4r	.	.	(8ff#L	.	.	(8aaL	.	.	.
.	.	.	.	.	.	8gg)	.	.	8bb)	.	.	.
8r	.	.	8r	.	.	8aa'J	.	.	8cccn'J	.	.	.
[4.d#X	.	<[	[4.f#	.	<[	4aa'	.	.	4ccc'	.	.	#viio7/ii
.	.	.	.	.	.	8aa'	.	.	8ccc'	.	.	.
=227	=227	=227	=227	=227	=227	=227	=227	=227	=227	=227	=227	=227
(4.d#]	.	>	(4.f#]	.	>	(4.aa	.	.	(4.cccn	.	.	.
4e)	.	]	4g)	.	]	8gg)	.	.	8bb)	.	.	ii
.	.	.	.	.	.	8qbb/	.	.	8qddd/	.	.	.
.	.	.	.	.	.	(8aaL	.	.	(8cccL	.	.	.
8r	.	.	8r	.	.	8gg#XJ)	.	.	8bbJ)	.	.	V/v
=228	=228	=228	=228	=228	=228	=228	=228	=228	=228	=228	=228	=228
4r	.	.	4r	.	.	(8aaL	.	.	(8cccnL	.	.	v
.	.	.	.	.	.	8bb)	.	.	8ddd)	.	.	.
8r	.	.	8r	.	.	8cccn'J	.	.	8eee'J	.	.	.
(4.e	.	<[	(4.g	.	<[	4ccc'	.	.	4eee'	.	.	.bVII6
.	.	.	.	.	.	8ccc'	.	.	8eee'	.	.	.
=229	=229	=229	=229	=229	=229	=229	=229	=229	=229	=229	=229	=229
4.f#	.	>	4.a	.	>	(4.cccn	.	.	(4.eee	.	.	vii%7/IV
4g)	.	]	4b)	.	]	8bb)	.	.	8ddd)	.	.	IV
.	.	.	.	.	.	8qaa/	.	.	8qfff#/	.	.	ii6
.	.	.	.	.	.	(8ggL	.	.	(8eeeL	.	.	.
8r	.	.	8r	.	.	8ff#J)	.	.	8ddd#XJ)	.	.	.
=230	=230	=230	=230	=230	=230	=230	=230	=230	=230	=230	=230	=230
!	!	!	!	!	!	!LO:TX:b:t=cresc.	!	!	!LO:TX:b:t=cresc.	!	!	!
4r	.	.	4r	.	.	(8ggL	.	.	(8eeeL	.	.	.
.	.	.	.	.	.	8aa)	.	.	8fff#)	.	.	.
8r	.	.	8r	.	.	8bbJ	.	.	8gggJ	.	.	.
!LO:TX:a:t=cresc.	!	!	!LO:TX:b:t=cresc.	!	!	!	!	!	!	!	!	!
(4.B	.	.	(4.d	.	.	4bb	.	.	4ggg	.	.	IV6
.	.	.	.	.	.	8bb	.	.	8ggg	.	.	.
=231	=231	=231	=231	=231	=231	=231	=231	=231	=231	=231	=231	=231
(4.c#)	.	sf	(4.e)	.	sf	4.bb-X	.	sf	(4.ggg	.	sf	viio7
4d)	.	.	4f#)	.	.	4aa	.	.	4fff#)	.	.	I
8D'	.	.	8d	.	.	[8aa	.	.	[8fff#	.	.	.
=232	=232	=232	=232	=232	=232	=232	=232	=232	=232	=232	=232	=232
4G'	.	.	8BL	.	.	4aa]	.	.	4fff#]	.	.	IV(#7+2)
.	.	.	8b	.	.	.	.	.	.	.	.	.
8E'	.	.	8bJ	.	.	[8gg	.	.	[8eee	.	.	ii
4A'	.	.	8bL	.	.	4gg]	.	.	4eee]	.	.	V7
.	.	.	8a	.	.	.	.	.	.	.	.	.
8AA	.	.	8gJ	.	.	[8ee	.	.	[8ccc#	.	.	.
=233	=233	=233	=233	=233	=233	=233	=233	=233	=233	=233	=233	=233
[4.D	.	.	(4.g	.	.	(4.ee]	.	.	(4.ccc#]	.	.	I(+#74+2)
8DL]	.	.	8f#L)	.	.	4ff#)	.	.	4ddd)	.	.	I\\
(8F#	.	.	(8A	.	.	.	.	.	.	.	.	.
8E#XJ)	.	.	8G#XJ)	.	.	8r	.	.	8r	.	.	.
=234	=234	=234	=234	=234	=234	=234	=234	=234	=234	=234	=234	=234
(8F#L	.	.	(8AL	.	.	2.r	.	.	2.r	.	.	iiio
8G)	.	.	8B)	.	.	.	.	.	.	.	.	.
8A'J	.	.	8cn'J	.	.	.	.	.	.	.	.	.
8AL	.	.	8cL	.	.	.	.	.	.	.	.	.
8A	.	.	8c	.	.	.	.	.	.	.	.	.
8AJ	.	.	8cJ	.	.	.	.	.	.	.	.	.
=235	=235	=235	=235	=235	=235	=235	=235	=235	=235	=235	=235	=235
(4.A	.	sf	(4.cn	.	sf	(4.d#Xt	.	sf	(4.dd#Xt	.	sf	#viio43/ii
.	.	.	.	.	.	16qqc#/LL	.	.	16qqcc#/LL	.	.	ii6
.	.	.	.	.	.	16qqdn/JJ	.	.	16qqddn/JJ	.	.	.
8GL)	.	.	8BL)	.	.	4e)	.	.	4ee)	.	.	.
(8A	.	.	(8c	.	.	.	.	.	.	.	.	.
8G#XJ)	.	.	8BJ)	.	.	8r	.	.	8r	.	.	V6/v
=236	=236	=236	=236	=236	=236	=236	=236	=236	=236	=236	=236	=236
(8AL	.	.	(8cnL	.	.	2.r	.	.	2.r	.	.	v
8B)	.	.	8d)	.	.	.	.	.	.	.	.	.
8cn'J	.	.	8e'J	.	.	.	.	.	.	.	.	.
8cL	.	.	8eL	.	.	.	.	.	.	.	.	.
8c	.	.	8e	.	.	.	.	.	.	.	.	.
8cJ	.	.	8eJ	.	.	.	.	.	.	.	.	.
=237	=237	=237	=237	=237	=237	=237	=237	=237	=237	=237	=237	=237
(4.cn	.	sf	(4.e	.	sf	(4.f#t	.	sf	(4.ff#t	.	sf	vii%43/IV
.	.	.	.	.	.	16qqe/LL	.	.	16qqee/LL	.	.	IV6
.	.	.	.	.	.	16qqf#/JJ	.	.	16qqff#/JJ	.	.	.
4B)	.	.	4d)	.	.	8gL)	.	.	8gg'L)	.	.	.
.	.	.	.	.	.	(8ee	.	.	(8gg	.	.	.
8r	.	.	8r	.	.	8dd#XJ)	.	.	8ff#J)	.	.	.
=238	=238	=238	=238	=238	=238	=238	=238	=238	=238	=238	=238	=238
2.r	.	.	2.r	.	.	(8eeL	.	.	(8ggL	.	.	ii
.	.	.	.	.	.	8ff#)	.	.	8aa)	.	.	.
.	.	.	.	.	.	8gg'J	.	.	8bb'J	.	.	.
.	.	.	.	.	.	8gg'L	.	.	8bb'L	.	.	.
.	.	.	.	.	.	8gg'	.	.	8bb'	.	.	.
.	.	.	.	.	.	8gg'J	.	.	8bb'J	.	.	.
=239	=239	=239	=239	=239	=239	=239	=239	=239	=239	=239	=239	=239
(4.A	.	sf	(4.c#	.	sf	(4.gg	.	sf	(4.bb	.	sf	V9
4g)	.	.	4a)	.	.	4cc#)	.	.	4ee)	.	.	V2
8r	.	.	8r	.	.	8r	.	.	8r	.	.	.
=240	=240	=240	=240	=240	=240	=240	=240	=240	=240	=240	=240	=240
(8AL	.	sf	(8c#L	.	sf	(8ggL	.	sf	(8bbL	.	sf	V9
8gJ)	.	.	8aJ)	.	.	8cc#J)	.	.	8eeJ)	.	.	V2
8r	.	.	8r	.	.	8r	.	.	8r	.	.	.
(8AL	.	sf	(8c#L	.	sf	(8ggL	.	sf	(8bbL	.	sf	V9
8gJ)	.	.	8aJ)	.	.	8cc#J)	.	.	8eeJ)	.	.	V2
8r	.	.	8r	.	.	8r	.	.	8r	.	.	.
=241	=241	=241	=241	=241	=241	=241	=241	=241	=241	=241	=241	=241
(8A	.	.	(8c#	.	.	(8gg	.	.	(8bb	.	.	V9
[4g)	.	sf	[4a)	.	sf	[4cc#)	.	sf	[4ee)	.	sf	V2
4g]	.	.	4a]	.	.	4cc#]	.	.	4ee]	.	.	.
8f#'	.	.	8a'	.	.	[8dd#X	.	.	[8ff#	.	.	viio6/ii
=242	=242	=242	=242	=242	=242	=242	=242	=242	=242	=242	=242	=242
4G'	.	.	4b'	.	.	4dd#]	.	.	4ff#]	.	.	IVM7
8E'	.	.	8B'	.	.	[8ee	.	.	[8gg	.	.	ii
4A'	.	.	4A'	.	.	4ee]	.	.	4gg]	.	.	V7
8AA'	.	.	8G'	.	.	8cc#	.	.	8ee	.	.	.
=243	=243	=243	=243	=243	=243	=243	=243	=243	=243	=243	=243	=243
4D	.	.	4F#	.	.	8ddL	.	.	4dd	.	.	I\\
.	.	.	.	.	.	8A	.	p	.	.	.	.
8r	.	.	8r	.	.	8AJ	.	.	8r	.	.	.
4F#	.	p	4r	.	.	8dL	.	.	4aa	.	p	I6
.	.	.	.	.	.	8A	.	.	.	.	.	.
8r	.	.	8r	.	.	8AJ	.	.	8ddd	.	.	.
=244	=244	=244	=244	=244	=244	=244	=244	=244	=244	=244	=244	=244
4G	.	.	2.r	.	.	8eL	.	.	(8dddL	.	.	V2
.	.	.	.	.	.	8A	.	.	8ccc#)	.	.	.
8r	.	.	.	.	.	8AJ	.	.	8bb'J	.	.	.
4C#	.	.	.	.	.	8eL	.	.	(8bbL	.	.	V65
.	.	.	.	.	.	8A	.	.	8aa)	.	.	.
8r	.	.	.	.	.	8AJ	.	.	8gg'J	.	.	.
=245	=245	=245	=245	=245	=245	=245	=245	=245	=245	=245	=245	=245
4D	.	.	4r	.	.	8f#L	.	.	(8ggL	.	.	I
.	.	.	.	.	.	8A	.	.	8ff#)	.	.	.
8r	.	.	8r	.	.	8AJ	.	.	8ee'J	.	.	.
4BB	.	.	8B'L	.	.	8dL	.	.	(8eeL	.	.	vi
.	.	.	8d'	.	.	8f#	.	.	8dd)	.	.	.
8r	.	.	8d'J	.	.	8f#J	.	.	8cc#'J	.	.	.
=246	=246	=246	=246	=246	=246	=246	=246	=246	=246	=246	=246	=246
4GG	.	.	8B'L	.	.	8dL	.	.	(8cc#L	.	.	ii6
.	.	.	8d'	.	.	8e	.	.	8b)	.	.	.
8r	.	.	8d'J	.	.	8eJ	.	.	8ee'J	.	.	.
4AA	.	.	8c#'L	.	.	8eL	.	.	(8eeL	.	.	V7
.	.	.	8e'	.	.	8g	.	.	8cc#)	.	.	.
8r	.	.	8e'J	.	.	8gJ	.	.	8a'J	.	.	.
=247	=247	=247	=247	=247	=247	=247	=247	=247	=247	=247	=247	=247
4DD	.	.	4d	.	.	4f#	.	.	4dd	.	.	I\\
8r	.	.	8r	.	.	8r	.	.	8r	.	.	.
4A	.	p	4F#	.	p	4r	.	.	4r	.	.	.
!LO:TX:b:t=cresc.	!	!	!	!	!	!	!	!	!	!	!	!
8d	.	.	8r	.	.	8r	.	.	8r	.	.	.
=248	=248	=248	=248	=248	=248	=248	=248	=248	=248	=248	=248	=248
!	!	!	!LO:TX:b:t=cresc.	!	!	!	!	!	!	!	!	!
(8dL	.	.	4G	.	.	4r	.	.	2.r	.	.	ii65
8c#)	.	.	.	.	.	.	.	.	.	.	.	.
8B'J	.	.	8r	.	.	8r	.	.	.	.	.	.
!	!	!	!	!	!	!LO:TX:b:t=cresc.	!	!	!	!	!	!
(8BL	.	.	4C#	.	.	4e	.	.	.	.	.	.
8A)	.	.	.	.	.	.	.	.	.	.	.	.
8G'J	.	.	8r	.	.	8a	.	.	.	.	.	.
=249	=249	=249	=249	=249	=249	=249	=249	=249	=249	=249	=249	=249
(8F#L	.	.	4D'	.	.	(8aL	.	.	2.r	.	.	I
8E)	.	.	.	.	.	8g)	.	.	.	.	.	.
8D'J	.	.	8r	.	.	8f#'J	.	.	.	.	.	.
(8DL	.	.	4a'	.	.	(8f#L	.	.	.	.	.	.
8C#)	.	.	.	.	.	8e)	.	.	.	.	.	.
8BB'J	.	.	8dd'	.	.	8d'J	.	.	.	.	.	.
=250	=250	=250	=250	=250	=250	=250	=250	=250	=250	=250	=250	=250
(8BBL	.	.	(8ddL	.	.	(8dL	.	.	4r	.	.	IV6
8AA)	.	.	8cc#)	.	.	8c#)	.	.	.	.	.	.
8GG'J	.	.	8b'J	.	.	8B'J	.	.	8r	.	.	IV
(8GGL	.	f	(8bL	.	f	(8BL	.	f	4ee	.	f	ii6
8FF#)	.	.	8a)	.	.	8A)	.	.	.	.	.	.
8EE'J	.	.	8g'J	.	.	8G'J	.	.	8aa	.	.	.
=251	=251	=251	=251	=251	=251	=251	=251	=251	=251	=251	=251	=251
(8DDL	.	.	(8f#L	.	.	8A'L	.	.	(8aaL	.	.	I
8EE)	.	.	8g)	.	.	8A'	.	.	8gg)	.	.	.
8FF#'J	.	.	8a'J	.	.	8A'J	.	.	8ff#'J	.	.	I6
8GG'L	.	.	8b'L	.	.	8B'L	.	.	(8ff#L	.	.	IV
8GG'	.	.	8B	.	.	8e'	.	.	8ee)	.	.	ii6
8GG#X'J	.	.	8BJ	.	.	8e'J	.	.	8dd'J	.	.	V7/V
=252	=252	=252	=252	=252	=252	=252	=252	=252	=252	=252	=252	=252
8AA'L	.	.	4A	.	.	4e	.	.	4cc#	.	.	V[V
(8AA	.	.	.	.	.	.	.	.	.	.	.	.
8GG#XJ	.	.	8r	.	.	8r	.	.	8r	.	.	.
8AA'L)	.	p	(4.c#	.	p	(4.g	.	p	(4.bb	.	p	vii%7
8AA'	.	.	.	.	.	.	.	.	.	.	.	.
8AA'J	.	.	.	.	.	.	.	.	.	.	.	.
=253	=253	=253	=253	=253	=253	=253	=253	=253	=253	=253	=253	=253
8AAL	.	.	4.d	.	.	4.f#	.	.	4.aa	.	.	I
8AA	.	.	.	.	.	.	.	.	.	.	.	.
8AAJ	.	.	.	.	.	.	.	.	.	.	.	.
8AAL	.	.	4.e	.	.	4.cc#	.	.	4.gg	.	.	viio6
8AA	.	.	.	.	.	.	.	.	.	.	.	.
8AAJ	.	.	.	.	.	.	.	.	.	.	.	.
=254	=254	=254	=254	=254	=254	=254	=254	=254	=254	=254	=254	=254
8AAL	.	.	4.f#	.	.	4.dd	.	.	4.ff#	.	.	I6
8AA	.	.	.	.	.	.	.	.	.	.	.	.
8AAJ	.	.	.	.	.	.	.	.	.	.	.	.
8AAL	.	.	4.g	.	.	4.cc#	.	.	4.ee	.	.	viio64
8AA	.	.	.	.	.	.	.	.	.	.	.	.
8AAJ	.	.	.	.	.	.	.	.	.	.	.	.
=255	=255	=255	=255	=255	=255	=255	=255	=255	=255	=255	=255	=255
8AAL	.	.	4.f#)	.	.	4.a)	.	.	4.dd)	.	.	I6
8D	.	.	.	.	.	.	.	.	.	.	.	.
8F#J	.	.	.	.	.	.	.	.	.	.	.	.
8AL	.	sf	(4.d	.	sf	(4.g#X	.	sf	(4.b	.	sf	#ivo64
8A	.	.	.	.	.	.	.	.	.	.	.	.
8AJ	.	.	.	.	.	.	.	.	.	.	.	.
=256	=256	=256	=256	=256	=256	=256	=256	=256	=256	=256	=256	=256
8AAL	.	.	4c#)	.	.	4e)	.	.	4a)	.	.	V6
8AA	.	.	.	.	.	.	.	.	.	.	.	.
8GG#XJ	.	.	8r	.	.	8r	.	.	8r	.	.	.
8AAL	.	.	(4.g	.	.	(4.cc#	.	.	(4.bb-X	.	.	viio43
8AA	.	.	.	.	.	.	.	.	.	.	.	.
8AAJ	.	.	.	.	.	.	.	.	.	.	.	.
=257	=257	=257	=257	=257	=257	=257	=257	=257	=257	=257	=257	=257
8AAL	.	.	4.f#	.	.	4.dd	.	.	4.aa	.	.	I6
8AA	.	.	.	.	.	.	.	.	.	.	.	.
8AAJ	.	.	.	.	.	.	.	.	.	.	.	.
8AAL	.	.	4.c#	.	.	4.b-X	.	.	4.gg	.	.	viio7
8AA	.	.	.	.	.	.	.	.	.	.	.	.
8AAJ	.	.	.	.	.	.	.	.	.	.	.	.
=258	=258	=258	=258	=258	=258	=258	=258	=258	=258	=258	=258	=258
8AAL	.	.	4.d	.	.	4.a	.	.	4.ffn	.	.	i
8AA	.	.	.	.	.	.	.	.	.	.	.	.
8AAJ	.	.	.	.	.	.	.	.	.	.	.	.
8AAL	.	.	4.G	.	.	4.c#	.	.	4.ee	.	.	viio64
8AA	.	.	.	.	.	.	.	.	.	.	.	.
8AAJ	.	.	.	.	.	.	.	.	.	.	.	.
=259	=259	=259	=259	=259	=259	=259	=259	=259	=259	=259	=259	=259
8AAL	.	.	4.Fn)	.	.	4.d)	.	.	4.dd)	.	.	i6
8D	.	.	.	.	.	.	.	.	.	.	.	.
8FnJ	.	.	.	.	.	.	.	.	.	.	.	.
8AAL	.	sf	(4.G#X	.	sf	(4.d	.	sf	(4.b	.	sf	#viio/V
8AA	.	.	.	.	.	.	.	.	.	.	.	.
8AAJ	.	.	.	.	.	.	.	.	.	.	.	.
=260	=260	=260	=260	=260	=260	=260	=260	=260	=260	=260	=260	=260
4AA	.	.	8AL)	.	.	8c#L)	.	.	8a'L)	.	.	V]
.	.	.	(8c#	.	.	(8e	.	.	(8a	.	.	.
8r	.	.	8dJ	.	.	8fnJ	.	.	8g#XJ	.	.	.
4.r	.	.	8c#'L)	.	.	8e'L)	.	.	8a'L)	.	.	V6
.	.	.	8d'	.	.	8f'	.	.	8g#'	.	.	.
.	.	.	8c#'J	.	.	8e'J	.	.	8a'J	.	.	.
=261	=261	=261	=261	=261	=261	=261	=261	=261	=261	=261	=261	=261
2.r	.	.	8e'L	.	sf	8g'L	.	sf	8a#X'L	.	sf	#vo43
.	.	.	(8d#X	.	.	(8f#	.	.	(8b	.	.	.
.	.	.	8eJ	.	.	8gJ	.	.	8a#J	.	.	.
.	.	.	8d#'L)	.	.	8f#'L)	.	.	8b'L)	.	.	.
.	.	.	8e'	.	.	8g'	.	.	8a#'	.	.	.
.	.	.	8d#'J	.	.	8f#'J	.	.	8b'J	.	.	.
=262	=262	=262	=262	=262	=262	=262	=262	=262	=262	=262	=262	=262
2.r	.	.	8g'L	.	sf	8b-X'L	.	sf	8cc#'L	.	sf	viio43
.	.	.	(8f#	.	.	(8a	.	.	(8dd	.	.	.
.	.	.	8gJ	.	.	8b-J	.	.	8cc#J	.	.	.
.	.	.	8f#'L)	.	.	8a'L)	.	.	8dd'L)	.	.	.
.	.	.	8g'	.	.	8b-'	.	.	8cc#'	.	.	.
.	.	.	8f#'J	.	.	8a'J	.	.	8dd'J	.	.	.
=263	=263	=263	=263	=263	=263	=263	=263	=263	=263	=263	=263	=263
2.r	.	.	(8aL	.	.	(8ccnL	.	.	(8dd#XL	.	.	#viio43/II
.	.	.	8g#X)	.	.	8b)	.	.	8ee)	.	.	II6
.	.	.	8g#'J	.	.	8b'J	.	.	8ee'J	.	.	.
.	.	.	(8bL	.	.	(8ddL	.	.	(8ee#XL	.	.	#viio43/III
.	.	.	8a#X)	.	.	8cc#X)	.	.	8ff#)	.	.	III6
.	.	.	8a#'J	.	.	8cc#'J	.	.	8ff#'J	.	.	.
=264	=264	=264	=264	=264	=264	=264	=264	=264	=264	=264	=264	=264
!	!	!	!LO:TX:b:t=cresc.	!	!	!LO:TX:b:t=cresc.	!	!	!LO:TX:b:t=cresc.	!	!	!
2.r	.	.	(8ccnL	.	.	(8ee-XL	.	.	(8ff#L	.	.	#viio43/IV
.	.	.	8b)	.	.	8dd)	.	.	8gg)	.	.	IV6
.	.	.	8b'J	.	.	8dd'J	.	.	8gg'J	.	.	.
.	.	.	(8ddL	.	.	(8ffnL	.	.	(8gg#XL	.	.	#viio43/V
.	.	.	8cc#X)	.	.	8een)	.	.	8aa)	.	.	V6
.	.	.	8cc#'J	.	.	8ee'J	.	.	8aa'J	.	.	.
=265	=265	=265	=265	=265	=265	=265	=265	=265	=265	=265	=265	=265
(2.AA	.	sf	(8eeL	.	.	(8ggL	.	.	(8aa#XL	.	.	V7
.	.	.	8dd)	.	.	8ff#)	.	.	8bb)	.	.	.
.	.	.	8dd'J	.	.	8ff#'J	.	.	8bb'J	.	.	.
.	.	.	(8ff#L	.	.	(8aaL	.	.	(8bb#XL	.	.	.
.	.	.	8ee)	.	.	8gg)	.	.	8ccc#)	.	.	.
.	.	.	8ee'J	.	.	8gg'J	.	.	8ccc#'J	.	.	.
=266	=266	=266	=266	=266	=266	=266	=266	=266	=266	=266	=266	=266
4DD)	.	p	4dd	.	p	8ff#L	.	p	4ddd'	.	p	I\\
.	.	.	.	.	.	8ff#	.	.	.	.	.	.
8r	.	.	8r	.	.	8ff#J	.	.	8aa'	.	.	.
4r	.	.	(4.dd	.	.	(8ff#L	.	.	(4aa	.	.	I
.	.	.	.	.	.	8ee#X	.	.	.	.	.	.
8r	.	.	.	.	.	8ff#J)	.	.	8ddd)	.	.	.
=267	=267	=267	=267	=267	=267	=267	=267	=267	=267	=267	=267	=267
2.r	.	.	4ee)	.	.	8ggL	.	.	4ccc#'	.	.	viio6
.	.	.	.	.	.	8gg	.	.	.	.	.	.
.	.	.	8r	.	.	8ggJ	.	.	8aa'	.	.	.
.	.	.	(4.ee	.	.	8ggL	.	.	(4aa	.	.	V43
.	.	.	.	.	.	8ff#	.	.	.	.	.	.
.	.	.	.	.	.	8ggJ	.	.	8ccc#)	.	.	.
=268	=268	=268	=268	=268	=268	=268	=268	=268	=268	=268	=268	=268
2.r	.	.	8ddL)	.	.	8ff#L	.	.	8ddd'	.	.	I
.	.	.	8f#	.	.	8a	.	.	8ddd'	.	.	I6
.	.	.	8f#J	.	.	8aJ	.	.	8ddd'	.	.	.
.	.	.	8c#L	.	.	8aL	.	.	4ddd#X'	.	.	V6(#4)
.	.	.	8c#	.	.	8a	.	.	.	.	.	.
.	.	.	8c#J	.	.	8aJ	.	.	8eee'	.	.	V6
=269	=269	=269	=269	=269	=269	=269	=269	=269	=269	=269	=269	=269
2.r	.	.	8dL	.	.	8aL	.	.	4fffn'	.	.	i
.	.	.	8dd	.	.	8dd	.	.	.	.	.	.
.	.	.	8ccnJ	.	.	8ddJ	.	.	8fff#X'	.	.	V2/IV
.	.	.	8bL	.	.	8ddL	.	.	4ggg'	.	.	IV6
.	.	.	8b	.	.	8dd	.	.	.	.	.	.
.	.	.	8b-XJ	.	.	8ddJ	.	.	8ggg#X'	.	.	.Ger6
=270	=270	=270	=270	=270	=270	=270	=270	=270	=270	=270	=270	=270
4r	.	.	4a	.	.	8cc#L	.	.	4aaa'	.	.	V\\
.	.	.	.	.	.	8a	.	.	.	.	.	.
8r	.	.	8r	.	.	8aJ	.	.	8aaa'	.	.	.
(4.A	.	p	4r	.	.	8cc#L	.	.	4aa'	.	.	.
.	.	.	.	.	.	8a	.	.	.	.	.	.
.	.	.	8r	.	.	8aJ	.	.	8aa'	.	.	.
=271	=271	=271	=271	=271	=271	=271	=271	=271	=271	=271	=271	=271
4B)	.	.	2.r	.	.	8ddL	.	.	4gg#X'	.	.	#viio6/V
.	.	.	.	.	.	8a	.	.	.	.	.	.
8r	.	.	.	.	.	8aJ	.	.	8ggg'	.	.	.
(4.c#	.	.	.	.	.	8eeL	.	.	4gg#'	.	.	V6
.	.	.	.	.	.	8a	.	.	.	.	.	.
.	.	.	.	.	.	8aJ	.	.	8gg#'	.	.	.
=272	=272	=272	=272	=272	=272	=272	=272	=272	=272	=272	=272	=272
4d)	.	.	2.r	.	.	8ddL	.	.	4ff#	.	.	I
.	.	.	.	.	.	8a	.	.	.	.	.	.
8r	.	.	.	.	.	8aJ	.	.	8r	.	.	.
4G	.	.	.	.	.	8gL	.	.	(8aa#XL	.	.	IV
.	.	.	.	.	.	8b	.	.	8bb)	.	.	.
8r	.	.	.	.	.	8gJ	.	.	8ee'J	.	.	ii6
=273	=273	=273	=273	=273	=273	=273	=273	=273	=273	=273	=273	=273
4A	.	.	2.r	.	.	8f#L	.	.	(8gg#XL	.	.	V(64)
.	.	.	.	.	.	8a	.	.	8aa)	.	.	.
8r	.	.	.	.	.	8f#J	.	.	8dd'J	.	.	.
4AA	.	.	.	.	.	8eL	.	.	(8ff#L	.	.	V7
.	.	.	.	.	.	8g	.	.	8ggn)	.	.	.
8r	.	.	.	.	.	8eJ	.	.	8cc#'J	.	.	.
=274	=274	=274	=274	=274	=274	=274	=274	=274	=274	=274	=274	=274
4D'	.	.	8dL	.	.	8AL 8f#	.	.	4dd	.	.	I\\
.	.	.	8d	.	.	8A 8f#	.	.	.	.	.	.
8AA'	.	.	8dJ	.	.	8AJ 8f#	.	.	8r	.	.	.
(4AA	.	.	8dL	.	.	8AL 8f#	.	.	4r	.	.	I64
.	.	.	8d	.	.	8A 8f#	.	.	.	.	.	.
8D)	.	.	8dJ	.	.	8AJ 8f#	.	.	8r	.	.	.
=275	=275	=275	=275	=275	=275	=275	=275	=275	=275	=275	=275	=275
4C#'	.	.	8eL	.	.	8AL 8g	.	.	2.r	.	.	V7
.	.	.	8e	.	.	8A 8g	.	.	.	.	.	.
8AA'	.	.	8eJ	.	.	8AJ 8g	.	.	.	.	.	.
(4AA	.	.	8eL	.	.	8AL 8g	.	.	.	.	.	.
.	.	.	8e	.	.	8A 8g	.	.	.	.	.	.
8C#)	.	.	8eJ	.	.	8AJ 8g	.	.	.	.	.	.
=276	=276	=276	=276	=276	=276	=276	=276	=276	=276	=276	=276	=276
4D	.	.	8dL	.	.	8AL 8f#	.	.	8r	.	.	I
.	.	.	8f#	.	.	8a	.	.	8r	.	.	.
8r	.	.	8f#J	.	.	8aJ	.	.	8aa	.	.	.
(4.d	.	.	8f#L	.	.	8aL	.	.	(4aa	.	.	.
.	.	.	8f#	.	.	8a	.	.	.	.	.	.
.	.	.	8f#J	.	.	8aJ	.	.	8ddd)	.	.	.
=277	=277	=277	=277	=277	=277	=277	=277	=277	=277	=277	=277	=277
4e)	.	.	8gL	.	.	8aL	.	.	4ccc#'	.	.	V43
.	.	.	8g	.	.	8a	.	.	.	.	.	.
8r	.	.	8gJ	.	.	8aJ	.	.	8aa'	.	.	.
(4.e	.	.	8gL	.	.	8aL	.	.	(4aa	.	.	.
.	.	.	8g	.	.	8a	.	.	.	.	.	.
.	.	.	8gJ	.	.	8aJ	.	.	8ccc#)	.	.	.
=278	=278	=278	=278	=278	=278	=278	=278	=278	=278	=278	=278	=278
4d)	.	.	8f#L	.	.	8aL	.	.	4ddd	.	.	I
.	.	.	8d	.	.	8f#	.	.	.	.	.	.
8d'	.	.	8dJ	.	.	8f#J	.	.	8r	.	.	.
4D'	.	.	8dL	.	.	8f#L	.	.	4r	.	.	.
.	.	.	8d	.	.	8f#	.	.	.	.	.	.
8D'	.	.	8dJ	.	.	8f#J	.	.	8r	.	.	.
=279	=279	=279	=279	=279	=279	=279	=279	=279	=279	=279	=279	=279
4C#	.	.	8eL	.	.	8gL	.	.	2.r	.	.	viio64/IV
.	.	.	8e	.	.	8g	.	.	.	.	.	.
8cn'	.	.	8eJ	.	.	8gJ	.	.	.	.	.	.
4Cn'	.	.	8f#L	.	.	8aL	.	.	.	.	.	.
.	.	.	8f#	.	.	8a	.	.	.	.	.	.
8C'	.	.	8f#J	.	.	8aJ	.	.	.	.	.	.
=280	=280	=280	=280	=280	=280	=280	=280	=280	=280	=280	=280	=280
4BB	.	.	4g	.	.	8bL	.	.	8r	.	.	IV6
.	.	.	.	.	.	8d	.	.	8r	.	.	.
8r	.	.	8r	.	.	8dJ	.	.	8ddd'	.	.	.
4D	.	.	4r	.	.	8f#L	.	.	4dd'	.	.	I
.	.	.	.	.	.	8d	.	.	.	.	.	.
8r	.	.	8r	.	.	8dJ	.	.	8dd'	.	.	.
=281	=281	=281	=281	=281	=281	=281	=281	=281	=281	=281	=281	=281
4E	.	.	2.r	.	.	8gL	.	.	4cc#'	.	.	viio6
.	.	.	.	.	.	8d	.	.	.	.	.	.
8r	.	.	.	.	.	8dJ	.	.	8cccn'	.	.	.
4F#	.	.	.	.	.	8aL	.	.	4ccn'	.	.	V65/IV
.	.	.	.	.	.	8d	.	.	.	.	.	.
8r	.	.	.	.	.	8dJ	.	.	8cc	.	.	.
=282	=282	=282	=282	=282	=282	=282	=282	=282	=282	=282	=282	=282
4G	.	.	8r	.	.	8bL	.	.	4b	.	.	IV
.	.	.	8d'L	.	.	8dd	.	.	.	.	.	.
8r	.	.	8d'J	.	.	8ddJ	.	.	8bb	.	.	.
!LO:TX:b:t=cresc.	!	!	!LO:TX:b:t=cresc.	!	!	!LO:TX:b:t=cresc.	!	!	!LO:TX:b:t=cresc.	!	!	!
4D	.	.	8f#'L	.	.	8ff#L	.	.	4dd	.	.	I
.	.	.	8d'	.	.	8dd	.	.	.	.	.	.
8r	.	.	8d'J	.	.	8ddJ	.	.	8ddd	.	.	.
=283	=283	=283	=283	=283	=283	=283	=283	=283	=283	=283	=283	=283
4E	.	.	8gL	.	.	8ggL	.	.	4cc#	.	.	viio6
.	.	.	8d	.	.	8dd	.	.	.	.	.	.
8r	.	.	8dJ	.	.	8ddJ	.	.	8ccc#	.	.	.
4F#	.	.	8aL	.	.	8aaL	.	.	4ccn	.	.	V65/IV
.	.	.	8d	.	.	8dd	.	.	.	.	.	.
8r	.	.	8dJ	.	.	8ddJ	.	.	8cccn	.	.	.
=284	=284	=284	=284	=284	=284	=284	=284	=284	=284	=284	=284	=284
4G	.	.	8gL	.	.	8ggL	.	.	4b	.	.	IV
.	.	.	8d	.	.	8dd	.	.	.	.	.	.
8r	.	.	8dJ	.	.	8ddJ	.	.	8bb	.	.	.
4G	.	.	8gL	.	.	8ggL	.	.	4b-X	.	.	iv
.	.	.	8d	.	.	8dd	.	.	.	.	.	.
8r	.	.	8dJ	.	.	8ddJ	.	.	8bb-X	.	.	.
=285	=285	=285	=285	=285	=285	=285	=285	=285	=285	=285	=285	=285
4A	.	.	8f#L	.	.	8ff#L	.	.	4a	.	.	I64
.	.	.	8d	.	.	8dd	.	.	.	.	.	.
8r	.	.	8dJ	.	.	8ddJ	.	.	8aa	.	.	.
4B-X	.	.	8fnL	.	.	8ffnL	.	.	4g#X	.	.	.Ger6
.	.	.	8d	.	.	8dd	.	.	.	.	.	.
8r	.	.	8dJ	.	.	8ddJ	.	.	8gg#X	.	.	.
=286	=286	=286	=286	=286	=286	=286	=286	=286	=286	=286	=286	=286
4A	.	f	4e	.	f	4cc#	.	f	4g	.	f	V7
8r	.	.	8r	.	.	8r	.	.	(16cc#LL	.	.	.
.	.	.	.	.	.	.	.	.	16ddJJ	.	.	.
4r	.	.	4r	.	.	4r	.	.	8ee'L)	.	.	.
.	.	.	.	.	.	.	.	.	8cc#'	.	.	.
8r	.	.	8r	.	.	8r	.	.	8g'J	.	.	.
=287	=287	=287	=287	=287	=287	=287	=287	=287	=287	=287	=287	=287
4A	.	f	4A	.	f	4d	.	f	4f#	.	f	V(64)
8r	.	.	8r	.	.	8r	.	.	(16ff#LL	.	.	.
.	.	.	.	.	.	.	.	.	16ggJJ	.	.	.
4r	.	.	4r	.	.	4r	.	.	8aa'L)	.	.	.
.	.	.	.	.	.	.	.	.	8ff#'	.	.	.
8r	.	.	8r	.	.	8r	.	.	8dd'J	.	.	.
=288	=288	=288	=288	=288	=288	=288	=288	=288	=288	=288	=288	=288
4A	.	f	4c#	.	f	4e	.	f	4g	.	f	V7
8r	.	.	8r	.	.	8r	.	.	(16eeLL	.	.	.
.	.	.	.	.	.	.	.	.	16ff#JJ	.	.	.
4r	.	.	4r	.	.	4r	.	.	8gg'L)	.	.	.
.	.	.	.	.	.	.	.	.	8ee'	.	.	.
8r	.	.	8r	.	.	8r	.	.	8cc#'J	.	.	.
=289	=289	=289	=289	=289	=289	=289	=289	=289	=289	=289	=289	=289
4r	.	.	4r	.	.	4r	.	.	8gL	.	.	.
.	.	.	.	.	.	.	.	.	8e	.	.	.
8r	.	.	8r	.	.	8r	.	.	8c#J	.	.	.
!	!	!	!	!	!	!	!	!LO:DY:a	!	!	!	!
8AAL	.	ff	8AL	.	ff	8AL	.	ff ff	8AL	.	.	.
8AA	.	.	8A	.	.	8A	.	.	8A	.	.	.
8AAJ	.	.	8AJ	.	.	8AJ	.	.	8AJ	.	.	.
=290	=290	=290	=290	=290	=290	=290	=290	=290	=290	=290	=290	=290
!LO:TX:a:t=dol.	!	!	!	!	!	!LO:TX:a:t=dol.	!	!	!	!	!	!
(2.BB-X	.	fp	(4B-X	.	fp	4B-X	.	.	4B-X	.	.	.bVI.I
.	.	.	8Fn	.	.	8r	.	.	8r	.	.	.
.	.	.	4B-	.	.	4.r	.	.	4r	.	.	.
.	.	.	8F)	.	.	.	.	.	(8dd	.	p	.
=291	=291	=291	=291	=291	=291	=291	=291	=291	=291	=291	=291	=291
!	!	!	!	!	!	!	!	!	!LO:TX:b:t=dol.	!	!	!
.	.	.	.	.	.	.	.	.	8qffn/	.	.	V65
2.AA)	.	.	(4cn	.	.	2.r	.	.	4ee-X	.	.	.
.	.	.	8Fn	.	.	.	.	.	8dd	.	.	.
.	.	.	4c	.	.	.	.	.	4ee-	.	.	.
.	.	.	8F)	.	.	.	.	.	8ff)	.	.	.
=292	=292	=292	=292	=292	=292	=292	=292	=292	=292	=292	=292	=292
(2.BB-X	.	ff	(4B-X	.	.	4r	.	.	4dd	.	.	I
.	.	.	8Fn	.	.	8r	.	.	8r	.	.	.
.	.	.	4B-	.	.	4r	.	.	4r	.	.	.
.	.	.	8F)	.	.	(8dd	.	p	(8ddd	.	.	.
=293	=293	=293	=293	=293	=293	=293	=293	=293	=293	=293	=293	=293
.	.	.	.	.	.	8qffn/	.	.	8qfffn/	.	.	V65
2.AA)	.	.	(4cn	.	.	4ee-X	.	.	4eee-X	.	.	.
.	.	.	8Fn	.	.	8dd	.	.	8ddd	.	.	.
.	.	.	4c	.	.	4ee-	.	.	4eee-	.	.	.
.	.	.	8F)	.	.	8ff)	.	.	8fff)	.	.	.
=294	=294	=294	=294	=294	=294	=294	=294	=294	=294	=294	=294	=294
(2.BB-X	.	.	(4B-X	.	.	4dd	.	.	4ddd	.	.	I
.	.	.	8Fn	.	.	8r	.	.	8r	.	.	.
.	.	.	4B-	.	.	4r	.	.	4r	.	.	.
.	.	.	8F)	.	.	(8dd	.	.	(8ddd	.	.	.
=295	=295	=295	=295	=295	=295	=295	=295	=295	=295	=295	=295	=295
.	.	.	.	.	.	8qffn/	.	.	8qfffn/	.	.	V65
2.AA)	.	.	(4cn	.	.	4ee-X	.	.	4eee-X	.	.	.
.	.	.	8Fn	.	.	8dd	.	.	8ddd	.	.	.
.	.	.	4c	.	.	4ee-	.	.	4eee-	.	.	.
.	.	.	8F)	.	.	8ff)	.	.	8fff)	.	.	.
=296	=296	=296	=296	=296	=296	=296	=296	=296	=296	=296	=296	=296
4BB-X	.	.	4B-X	.	.	4dd	.	.	4ddd	.	.	I
8r	.	.	8r	.	.	8r	.	.	8fffn	.	pp	.
4r	.	.	4r	.	.	4r	.	.	4bbb-X	.	.	V7/IV
8r	.	.	8r	.	.	8r	.	.	8r	.	.	.
=297	=297	=297	=297	=297	=297	=297	=297	=297	=297	=297	=297	=297
!	!	!	!	!	!	!	!	!LO:DY:a	!	!	!	!
(2.GG#X	.	ff	(2.G#X	.	ff	(2.G#X	.	ff	(2.G#X	.	.	I.#viio/V
=298	=298	=298	=298	=298	=298	=298	=298	=298	=298	=298	=298	=298
8AAL)	.	.	8AL)	.	.	8AL)	.	.	8AL)	.	.	V(64)
8A	.	.	8d	.	.	8f#	.	.	8d	.	.	.
8AJ	.	.	8dJ	.	.	8f#J	.	.	8f#J	.	.	.
8AL	.	.	8dL	.	.	8f#L	.	.	8aL	.	.	.
8A	.	.	8d	.	.	8f#	.	.	8dd	.	.	.
8AJ	.	.	8dJ	.	.	8f#J	.	.	8ff#J	.	.	.
=299	=299	=299	=299	=299	=299	=299	=299	=299	=299	=299	=299	=299
8AL	.	.	8dL	.	.	8f#L	.	.	4aa	.	.	.
8A	.	.	8d	.	.	8f#	.	.	.	.	.	.
8AJ	.	.	8dJ	.	.	8f#J	.	.	8r	.	.	.
8AL	.	.	8eL	.	.	8gL	.	.	4.cc#t	.	.	V7
8A	.	.	8e	.	.	8g	.	.	.	.	.	.
8AJ	.	.	8eJ	.	.	8gJ	.	.	.	.	.	.
.	.	.	.	.	.	.	.	.	(16qqb/LL	.	.	.
.	.	.	.	.	.	.	.	.	16qqcc#/JJ)	.	.	.
=300	=300	=300	=300	=300	=300	=300	=300	=300	=300	=300	=300	=300
4D	.	.	4d'	.	.	4f#'	.	.	4dd	.	.	I\\
8r	.	.	8fn'	.	pp	8ffn'	.	pp	8r	.	.	.
4.r	.	.	4b-X'	.	.	4bb-X'	.	.	4r	.	.	.bVI.I6
.	.	.	8r	.	.	8r	.	.	8r	.	.	.
=301	=301	=301	=301	=301	=301	=301	=301	=301	=301	=301	=301	=301
!	!	!	!	!	!	!	!	!LO:DY:a	!	!	!LO:DY:a	!
(2.AA-X	.	ff	(2.A-X	.	ff	(2.A-X	.	ff	(2.A-X	.	ff	V2/IV
=302	=302	=302	=302	=302	=302	=302	=302	=302	=302	=302	=302	=302
4GG)	.	.	4G)	.	.	4G)	.	.	8G'L)	.	.	IV6
.	.	.	.	.	.	.	.	.	8B-X'	.	.	.
8r	.	.	8r	.	.	8r	.	.	8e-X'J	.	.	.
4r	.	.	4r	.	.	4G 4e-X 4b-X	.	.	8g'L	.	.	.
.	.	.	.	.	.	.	.	.	8b-X'	.	.	.
8r	.	.	8r	.	.	8r	.	.	8ee-X'J	.	.	.
=303	=303	=303	=303	=303	=303	=303	=303	=303	=303	=303	=303	=303
4GG#X	.	.	4G#X	.	.	4r	.	.	8BL	.	.	I.#viio7/V
.	.	.	.	.	.	.	.	.	8d	.	.	.
8r	.	.	8r	.	.	8r	.	.	8fnJ	.	.	.
4r	.	.	4r	.	.	4G#X 4fn 4dd	.	.	8bL	.	.	.
.	.	.	.	.	.	.	.	.	8dd	.	.	.
8r	.	.	8r	.	.	8r	.	.	8ffnJ	.	.	.
=304	=304	=304	=304	=304	=304	=304	=304	=304	=304	=304	=304	=304
4AA	.	.	4A	.	.	4r	.	.	8dL	.	.	V(64)
.	.	.	.	.	.	.	.	.	8f#	.	.	.
8r	.	.	8r	.	.	8r	.	.	8aJ	.	.	.
4r	.	.	4r	.	.	4A 4f# 4dd	.	.	8ddL	.	.	.
.	.	.	.	.	.	.	.	.	8ff#	.	.	.
8r	.	.	8r	.	.	8r	.	.	8aaJ	.	.	.
=305	=305	=305	=305	=305	=305	=305	=305	=305	=305	=305	=305	=305
4AA	.	.	4A	.	.	4r	.	.	8ggL	.	.	V7
.	.	.	.	.	.	.	.	.	8ee	.	.	.
8r	.	.	8r	.	.	8r	.	.	8cc#J	.	.	.
4r	.	.	4r	.	.	4A 4e 4cc#	.	.	8gL	.	.	.
.	.	.	.	.	.	.	.	.	8e	.	.	.
8r	.	.	8r	.	.	8r	.	.	8c#J	.	.	.
=306	=306	=306	=306	=306	=306	=306	=306	=306	=306	=306	=306	=306
8DD'L	.	.	4D	.	.	4r	.	.	4d	.	.	I\\
8FF#'	.	.	.	.	.	.	.	.	.	.	.	.
8AA'J	.	.	8r	.	.	8r	.	.	8r	.	.	.
(4BB	.	sf	8r	.	.	8r	.	.	8r	.	.	.
.	.	.	8eL	.	.	8gL	.	.	8cc#L	.	.	V7(2)
8AA)	.	.	8eJ	.	.	8gJ	.	.	8cc#J	.	.	V7
=307	=307	=307	=307	=307	=307	=307	=307	=307	=307	=307	=307	=307
8DD'L	.	.	4d	.	.	4f#	.	.	4dd	.	.	I
8FF#'	.	.	.	.	.	.	.	.	.	.	.	.
8AA'J	.	.	8r	.	.	8r	.	.	8r	.	.	.
(4BB	.	sf	8r	.	.	8r	.	.	8r	.	.	.
.	.	.	8eL	.	.	8cc#L	.	.	8ggL	.	.	V7(2)
8AA)	.	.	8eJ	.	.	8cc#J	.	.	8ggJ	.	.	V7
=308	=308	=308	=308	=308	=308	=308	=308	=308	=308	=308	=308	=308
8DD'L	.	.	4d	.	.	4dd	.	.	4ff#	.	.	I
8FF#'	.	.	.	.	.	.	.	.	.	.	.	.
8AA'J	.	.	8r	.	.	8r	.	.	8r	.	.	.
(4BB	.	sf	8r	.	.	8r	.	.	8r	.	.	.
.	.	.	8eeL	.	.	8ggL	.	.	8ccc#L	.	.	V7(2)
8AA)	.	.	8eeJ	.	.	8ggJ	.	.	8ccc#J	.	.	V7
=309	=309	=309	=309	=309	=309	=309	=309	=309	=309	=309	=309	=309
(4BB	.	sf	4dd	.	.	4ff#	.	.	4ddd	.	.	I64
8AA)	.	.	8r	.	.	8r	.	.	8r	.	.	.
(4BB	.	sf	8r	.	.	8r	.	.	8r	.	.	.
.	.	.	8eL	.	.	8gL	.	.	8cc#'L	.	.	V7(2)
8AA)	.	.	8eJ	.	.	8gJ	.	.	8cc#J	.	.	V7
=310	=310	=310	=310	=310	=310	=310	=310	=310	=310	=310	=310	=310
4DD	.	.	4d	.	.	4f#	.	.	8dd'L	.	.	I
.	.	.	.	.	.	.	.	.	8ff#'	.	.	.
8r	.	.	8r	.	.	8r	.	.	8aa'J	.	.	.
8r	.	.	8r	.	.	8r	.	.	(4bb	.	sf	V7(2)
8AL	.	.	8gL	.	.	8cc#L	.	.	.	.	.	.
8AJ	.	.	8gJ	.	.	8cc#J	.	.	8aa)	.	.	V7
=311	=311	=311	=311	=311	=311	=311	=311	=311	=311	=311	=311	=311
4d	.	.	4f#	.	.	4dd	.	.	8dd'L	.	.	I
.	.	.	.	.	.	.	.	.	8ff#'	.	.	.
8r	.	.	8r	.	.	8r	.	.	8aa'J	.	.	.
8r	.	.	8r	.	.	8r	.	.	(4bb	.	sf	V7(2)
8AAL	.	.	8gL	.	.	8cc#L	.	.	.	.	.	.
8AAJ	.	.	8gJ	.	.	8cc#J	.	.	8aa)	.	.	V7
=312	=312	=312	=312	=312	=312	=312	=312	=312	=312	=312	=312	=312
8DL	.	p	4f#	.	p	4dd	.	p	8ddL	.	p	I[I6
8d	.	.	.	.	.	.	.	.	8ff#	.	.	.
8dJ	.	.	8r	.	.	8r	.	.	8aaJ	.	.	.
8dL	.	.	(4.ccn	.	.	(4.ee	.	.	(4bb	.	.	v6(2)
8d	.	.	.	.	.	.	.	.	.	.	.	.
8dJ	.	.	.	.	.	.	.	.	8aa)	.	.	v6
=313	=313	=313	=313	=313	=313	=313	=313	=313	=313	=313	=313	=313
8dL	.	.	4.b	.	.	4.dd	.	.	(4aa	.	.	IV6(2)
8d	.	.	.	.	.	.	.	.	.	.	.	.
8dJ	.	.	.	.	.	.	.	.	8gg)	.	.	IV6
8dL	.	.	4.a	.	.	4.ccn	.	.	(4gg	.	.	iiio6(2)
8d	.	.	.	.	.	.	.	.	.	.	.	.
8dJ	.	.	.	.	.	.	.	.	8ff#)	.	.	iiio6
=314	=314	=314	=314	=314	=314	=314	=314	=314	=314	=314	=314	=314
!LO:TX:b:t=cresc.	!	!	!LO:TX:b:t=cresc.	!	!	!LO:TX:b:t=cresc.	!	!	!LO:TX:b:t=cresc.	!	!	!
8dL	.	.	4.g	.	.	4.b	.	.	(4ff#	.	.	ii6(2)
8D	.	.	.	.	.	.	.	.	.	.	.	.
8DJ	.	.	.	.	.	.	.	.	8ee)	.	.	ii6
8DL	.	.	4.f#	.	.	4.a	.	.	(4ee	.	.	I6(2)
8D	.	.	.	.	.	.	.	.	.	.	.	.
8DJ	.	.	.	.	.	.	.	.	8dd)	.	.	I6
=315	=315	=315	=315	=315	=315	=315	=315	=315	=315	=315	=315	=315
8DL	.	.	4.e	.	.	4.g	.	.	(4dd	.	.	.bVII6(2)
8D	.	.	.	.	.	.	.	.	.	.	.	.
8DJ	.	.	.	.	.	.	.	.	8ccn)	.	.	.bVII6
8DL	.	.	4.d	.	.	4.f#	.	.	(4cc	.	.	vi6(2)
8D	.	.	.	.	.	.	.	.	.	.	.	.
8DJ	.	.	.	.	.	.	.	.	8b)	.	.	vi6
=316	=316	=316	=316	=316	=316	=316	=316	=316	=316	=316	=316	=316
8DL	.	.	4.cn	.	.	4.e	.	.	(4b	.	.	v6(2)
8D	.	.	.	.	.	.	.	.	.	.	.	.
8DJ	.	.	.	.	.	.	.	.	8a)	.	.	v6
8DL	.	.	4.B	.	.	4.d	.	.	(4a	.	.	#ivo6(2)
8D	.	.	.	.	.	.	.	.	.	.	.	.
8DJ	.	.	.	.	.	.	.	.	8g#X)	.	.	#ivo6
=317	=317	=317	=317	=317	=317	=317	=317	=317	=317	=317	=317	=317
8DL	.	.	4.A#X	.	.	4.c#	.	.	(4g#X	.	.	#vo7(#7)
8D	.	.	.	.	.	.	.	.	.	.	.	.
8DJ	.	.	.	.	.	.	.	.	8gn)	.	.	#vo7
8DL	.	.	4.An)	.	.	4.cn)	.	.	(4g	.	.	iiio6(2)
8D	.	.	.	.	.	.	.	.	.	.	.	.
8DJ	.	.	.	.	.	.	.	.	8f#)	.	.	iiio6
=318	=318	=318	=318	=318	=318	=318	=318	=318	=318	=318	=318	=318
[2.D	.	f	[2.A	.	f	[2.cn	.	f	8f#'L	.	.	iiio6]
.	.	.	.	.	.	.	.	.	(8a	.	.	.
.	.	.	.	.	.	.	.	.	8g#XJ	.	.	.
.	.	.	.	.	.	.	.	.	8a'L)	.	.	.
.	.	.	.	.	.	.	.	.	(8ccn	.	.	.
.	.	.	.	.	.	.	.	.	8bJ	.	.	.
=319	=319	=319	=319	=319	=319	=319	=319	=319	=319	=319	=319	=319
2.D]	.	.	2.A]	.	.	2.c]	.	.	8ccn'L)	.	.	.
.	.	.	.	.	.	.	.	.	(8a	.	.	.
.	.	.	.	.	.	.	.	.	8g#XJ	.	.	.
.	.	.	.	.	.	.	.	.	8a'L)	.	.	.
.	.	.	.	.	.	.	.	.	(8f#	.	.	.
.	.	.	.	.	.	.	.	.	8e#XJ	.	.	.
=320	=320	=320	=320	=320	=320	=320	=320	=320	=320	=320	=320	=320
[2.C#	.	f	[2.A	.	f	[2.c#	.	f	8f#'L)	.	f	iii64
.	.	.	.	.	.	.	.	.	(8a	.	.	.
.	.	.	.	.	.	.	.	.	8g#XJ	.	.	.
.	.	.	.	.	.	.	.	.	8a'L)	.	.	.
.	.	.	.	.	.	.	.	.	(8cc#	.	.	.
.	.	.	.	.	.	.	.	.	8b#XJ	.	.	.
=321	=321	=321	=321	=321	=321	=321	=321	=321	=321	=321	=321	=321
2.C#]	.	.	2.A]	.	.	2.c#]	.	.	8cc#'L)	.	.	.
.	.	.	.	.	.	.	.	.	(8ff#	.	.	.
.	.	.	.	.	.	.	.	.	8ee#XJ	.	.	.
.	.	.	.	.	.	.	.	.	8ff#'L)	.	.	.
.	.	.	.	.	.	.	.	.	(8aa	.	.	.
.	.	.	.	.	.	.	.	.	8gg#XJ	.	.	.
=322	=322	=322	=322	=322	=322	=322	=322	=322	=322	=322	=322	=322
2.Cn	.	f	2.A	.	f	2.d#X	.	f	8aa'L)	.	f	#viio2/ii
.	.	.	.	.	.	.	.	.	(8ff#	.	.	.
.	.	.	.	.	.	.	.	.	8ee#XJ	.	.	.
.	.	.	.	.	.	.	.	.	8ff#'L)	.	.	.
.	.	.	.	.	.	.	.	.	(8aa	.	.	.
.	.	.	.	.	.	.	.	.	8gg#XJ	.	.	.
=323	=323	=323	=323	=323	=323	=323	=323	=323	=323	=323	=323	=323
2.BB	.	f	2.A	.	f	2.d#X	.	f	8aa'L)	.	f	V7/ii
.	.	.	.	.	.	.	.	.	(8ff#	.	.	.
.	.	.	.	.	.	.	.	.	8ee#XJ	.	.	.
.	.	.	.	.	.	.	.	.	8ff#'L)	.	.	.
.	.	.	.	.	.	.	.	.	(8aa	.	.	.
.	.	.	.	.	.	.	.	.	8dd#XJ	.	.	.
=324	=324	=324	=324	=324	=324	=324	=324	=324	=324	=324	=324	=324
2.BB	.	f	2.G	.	f	2.e	.	f	8ee'L)	.	f	ii64
.	.	.	.	.	.	.	.	.	(8gg	.	.	.
.	.	.	.	.	.	.	.	.	8ff#J	.	.	.
.	.	.	.	.	.	.	.	.	8gg'L)	.	.	.
.	.	.	.	.	.	.	.	.	(8ccc#	.	.	.
.	.	.	.	.	.	.	.	.	8bb#XJ	.	.	.
=325	=325	=325	=325	=325	=325	=325	=325	=325	=325	=325	=325	=325
2.BB-X	.	f	2.G	.	f	2.c# 2.e	.	f	8ccc#'L)	.	f	viio2
.	.	.	.	.	.	.	.	.	(8eee	.	.	.
.	.	.	.	.	.	.	.	.	8ddd#XJ	.	.	.
.	.	.	.	.	.	.	.	.	8eee'L)	.	.	.
.	.	.	.	.	.	.	.	.	(8ggg	.	.	.
.	.	.	.	.	.	.	.	.	8fff#J	.	.	.
=326	=326	=326	=326	=326	=326	=326	=326	=326	=326	=326	=326	=326
8AA'L	.	p	2.E	.	p	2.c#	.	p	2.ggg)	.	p	V7
(8AA	.	.	.	.	.	.	.	.	.	.	.	.
8GG#XJ	.	.	.	.	.	.	.	.	.	.	.	.
8AA'L)	.	.	.	.	.	.	.	.	.	.	.	.
8BB'	.	.	.	.	.	.	.	.	.	.	.	.
8C#'J	.	.	.	.	.	.	.	.	.	.	.	.
=327	=327	=327	=327	=327	=327	=327	=327	=327	=327	=327	=327	=327
8DL	.	.	2.e	.	.	[2.cc#	.	.	2.gg	.	.	.
8E	.	.	.	.	.	.	.	.	.	.	.	.
8F#J	.	.	.	.	.	.	.	.	.	.	.	.
8GL	.	.	.	.	.	.	.	.	.	.	.	.
8G#X	.	.	.	.	.	.	.	.	.	.	.	.
8AJ	.	.	.	.	.	.	.	.	.	.	.	.
=328	=328	=328	=328	=328	=328	=328	=328	=328	=328	=328	=328	=328
[2.AA	.	.	[2.d	.	.	4.cc#]	.	.	8ff#'L	.	.	V(4)
.	.	.	.	.	.	.	.	.	(8fff#	.	.	.
.	.	.	.	.	.	.	.	.	8eee#XJ	.	.	.
.	.	.	.	.	.	4.a#X	.	.	8fff#'L)	.	.	.
.	.	.	.	.	.	.	.	.	8eee#'	.	.	.
.	.	.	.	.	.	.	.	.	8ddd'J	.	.	.
=329	=329	=329	=329	=329	=329	=329	=329	=329	=329	=329	=329	=329
8AAL]	.	.	4.d]	.	.	[2.b	.	.	8ccc#'L	.	.	.
(8AA	.	.	.	.	.	.	.	.	8bb'	.	.	.
8GG#XJ	.	.	.	.	.	.	.	.	8aa'J	.	.	.
8AA'L)	.	.	4.D	.	.	.	.	.	8gg'L	.	.	.
8BB'	.	.	.	.	.	.	.	.	8ff#'	.	.	.
8C#'J	.	.	.	.	.	.	.	.	8fff#'J	.	.	.
=330	=330	=330	=330	=330	=330	=330	=330	=330	=330	=330	=330	=330
8D'L	.	.	2.C#	.	.	2.b]	.	.	2.eee	.	.	V9
8E'	.	.	.	.	.	.	.	.	.	.	.	.
8F#'J	.	.	.	.	.	.	.	.	.	.	.	.
8G'L	.	.	.	.	.	.	.	.	.	.	.	.
8G#X'	.	.	.	.	.	.	.	.	.	.	.	.
8A'J	.	.	.	.	.	.	.	.	.	.	.	.
=331	=331	=331	=331	=331	=331	=331	=331	=331	=331	=331	=331	=331
[2.AA	.	.	2.c#	.	.	[2.a	.	.	2.ee	.	.	V[V6
=332	=332	=332	=332	=332	=332	=332	=332	=332	=332	=332	=332	=332
2.AA_	.	.	[2.B	.	.	4.a]	.	.	8dd'L	.	.	vi7
.	.	.	.	.	.	.	.	.	(8ddd	.	.	.
.	.	.	.	.	.	.	.	.	8ccc#J	.	.	.
.	.	.	.	.	.	4.f#	.	.	8ddd'L)	.	.	.
.	.	.	.	.	.	.	.	.	8ccc#'	.	.	.
.	.	.	.	.	.	.	.	.	8bb'J	.	.	.
=333	=333	=333	=333	=333	=333	=333	=333	=333	=333	=333	=333	=333
2.AA_	.	.	4.B]	.	.	[2.g	.	.	8aa'L	.	.	IV6
.	.	.	.	.	.	.	.	.	8gg'	.	.	.
.	.	.	.	.	.	.	.	.	8ff#'J	.	.	.
.	.	.	(4.B-X	.	.	.	.	.	8ee'L	.	.	iv6
.	.	.	.	.	.	.	.	.	8dd'	.	.	.
.	.	.	.	.	.	.	.	.	8ddd'J	.	.	.
=334	=334	=334	=334	=334	=334	=334	=334	=334	=334	=334	=334	=334
!LO:TX:b:t=cresc.	!	!	!LO:TX:b:t=cresc.	!	!	!LO:TX:b:t=cresc.	!	!	!LO:TX:b:t=cresc.	!	!	!
2.AA_	.	.	4.A)	.	.	4.g]	.	.	8cc#'L	.	.	V7
.	.	.	.	.	.	.	.	.	8ccc#'	.	.	.
.	.	.	.	.	.	.	.	.	8bb'J	.	.	.
.	.	.	(4.C#	.	.	4.e#X	.	.	8aa'L	.	.	V+6
.	.	.	.	.	.	.	.	.	8gg'	.	.	.
.	.	.	.	.	.	.	.	.	8ff#'J	.	.	.
=335	=335	=335	=335	=335	=335	=335	=335	=335	=335	=335	=335	=335
2.AA_	.	.	4.D	.	.	4.f#	.	.	8eeL	.	.	I
.	.	.	.	.	.	.	.	.	8dd	.	.	.
.	.	.	.	.	.	.	.	.	8cc#J	.	.	.
.	.	.	4.D#X	.	.	(4.f#	.	.	8bL	.	.	#io
.	.	.	.	.	.	.	.	.	8bb	.	.	.
.	.	.	.	.	.	.	.	.	8aaJ	.	.	.
=336	=336	=336	=336	=336	=336	=336	=336	=336	=336	=336	=336	=336
2.AA_	.	.	4.E	.	.	4.g	.	.	8ggL	.	.	ii
.	.	.	.	.	.	.	.	.	8ff#	.	.	.
.	.	.	.	.	.	.	.	.	8eeJ	.	.	.
.	.	.	4.E#X	.	.	4.g#X	.	.	8ddL	.	.	#iio7
.	.	.	.	.	.	.	.	.	8cc#	.	.	.
.	.	.	.	.	.	.	.	.	8bJ	.	.	.
=337	=337	=337	=337	=337	=337	=337	=337	=337	=337	=337	=337	=337
2.AA_	.	.	4.F#)	.	.	4.a)	.	.	8aL	.	.	iii
.	.	.	.	.	.	.	.	.	8aa	.	.	.
.	.	.	.	.	.	.	.	.	8ggJ	.	.	.
.	.	.	8F#L	.	.	8a#XL	.	.	8ff#L	.	.	III
.	.	.	8F#	.	.	8a#	.	.	8ee	.	.	.
.	.	.	8F#J	.	.	8a#J	.	.	8ddJ	.	.	.
=338	=338	=338	=338	=338	=338	=338	=338	=338	=338	=338	=338	=338
2.AA_	.	.	8GL	.	.	8bL	.	.	8cc#L	.	.	IV
.	.	.	8G	.	.	8b	.	.	8b	.	.	.
.	.	.	8GJ	.	.	8bJ	.	.	8aJ	.	.	.
.	.	.	8EL	.	.	8cc#L	.	.	8gL	.	.	viio6
.	.	.	8E	.	.	8cc#	.	.	8gg	.	.	.
.	.	.	8EJ	.	.	8cc#J	.	.	8ff#J	.	.	.
=339	=339	=339	=339	=339	=339	=339	=339	=339	=339	=339	=339	=339
2.AA]	.	.	8F#L	.	.	8ddL	.	.	8ee'L	.	.	I6]
.	.	.	(8f#	.	.	8aa	.	.	(8dd	.	.	.
.	.	.	8eJ	.	.	8aaJ	.	.	8cc#J	.	.	.
.	.	.	8f#'L)	.	.	8aaL	.	.	8dd'L)	.	.	.
.	.	.	8F#'	.	.	8d	.	.	8a'	.	.	.
.	.	.	8D'J	.	.	8dJ	.	.	8f#'J	.	.	.
=340	=340	=340	=340	=340	=340	=340	=340	=340	=340	=340	=340	=340
8AA'L	.	f	2.GT	.	f	2.c#t	.	f	2.eT	.	f	V7
(8AA	.	.	.	.	.	.	.	.	.	.	.	.
8GG#XJ	.	.	.	.	.	.	.	.	.	.	.	.
8AA'L)	.	.	.	.	.	.	.	.	.	.	.	.
(8AA	.	.	.	.	.	.	.	.	.	.	.	.
8GG#J	.	.	.	.	.	.	.	.	.	.	.	.
=341	=341	=341	=341	=341	=341	=341	=341	=341	=341	=341	=341	=341
8AA'L)	.	.	2.gT	.	.	2.cc#t	.	.	2.eeT	.	.	.
(8AA	.	.	.	.	.	.	.	.	.	.	.	.
8GG#XJ	.	.	.	.	.	.	.	.	.	.	.	.
8AA'L)	.	.	.	.	.	.	.	.	.	.	.	.
8AA'	.	.	.	.	.	.	.	.	.	.	.	.
8AA'J	.	.	.	.	.	.	.	.	.	.	.	.
=342	=342	=342	=342	=342	=342	=342	=342	=342	=342	=342	=342	=342
4DD	.	sf	8f#'L	.	.	4dd	.	.	2.dd	.	sf	I\\
.	.	.	(8d	.	.	.	.	.	.	.	.	.
8r	.	.	8c#J	.	.	8r	.	.	.	.	.	.
4.r	.	.	8d'L)	.	.	4.r	.	.	.	.	.	.
.	.	.	(8B	.	.	.	.	.	.	.	.	.
.	.	.	8A#XJ	.	.	.	.	.	.	.	.	.
=343	=343	=343	=343	=343	=343	=343	=343	=343	=343	=343	=343	=343
2.r	.	.	8B'L)	.	.	2.r	.	.	[2.ddd	.	sf	IV
.	.	.	(8A	.	.	.	.	.	.	.	.	.
.	.	.	8GJ	.	.	.	.	.	.	.	.	.
.	.	.	8A'L)	.	.	.	.	.	.	.	.	.
.	.	.	(8E	.	.	.	.	.	.	.	.	.
.	.	.	8D#XJ	.	.	.	.	.	.	.	.	.
=344	=344	=344	=344	=344	=344	=344	=344	=344	=344	=344	=344	=344
2.r	.	.	8E'L)	.	.	2.r	.	.	4.ddd]	.	.	V7/V
.	.	.	8F#'	.	.	.	.	.	.	.	.	.
.	.	.	8G'J	.	.	.	.	.	.	.	.	.
.	.	.	8A'L	.	.	.	.	.	4ccc#	.	.	V
.	.	.	8B'	.	.	.	.	.	.	.	.	.
.	.	.	8c#'J	.	.	.	.	.	8bb	.	.	.
=345	=345	=345	=345	=345	=345	=345	=345	=345	=345	=345	=345	=345
2.r	.	.	8d'L	.	.	2.r	.	.	4aa'	.	.	I
.	.	.	8e'	.	.	.	.	.	.	.	.	.
.	.	.	8f#'J	.	.	.	.	.	8gg'	.	.	.
.	.	.	4g	.	.	.	.	.	4ff#'	.	.	ii6(7)
.	.	.	8r	.	.	.	.	.	8ee'	.	.	ii6
=346	=346	=346	=346	=346	=346	=346	=346	=346	=346	=346	=346	=346
8r	.	.	8r	.	.	2.dd	.	sf	2.ff#	.	sf	vi
(8dL	.	.	(8f#L	.	.	.	.	.	.	.	.	.
8c#J	.	.	8e#XJ	.	.	.	.	.	.	.	.	.
8d'L)	.	.	8f#'L)	.	.	.	.	.	.	.	.	.
(8B	.	.	(8d'	.	.	.	.	.	.	.	.	.
8A#XJ	.	.	8c#J	.	.	.	.	.	.	.	.	.
=347	=347	=347	=347	=347	=347	=347	=347	=347	=347	=347	=347	=347
8B'L)	.	.	8d'L)	.	.	[2.ddd	.	sf	[2.fff#	.	sf	IV7
(8G	.	.	(8B	.	.	.	.	.	.	.	.	.
8F#J	.	.	8A#XJ	.	.	.	.	.	.	.	.	.
8G'L)	.	.	8B'L)	.	.	.	.	.	.	.	.	.
(8E	.	.	(8G	.	.	.	.	.	.	.	.	.
8D#XJ	.	.	8F#J	.	.	.	.	.	.	.	.	.
=348	=348	=348	=348	=348	=348	=348	=348	=348	=348	=348	=348	=348
8E'L)	.	.	8G'L)	.	.	4.ddd]	.	.	4.fff#]	.	.	ii7
8F#'	.	.	8A'	.	.	.	.	.	.	.	.	.
8G'J	.	.	8B'J	.	.	.	.	.	.	.	.	.
8A'L	.	.	8c#'L	.	.	4ccc#'	.	.	4eee'	.	.	V7
8B'	.	.	8d'	.	.	.	.	.	.	.	.	.
8c#'J	.	.	8e'J	.	.	8bb'	.	.	8ddd'	.	.	.
=349	=349	=349	=349	=349	=349	=349	=349	=349	=349	=349	=349	=349
8d'L	.	.	8f#'L	.	.	4aa'	.	.	4ccc#'	.	.	IM7
8e'	.	.	8g'	.	.	.	.	.	.	.	.	.
8f#'J	.	.	8a'J	.	.	8gg'	.	.	8bb'	.	.	.
4g	.	.	8b'L	.	.	4ff#'	.	.	4aa'	.	.	ii6(+42)
.	.	.	8ccn'	.	.	.	.	.	.	.	.	.
8r	.	.	8cc#X'J	.	.	8ee'	.	.	8gg'	.	.	viio64
=350	=350	=350	=350	=350	=350	=350	=350	=350	=350	=350	=350	=350
2.DD	.	f	4dd	.	.	4dd	.	.	8ff#'L	.	.	I
.	.	.	.	.	.	.	.	.	(8dd	.	.	.
.	.	.	8r	.	.	8r	.	.	8cc#J	.	.	.
.	.	.	4D	.	f	4r	.	.	8dd'L)	.	.	.
.	.	.	.	.	.	.	.	.	(8b	.	.	I(64)
.	.	.	8r	.	.	8r	.	.	8a#XJ	.	.	.
=351	=351	=351	=351	=351	=351	=351	=351	=351	=351	=351	=351	=351
[2.D	.	sf	[2.d	.	sf	4r	.	.	8b'L)	.	.	.
.	.	.	.	.	.	.	.	.	(8g	.	.	.
.	.	.	.	.	.	8r	.	.	8f#J	.	.	.
.	.	.	.	.	.	4e	.	.	8g'L)	.	.	ii42
.	.	.	.	.	.	.	.	.	(8e	.	.	.
.	.	.	.	.	.	8r	.	.	8d#XJ	.	.	.
=352	=352	=352	=352	=352	=352	=352	=352	=352	=352	=352	=352	=352
4.D]	.	.	4.d]	.	.	[4.ee	.	sf	8e'L)	.	.	.
.	.	.	.	.	.	.	.	.	8f#'	.	.	.
.	.	.	.	.	.	.	.	.	8g'J	.	.	.
4C#'	.	.	4c#'	.	.	4ee]	.	.	8a'L	.	.	V6
.	.	.	.	.	.	.	.	.	8b'	.	.	.
8BB'	.	.	8B'	.	.	8dd	.	.	8cc#'J	.	.	.
=353	=353	=353	=353	=353	=353	=353	=353	=353	=353	=353	=353	=353
4AA'	.	.	4A'	.	.	4cc#'	.	.	8ddL	.	.	V7
.	.	.	.	.	.	.	.	.	8ee	.	.	.
8GG'	.	.	8G'	.	.	8b'	.	.	8ff#J	.	.	.
4FF#'	.	.	4F#'	.	.	4a'	.	.	4gg	.	.	.
8EE'	.	.	8E'	.	.	8g'	.	.	8r	.	.	.
=354	=354	=354	=354	=354	=354	=354	=354	=354	=354	=354	=354	=354
4DD'	.	.	4D'	.	.	8f#'L	.	.	8r	.	.	I
.	.	.	.	.	.	(8dd	.	.	(8ff#L	.	.	.
8r	.	.	8r	.	.	8cc#J	.	.	8ee#XJ	.	.	.
4D'	.	.	4F#'	.	.	8dd'L)	.	.	8ff#'L)	.	.	.
.	.	.	.	.	.	(8b	.	.	(8dd	.	.	I(64)
8r	.	.	8r	.	.	8a#XJ	.	.	8cc#J	.	.	.
=355	=355	=355	=355	=355	=355	=355	=355	=355	=355	=355	=355	=355
[2.d	.	sf	[2.f#	.	sf	8b'L)	.	.	8dd'L)	.	.	.
.	.	.	.	.	.	(8g	.	.	(8b	.	.	.
.	.	.	.	.	.	8f#J	.	.	8a#XJ	.	.	.
.	.	.	.	.	.	8g'L)	.	.	8b'L)	.	.	.
.	.	.	.	.	.	(8e	.	.	(8g	.	.	ii42
.	.	.	.	.	.	8d#XJ	.	.	8f#J	.	.	.
=356	=356	=356	=356	=356	=356	=356	=356	=356	=356	=356	=356	=356
4.d]	.	.	4.f#]	.	.	8e'L)	.	.	8g'L)	.	.	.
.	.	.	.	.	.	8f#'	.	.	8a'	.	.	.
.	.	.	.	.	.	8g'J	.	.	8b'J	.	.	.
4c#'	.	.	4e'	.	.	8a'L	.	.	8cc#'L	.	.	V6
.	.	.	.	.	.	8b'	.	.	8dd'	.	.	.
8B'	.	.	8d'	.	.	8cc#'J	.	.	8ee'J	.	.	.
=357	=357	=357	=357	=357	=357	=357	=357	=357	=357	=357	=357	=357
4A'	.	.	4c#'	.	.	8dd'L	.	.	8ff#'L	.	.	.
.	.	.	.	.	.	8ee'	.	.	8gg'	.	.	V7
8G'	.	.	8B'	.	.	8ff#'J	.	.	8aa'J	.	.	.
4F#'	.	.	4A'	.	.	8gg'L	.	.	8bb'L	.	.	.
.	.	.	.	.	.	8gg'	.	.	8cccn'	.	.	.
8E'	.	.	8G'	.	.	8gg'J	.	.	8ccc#X'J	.	.	viio6
=358	=358	=358	=358	=358	=358	=358	=358	=358	=358	=358	=358	=358
4D	.	ff	4F#	.	ff	8ff#'L	.	ff	4ddd	.	ff	I
.	.	.	.	.	.	(8dd	.	.	.	.	.	.
8r	.	.	8r	.	.	8cc#J	.	.	8r	.	.	.
4r	.	.	4f# 4a	.	.	8dd'L)	.	.	4r	.	.	.
.	.	.	.	.	.	8dd'	.	.	.	.	.	.
8r	.	.	8r	.	.	8dd'J	.	.	8r	.	.	.
=359	=359	=359	=359	=359	=359	=359	=359	=359	=359	=359	=359	=359
4GG	.	.	4r	.	.	8r	.	.	4g 4dd 4bb	.	.	IV
.	.	.	.	.	.	(8ddL	.	.	.	.	.	.
8r	.	.	8r	.	.	8cc#J	.	.	8r	.	.	.
4r	.	.	4G 4d 4b	.	.	8dd'L)	.	.	4r	.	.	.
.	.	.	.	.	.	8dd'	.	.	.	.	.	.
8r	.	.	8r	.	.	8dd'J	.	.	8r	.	.	.
=360	=360	=360	=360	=360	=360	=360	=360	=360	=360	=360	=360	=360
4AA	.	.	4r	.	.	8r	.	.	4f# 4dd 4aa	.	.	V7(4)
.	.	.	.	.	.	(8ddL	.	.	.	.	.	.
8r	.	.	8r	.	.	8cc#J	.	.	8r	.	.	.
4r	.	.	4A 4f#	.	.	8dd'L)	.	.	4r	.	.	.
.	.	.	.	.	.	8dd'	.	.	.	.	.	.
8r	.	.	8r	.	.	8dd'J	.	.	8r	.	.	.
=361	=361	=361	=361	=361	=361	=361	=361	=361	=361	=361	=361	=361
4AA	.	.	4r	.	.	8r	.	.	4A 4e 4cc#	.	.	V7
.	.	.	.	.	.	(8aL	.	.	.	.	.	.
8r	.	.	8r	.	.	8g#XJ	.	.	8r	.	.	.
4r	.	.	4A 4g	.	.	8a'L)	.	.	4r	.	.	.
.	.	.	.	.	.	8a'	.	.	.	.	.	.
8r	.	.	8r	.	.	8a'J	.	.	8r	.	.	.
=362	=362	=362	=362	=362	=362	=362	=362	=362	=362	=362	=362	=362
4D	.	.	4A 4f#	.	.	4a	.	.	4A 4f# 4dd	.	.	I
8r	.	.	8r	.	.	8r	.	.	8r	.	.	.
4r	.	.	4r	.	.	4r	.	.	8r	.	.	.
.	.	.	.	.	.	.	.	.	(8aL	.	p	.
8r	.	.	8r	.	.	8r	.	.	8g#XJ	.	.	.
=363	=363	=363	=363	=363	=363	=363	=363	=363	=363	=363	=363	=363
(2.AA	.	p	(2.G	.	p	(2.c#	.	p	[2.a)	.	.	V7
=364	=364	=364	=364	=364	=364	=364	=364	=364	=364	=364	=364	=364
4D)	.	.	4F#)	.	.	4d)	.	.	8aL]	.	.	I
.	.	.	.	.	.	.	.	.	(8dd	.	.	.
8r	.	.	8r	.	.	8r	.	.	8eeJ	.	.	.
4r	.	.	4r	.	.	4r	.	.	8ff#L	.	.	.
.	.	.	.	.	.	.	.	.	8gg	.	.	.
8r	.	.	8r	.	.	8r	.	.	8gg#XJ	.	.	.
=365	=365	=365	=365	=365	=365	=365	=365	=365	=365	=365	=365	=365
(2.A	.	.	(2.g	.	.	(2.cc#	.	.	[2.aa)	.	.	V7
=366	=366	=366	=366	=366	=366	=366	=366	=366	=366	=366	=366	=366
4d)	.	.	4f#)	.	.	4dd)	.	.	4aa]	.	.	I
8r	.	.	8r	.	.	8r	.	.	8r	.	.	.
4r	.	.	4r	.	.	4r	.	.	8r	.	.	.
.	.	.	.	.	.	.	.	.	(8dddL	.	.	.
8r	.	.	8r	.	.	8r	.	.	8ccc#J	.	.	.
=367	=367	=367	=367	=367	=367	=367	=367	=367	=367	=367	=367	=367
2.r	.	.	2.r	.	.	2.r	.	.	4ddd)	.	.	.
.	.	.	.	.	.	.	.	.	8r	.	.	.
.	.	.	.	.	.	.	.	.	8r	.	.	.
.	.	.	.	.	.	.	.	.	(8ddL	.	.	.
.	.	.	.	.	.	.	.	.	8cc#J	.	.	.
=368	=368	=368	=368	=368	=368	=368	=368	=368	=368	=368	=368	=368
4r	.	.	4r	.	.	4r	.	.	4dd)	.	.	.
8r	.	.	8r	.	.	8r	.	.	8r	.	.	.
8r	.	.	8r	.	.	8r	.	.	8r	.	.	.
(8DDL	.	pp	(8DL	.	pp	(8dL	.	pp	(8dL	.	pp	.
8CC#J	.	.	8C#J	.	.	8c#J	.	.	8c#J	.	.	.
=369	=369	=369	=369	=369	=369	=369	=369	=369	=369	=369	=369	=369
4DD)	.	.	4D)	.	.	4d)	.	.	4d)	.	.	.
8r	.	.	8r	.	.	8r	.	.	8r	.	.	.
8r	.	.	8r	.	.	8r	.	.	8r	.	.	.
(8DDL	.	pp	(8DL	.	.	(8dL	.	.	(8dL	.	.	.
8CC#J	.	.	8C#J	.	.	8c#J	.	.	8c#J	.	.	.
=370	=370	=370	=370	=370	=370	=370	=370	=370	=370	=370	=370	=370
4DD)	.	.	4D)	.	.	4d)	.	.	4d)	.	.	I\\
8r	.	.	8r	.	.	8r	.	.	8r	.	.	.
4r	.	.	4r	.	.	4r	.	.	4r	.	.	.
8r	.	.	8r	.	.	8r	.	.	8r	.	.	.
=371	=371	=371	=371	=371	=371	=371	=371	=371	=371	=371	=371	=371
4r	.	.	4r	.	.	4r	.	.	4r	.	.	.
8r;	.	.	8r;	.	.	8r;	.	.	8r;	.	.	.
8r	.	.	8r	.	.	8r	.	.	8r	.	.	.
==	==	==	==	==	==	==	==	==	==	==	==	==
*-	*-	*-	*-	*-	*-	*-	*-	*-	*-	*-	*-	*-
!!!system-decoration: s1,s2,s3,s4
